P3
64 64
255
63 63 63 61 61 60 64 64 64 62 62 62 60 60 60 63 62 62 61 61 61 68 68 67 64 64 63 67 67 67 63 63 63 67 67 67 64 63 64 67 66 66 63 63 62 67 66 66 60 60 60 59 59 59 60 60 60 60 60 60 60 60 60 60 60 60 60 59 59 60 59 59 59 59 59 59 59 59 60 59 59 64 64 63 61 60 60 60 60 60 60 59 59 59 59 59 59 59 58 59 59 59 60 59 59 59 59 59 59 59 59 59 58 58 59 58 58 59 59 59 59 59 59 60 59 59 60 60 60 60 60 60 60 59 59 61 60 60 56 56 56 57 57 57 63 62 62 64 64 63 60 60 60 59 59 58 52 64 63 51 65 63 52 64 63 51 64 62 52 61 59 58 57 57 61 61 61 59 59 59 61 61 61 64 64 64 61 61 60 64 64 63 
60 60 59 104 104 104 110 110 110 125 125 124 99 100 100 104 104 104 107 107 107 100 100 100 114 114 114 96 96 95 112 112 112 98 97 97 113 114 113 98 98 98 115 115 115 98 97 97 128 128 128 131 131 131 128 128 128 129 129 129 131 131 131 132 132 132 130 130 130 124 124 123 122 122 122 126 126 126 105 105 105 88 88 88 118 118 118 121 121 121 123 123 123 126 126 126 124 124 124 120 120 120 117 117 117 100 100 100 95 95 95 116 116 117 109 109 109 121 121 121 120 120 120 122 121 121 122 122 122 123 123 123 124 124 124 126 126 126 97 97 97 102 102 102 113 113 113 107 107 106 130 131 131 93 91 90 131 45 49 153 41 46 150 42 48 153 39 44 117 48 51 106 111 110 128 127 127 108 108 108 126 126 126 118 118 118 110 110 110 57 57 57 
63 62 63 106 106 106 103 103 103 136 136 136 98 98 98 88 88 88 104 104 104 51 51 51 113 113 113 57 56 56 111 110 110 57 57 57 97 97 97 57 57 57 106 106 106 58 57 57 108 108 108 80 80 80 136 135 135 136 135 135 138 138 138 138 138 138 136 136 136 133 133 133 134 133 133 136 136 136 121 121 121 75 75 75 129 128 129 134 134 134 131 131 130 113 113 113 125 124 125 122 121 121 123 123 123 110 110 110 105 105 105 112 112 112 107 106 106 122 122 122 121 121 121 125 125 125 121 121 121 123 123 123 111 111 111 96 96 96 95 95 95 109 109 109 130 130 130 98 98 98 141 141 142 109 107 106 158 88 92 179 88 92 175 88 92 177 87 91 145 93 94 122 125 125 132 131 131 115 115 115 122 122 122 96 95 96 113 113 113 58 58 58 
59 59 59 118 118 118 132 132 132 129 129 129 105 105 105 129 129 129 117 117 117 60 60 60 126 125 126 67 66 67 125 124 124 68 67 67 97 97 97 66 66 66 107 107 107 64 63 64 115 115 115 99 99 99 131 130 131 130 130 130 128 128 128 128 128 127 127 127 127 128 128 128 128 128 128 128 128 128 127 127 127 78 78 78 126 126 126 129 130 129 126 126 126 108 108 108 94 94 94 110 109 109 103 103 103 104 104 104 110 109 110 93 93 93 98 97 97 105 105 105 104 104 104 107 106 107 112 112 112 115 116 115 106 106 105 107 107 107 96 96 96 115 115 115 127 126 126 98 97 97 138 138 139 107 102 102 159 63 66 180 61 65 176 62 66 180 59 63 143 70 72 112 117 116 114 112 113 108 107 108 120 120 120 113 113 113 99 99 99 57 57 57 
59 59 59 118 118 118 128 127 128 129 129 129 94 94 93 88 88 88 110 110 110 60 60 60 122 122 122 65 65 65 122 122 122 66 66 66 96 96 96 65 65 65 99 100 99 59 59 59 132 132 132 139 138 138 123 123 123 102 102 102 116 116 116 113 113 113 118 118 118 115 115 115 114 115 114 116 116 116 110 110 110 78 77 77 117 117 116 116 116 116 120 120 119 99 98 99 106 106 106 135 135 135 128 128 128 128 128 128 128 128 128 118 119 118 110 110 110 113 113 113 122 122 122 122 122 122 117 117 117 115 115 115 121 121 121 121 121 121 115 116 115 143 143 143 128 128 128 95 95 95 134 135 135 111 108 106 154 93 95 167 91 94 164 91 94 166 92 94 143 100 101 122 124 124 126 125 125 112 112 112 134 134 134 132 132 132 108 108 108 57 57 57 
63 63 63 105 104 104 106 106 106 133 134 133 100 100 100 107 107 107 105 105 105 57 57 56 107 107 107 58 59 58 106 107 106 59 59 59 94 94 94 60 60 60 95 95 95 56 56 56 126 126 126 133 134 133 118 119 118 106 106 106 128 128 128 74 73 73 89 89 88 93 93 92 91 91 91 93 93 93 90 90 90 81 82 81 94 94 94 94 94 94 95 95 95 98 98 97 132 132 132 124 124 125 125 125 125 123 123 123 127 127 127 110 110 110 107 107 107 106 106 106 112 112 112 108 109 108 110 110 110 107 107 107 108 108 107 105 106 105 109 109 108 131 131 131 126 126 126 96 95 95 136 138 138 111 105 103 168 59 63 188 56 61 182 57 61 188 55 59 150 68 69 122 127 126 133 132 132 114 114 114 132 132 132 105 105 105 114 114 114 58 58 58 
62 62 62 110 110 110 116 116 117 133 133 133 109 109 109 136 136 137 127 127 127 117 117 117 126 127 126 113 113 113 129 129 129 109 109 109 106 106 106 100 101 101 117 117 117 104 103 104 122 122 122 135 136 135 121 121 122 94 93 94 116 115 115 99 99 99 106 106 106 109 109 109 112 112 112 115 115 115 121 121 121 122 122 122 125 124 125 126 126 126 123 123 123 123 123 123 118 118 118 111 110 110 97 97 97 122 122 122 94 94 94 122 121 122 86 86 86 130 130 129 90 90 90 120 120 120 100 100 100 116 115 116 105 105 104 107 107 107 138 138 138 120 119 119 106 106 106 119 119 119 141 141 142 107 104 103 144 97 97 163 102 102 161 103 103 161 102 103 141 107 108 124 126 126 133 133 132 118 118 118 135 135 135 116 116 116 114 115 114 58 58 58 
57 57 57 74 74 74 93 93 93 75 75 75 49 49 49 77 77 77 86 86 86 77 77 77 85 85 85 88 88 88 84 83 83 83 83 82 75 75 75 80 79 80 75 74 75 77 77 77 57 57 57 79 79 79 76 75 76 63 62 63 73 73 73 75 75 75 75 74 74 74 74 74 79 79 79 81 81 81 83 82 83 80 80 80 83 82 83 82 82 82 79 78 78 69 69 69 68 67 68 70 70 70 62 63 63 79 79 79 57 56 57 79 78 79 61 61 61 75 75 75 65 64 65 67 66 66 58 57 58 69 69 69 63 63 63 63 63 63 79 78 79 87 86 86 58 58 58 72 72 73 81 81 81 75 75 75 73 81 81 78 86 86 81 88 88 80 88 88 70 76 76 82 82 82 85 85 85 55 54 55 83 82 83 95 95 95 75 75 75 57 57 57 
56 56 56 93 93 93 84 83 83 74 73 74 66 65 65 75 74 74 91 92 92 79 79 79 76 75 76 88 88 88 98 98 98 95 95 95 101 101 101 79 79 79 86 86 86 94 94 94 80 80 80 92 92 92 94 94 94 95 95 95 92 92 92 94 94 95 95 95 95 94 94 94 72 72 72 69 68 69 83 83 83 98 97 98 95 95 95 95 95 95 99 99 100 86 86 86 84 84 84 85 85 85 83 83 83 100 100 100 83 82 82 94 94 94 101 101 101 77 77 77 94 94 94 68 68 68 91 91 91 82 82 82 80 80 80 92 92 92 80 80 80 93 93 93 60 60 60 88 88 89 67 66 66 96 96 95 98 97 97 95 94 94 84 82 83 68 67 67 84 83 83 94 94 94 72 71 72 67 67 68 85 85 85 85 85 85 91 91 91 56 55 55 
54 54 54 90 90 90 131 131 131 100 102 102 85 90 90 126 128 127 132 132 132 89 89 89 101 102 102 118 119 118 129 130 129 132 132 132 101 101 101 77 77 77 120 121 121 125 126 125 123 123 123 104 104 104 99 100 99 93 93 93 71 71 71 99 99 99 98 98 97 99 99 99 73 74 73 65 65 66 87 87 87 103 104 103 104 105 104 84 84 85 91 90 90 97 97 97 90 90 90 91 91 91 97 97 97 123 123 123 100 100 99 108 109 108 128 128 128 101 101 101 113 113 113 77 78 77 101 101 101 88 89 89 85 85 85 103 104 103 97 97 97 123 124 124 75 76 76 116 116 116 89 89 89 107 108 107 120 120 120 107 107 107 94 94 94 85 86 85 92 92 92 130 130 130 123 124 124 90 91 91 109 111 110 119 119 119 84 84 84 54 54 54 
57 57 57 67 66 66 130 133 133 121 104 103 110 71 70 106 97 96 132 133 132 87 87 87 129 129 129 138 139 139 116 116 116 94 94 94 77 77 77 110 111 110 122 122 122 96 96 96 94 94 94 48 49 48 48 48 48 49 49 49 46 45 46 47 47 47 54 55 54 55 55 55 49 48 49 50 50 50 48 48 48 56 56 56 52 52 52 48 48 48 51 51 51 46 47 46 40 40 40 64 64 64 103 103 103 126 126 126 102 103 102 111 111 111 135 134 135 102 101 102 118 118 118 58 58 58 46 46 46 48 48 48 47 47 47 47 48 47 65 65 65 133 133 134 75 74 74 128 128 128 134 135 134 129 129 129 92 92 92 99 99 99 84 85 84 85 85 86 82 82 82 135 135 135 116 110 109 103 75 75 127 109 109 130 132 132 69 68 68 57 57 57 
57 56 56 71 70 71 121 127 127 150 98 98 216 33 39 129 83 84 133 134 133 88 88 88 127 127 127 109 108 108 118 117 118 85 85 85 93 93 93 82 82 82 123 122 123 70 70 70 61 61 61 91 91 91 92 91 91 94 93 94 79 79 79 85 85 85 68 68 68 60 59 60 48 47 48 50 50 50 49 49 48 59 59 59 68 67 68 96 95 96 96 96 96 86 86 87 73 73 73 85 85 85 101 101 101 125 125 125 102 102 102 109 109 109 133 132 133 104 104 104 116 116 116 79 78 78 71 70 71 74 74 74 75 76 75 71 70 71 90 90 90 132 131 132 74 74 74 94 94 95 100 100 100 124 124 125 109 109 109 115 115 115 69 69 69 64 63 64 95 94 95 123 123 122 118 78 78 208 33 40 156 97 99 124 131 131 72 71 71 57 57 57 
57 57 57 71 70 70 126 131 130 153 100 100 233 37 44 146 89 90 121 119 118 83 82 82 129 128 129 88 87 87 115 115 115 106 106 106 91 91 91 87 87 87 84 84 84 59 59 59 90 91 90 98 98 98 104 103 103 98 98 98 90 90 90 105 106 105 92 92 92 93 92 93 94 93 94 81 80 80 96 95 96 91 90 91 98 97 97 111 111 111 114 114 114 110 110 110 90 89 90 84 84 84 101 101 101 125 125 125 104 102 103 109 108 108 133 133 133 109 109 109 131 130 131 84 83 83 75 74 74 79 78 78 87 87 87 87 86 87 91 90 90 133 133 133 86 86 86 69 69 69 74 73 74 122 121 122 130 130 131 102 102 102 72 72 72 74 73 73 80 79 80 100 99 98 136 82 81 242 36 45 159 99 99 124 132 131 72 71 71 57 57 57 
57 57 56 71 69 70 126 132 131 154 100 101 229 37 43 145 90 90 127 126 125 85 84 84 128 128 128 92 92 92 113 114 113 105 105 105 93 93 93 80 80 80 56 56 56 64 64 64 98 98 98 110 110 110 117 118 117 112 112 111 101 101 101 116 116 116 120 120 120 121 121 120 116 117 116 104 104 104 121 120 121 118 119 119 120 121 120 120 121 120 126 125 126 123 122 122 100 101 100 85 85 85 100 100 100 128 127 127 102 102 102 111 111 111 132 133 133 111 111 111 129 129 129 83 83 83 72 72 71 97 97 96 113 113 113 100 100 100 90 90 90 134 135 134 85 85 85 81 81 81 48 48 47 91 92 91 137 137 137 127 128 128 92 92 92 105 105 105 99 100 99 132 130 129 148 92 92 233 34 42 158 98 99 123 132 131 72 70 70 57 57 57 
57 57 56 71 70 70 126 132 131 154 101 101 229 37 43 149 91 91 136 135 134 87 87 87 127 127 126 92 93 92 114 114 114 116 116 116 91 91 91 55 55 55 90 90 90 70 70 70 111 110 110 118 118 118 104 105 104 103 103 103 99 99 99 114 114 114 115 116 115 115 116 115 112 112 112 100 100 100 116 116 116 113 114 113 116 116 116 118 118 118 123 122 122 117 118 117 100 100 100 86 87 86 104 104 104 123 123 123 105 105 105 111 112 111 132 132 132 113 112 112 122 122 122 78 79 78 72 72 71 100 100 100 115 115 115 97 97 97 88 89 88 143 143 143 90 89 90 79 79 78 49 49 49 47 47 47 100 100 100 119 119 119 92 92 92 87 88 87 104 105 105 114 111 110 136 79 78 236 37 45 157 98 98 123 131 131 72 70 70 58 57 57 
57 56 56 71 69 70 127 133 132 154 101 101 229 36 43 149 90 91 133 132 131 86 87 87 124 123 123 108 108 108 128 128 128 100 100 100 67 67 66 90 90 90 94 94 94 88 88 88 117 117 117 120 120 120 82 82 82 71 71 71 101 100 101 116 116 115 117 117 117 117 117 117 112 112 113 101 101 101 116 116 116 119 119 119 128 128 128 119 118 118 123 123 123 108 108 108 100 100 100 78 77 78 79 79 79 114 114 114 102 102 102 112 111 111 132 132 132 112 112 112 120 120 120 78 77 77 73 72 73 103 102 102 116 116 116 97 97 97 90 90 90 130 129 130 85 84 85 87 87 87 53 53 53 62 61 62 58 57 57 72 72 72 100 100 100 89 89 89 104 104 105 137 135 135 147 93 92 233 34 43 158 98 99 124 131 131 72 70 70 57 57 57 
57 56 56 69 68 68 115 121 120 151 96 97 230 36 43 149 90 91 133 132 131 85 86 86 127 127 127 81 81 81 84 83 84 61 61 61 65 64 65 97 97 97 108 107 107 95 94 94 107 106 106 110 110 110 99 98 99 98 97 98 94 94 94 108 108 108 109 109 109 113 112 113 113 113 113 101 101 101 115 115 115 124 124 124 136 135 136 119 118 118 124 124 124 105 104 105 96 96 96 79 78 78 90 90 90 111 111 111 100 99 100 112 111 111 132 131 132 113 113 113 124 124 124 78 77 77 74 73 73 103 103 103 116 116 116 98 97 98 91 90 90 130 129 130 84 84 84 84 84 84 74 73 74 75 74 75 71 71 71 68 68 68 79 79 79 91 90 91 102 102 103 137 136 135 151 95 96 233 33 42 158 98 99 124 131 130 72 71 71 58 57 57 
56 56 56 67 66 66 106 112 112 147 92 93 230 37 43 147 88 89 133 133 131 85 85 85 127 126 126 90 90 90 51 51 51 44 44 44 76 75 75 111 111 111 118 118 118 103 103 103 120 120 120 119 119 119 124 123 123 126 126 126 108 108 107 121 120 121 121 121 121 111 110 110 113 113 113 101 101 101 116 116 116 119 119 119 128 128 128 119 119 118 123 122 122 107 106 107 94 94 94 85 85 85 111 112 111 111 111 111 103 102 102 112 112 112 132 132 132 114 114 114 129 128 129 82 82 82 73 73 73 93 93 93 110 110 110 99 99 99 92 92 92 123 123 123 83 83 83 83 82 82 80 79 79 87 87 87 81 81 81 77 77 77 35 34 34 84 84 84 107 108 108 125 123 122 147 91 91 232 34 42 158 99 99 123 131 130 72 71 71 58 57 57 
57 57 57 68 67 67 119 125 124 151 97 98 229 36 42 147 88 89 133 132 130 89 89 89 105 105 104 56 56 56 67 68 67 47 47 47 84 84 84 122 122 122 119 119 118 100 100 100 96 96 96 95 95 95 89 89 88 86 86 85 80 80 80 85 84 85 107 107 107 123 123 123 115 116 115 102 101 101 118 117 117 115 116 115 117 118 117 119 119 119 124 124 124 105 106 105 94 94 94 85 85 85 113 114 113 110 110 110 103 103 103 113 113 113 131 131 131 113 113 113 131 131 131 86 86 86 71 71 71 100 100 100 113 113 113 96 96 95 77 78 77 116 116 116 80 80 80 83 83 83 79 79 78 108 109 109 104 105 105 83 82 83 66 66 66 63 63 63 86 87 87 133 131 130 148 92 93 232 34 42 158 99 99 123 130 130 72 70 70 58 58 57 
57 57 57 71 70 70 126 132 131 153 101 101 229 36 42 149 89 90 134 132 131 86 86 87 67 66 66 41 42 41 74 74 74 60 60 60 94 94 93 120 121 120 119 120 119 100 100 101 123 123 123 126 126 126 86 87 86 74 74 74 81 80 80 78 78 78 106 106 105 123 123 123 116 117 117 100 100 100 116 116 116 117 118 117 127 127 126 107 107 107 89 89 89 109 109 109 93 93 92 85 85 85 123 123 123 114 114 114 103 103 102 113 113 113 132 132 132 114 114 114 131 132 131 85 85 85 72 72 72 104 104 104 118 118 118 93 93 93 58 58 58 125 125 125 80 79 80 83 83 83 80 80 80 115 115 115 116 116 116 103 103 103 88 89 88 73 73 72 57 57 57 139 138 137 145 90 90 233 35 42 158 99 99 124 131 131 72 71 71 58 58 57 
57 56 56 73 72 72 117 122 122 140 85 86 230 37 43 148 89 90 137 135 134 70 70 70 64 64 64 60 59 60 83 82 83 67 66 67 93 93 93 121 120 121 119 119 119 97 97 97 97 97 97 121 121 121 103 102 102 91 90 90 94 94 94 96 96 96 112 112 112 128 127 128 122 122 122 101 101 101 123 123 123 130 130 130 132 132 132 123 122 123 115 115 114 114 114 114 97 97 97 82 81 81 127 127 127 115 115 115 102 101 101 113 112 113 132 132 132 115 115 115 132 132 132 85 84 85 73 72 72 104 104 104 117 117 117 96 95 95 76 75 76 116 115 115 81 81 81 83 83 83 81 80 81 115 114 115 117 117 117 102 102 102 77 77 77 64 63 64 75 75 75 137 136 136 142 87 89 233 34 42 160 99 101 107 114 113 72 71 71 58 58 58 
57 56 56 71 70 70 127 133 133 151 99 99 229 36 42 148 90 91 135 133 132 82 82 82 76 75 76 62 61 62 90 90 90 66 66 66 94 94 94 120 120 120 118 118 118 102 102 102 80 80 80 111 111 111 101 100 101 78 77 78 84 84 84 85 85 85 109 108 109 86 85 85 69 69 69 73 73 73 79 79 79 80 79 80 79 79 79 81 81 81 86 86 86 72 72 72 68 67 68 84 83 83 129 129 129 122 122 122 106 105 106 113 112 112 134 134 134 116 117 116 133 133 133 85 84 85 73 72 72 105 105 105 117 117 117 99 98 98 91 91 91 124 124 124 84 84 84 84 83 83 81 80 81 115 115 115 117 118 117 99 99 99 96 96 96 74 73 74 70 70 70 135 134 133 141 87 89 233 33 42 159 99 100 98 105 105 74 73 73 58 57 58 
57 57 56 71 69 69 127 134 133 153 102 102 229 36 43 148 90 91 135 134 132 81 81 82 79 78 78 64 63 63 90 90 90 64 64 63 94 94 95 120 120 120 118 118 118 100 101 100 132 132 132 124 124 124 105 105 104 118 118 118 99 99 99 118 118 118 124 123 123 100 100 100 75 75 75 53 53 53 84 84 84 90 90 90 89 89 89 89 89 88 86 87 88 62 55 47 60 40 19 101 100 97 124 124 125 111 111 111 108 108 108 105 105 105 119 119 119 115 115 115 133 134 134 85 85 85 73 73 72 105 105 105 118 117 117 98 98 98 89 90 90 131 131 130 86 85 86 84 83 84 81 81 81 115 115 115 117 118 117 99 99 99 93 93 93 86 86 85 76 76 76 133 132 131 140 87 88 232 34 42 158 101 101 101 107 107 75 73 73 58 58 58 
57 57 57 69 68 68 125 132 131 153 101 102 229 37 42 148 90 91 135 134 133 81 81 81 83 82 82 72 73 72 89 89 89 72 72 72 93 93 93 113 113 113 110 111 110 98 97 98 131 130 131 118 118 118 91 91 91 125 125 124 101 101 101 125 125 125 132 133 132 136 137 136 108 109 108 71 71 71 117 117 117 129 130 129 129 130 129 132 131 131 118 119 121 79 68 56 84 56 23 98 96 93 124 124 125 109 109 109 103 103 103 110 110 110 121 121 121 112 113 113 134 134 134 85 85 85 72 72 72 105 105 105 118 118 118 98 98 98 90 90 90 130 130 130 86 86 86 84 84 83 80 81 80 113 113 113 114 115 114 98 98 98 93 93 92 85 85 85 83 83 83 132 132 131 139 86 87 232 34 41 151 95 96 99 106 106 76 74 74 58 58 58 
58 58 58 69 68 68 105 111 110 155 103 104 228 36 42 148 90 91 135 134 133 79 80 80 87 87 87 115 116 116 109 109 109 121 121 121 107 107 107 127 127 127 125 125 125 110 109 110 124 124 123 122 122 122 123 124 124 120 119 120 124 124 124 111 111 110 128 129 128 133 133 133 100 99 100 110 110 110 119 119 119 117 117 117 109 108 109 131 130 130 116 117 118 77 66 54 86 57 24 98 95 93 124 125 126 111 111 110 102 102 102 114 114 114 135 134 135 116 116 116 133 133 133 85 85 85 73 72 72 105 105 105 117 118 117 98 98 98 90 90 90 131 130 130 86 86 86 84 84 83 80 81 80 115 114 115 116 116 116 102 102 102 93 93 93 85 84 84 84 83 84 132 132 131 140 86 87 232 34 42 153 96 97 99 107 107 76 74 74 59 58 58 
58 58 57 71 69 70 102 109 109 155 103 104 228 34 41 149 91 92 135 134 133 80 80 80 85 84 85 110 109 110 113 113 113 118 118 118 119 119 120 121 120 121 120 119 120 114 113 114 95 94 94 112 112 112 112 112 112 116 116 116 108 107 107 96 97 96 104 104 104 103 102 103 99 98 99 105 105 105 98 98 98 107 106 107 107 107 107 129 129 129 115 116 118 76 66 54 85 55 23 97 94 92 125 126 126 111 111 111 102 102 102 113 112 113 132 131 131 116 116 116 121 121 121 81 80 81 74 73 74 105 105 105 118 118 118 99 99 99 89 88 89 125 124 125 86 85 85 84 84 84 81 81 81 115 115 115 117 117 117 105 105 105 87 86 87 89 87 88 83 82 82 133 132 132 141 87 87 233 34 42 153 94 96 100 107 107 76 74 74 59 58 59 
58 57 57 72 71 71 102 109 109 154 103 104 228 35 42 148 91 92 135 134 132 83 83 83 96 95 95 108 108 108 107 107 107 133 134 133 136 136 136 108 108 108 126 126 125 128 128 128 90 90 90 123 123 124 126 125 126 104 104 104 116 116 116 116 116 117 114 114 114 115 114 114 95 95 95 89 89 88 86 85 85 90 89 90 108 108 108 134 134 133 116 117 119 76 65 54 85 55 23 99 96 93 123 124 125 110 110 110 103 103 103 107 107 107 124 124 124 117 118 117 118 117 117 80 79 79 74 73 73 105 105 105 120 120 120 101 101 101 90 89 89 128 129 128 84 84 84 84 83 84 82 81 81 115 115 115 114 114 114 117 116 117 116 115 115 94 92 92 81 81 81 128 128 127 142 87 88 234 35 43 155 98 99 99 106 106 77 75 75 59 58 59 
57 57 57 73 72 71 104 110 110 162 111 112 229 36 42 148 93 92 134 134 132 81 81 81 91 90 90 105 106 106 104 105 104 128 129 128 131 131 131 112 112 112 124 125 124 128 128 128 114 112 112 133 133 133 137 137 137 112 112 112 119 119 119 89 89 89 90 90 90 94 94 94 73 73 73 67 67 67 96 96 96 89 89 89 106 106 105 134 133 133 116 117 119 76 66 54 91 59 24 100 97 93 124 125 126 110 110 110 102 102 102 113 113 112 131 131 131 116 116 117 128 128 128 80 80 79 72 72 72 106 106 105 121 121 121 101 101 101 89 90 89 130 131 130 85 85 85 84 83 84 81 82 81 115 116 115 118 118 118 110 110 110 88 88 88 87 87 87 82 82 82 128 128 128 142 89 89 235 36 43 156 98 98 98 106 105 77 75 76 59 59 59 
57 57 57 73 72 72 102 109 108 153 105 105 221 31 38 145 93 93 134 134 132 81 81 81 90 90 89 105 106 105 104 104 104 131 131 131 130 130 130 134 134 134 134 134 134 121 122 122 80 90 88 79 80 81 95 95 94 137 137 137 116 116 116 89 89 89 85 86 85 85 86 86 93 93 93 73 73 73 103 103 103 89 89 89 106 106 106 134 133 133 116 118 119 76 66 53 82 54 23 98 96 93 125 126 126 110 110 110 103 103 102 113 113 113 132 132 132 116 116 116 131 131 131 82 83 82 72 72 72 106 106 106 122 122 122 101 101 101 90 90 90 119 119 119 83 82 82 85 85 84 81 81 81 115 115 115 112 111 112 95 95 95 74 75 74 82 83 82 84 83 84 130 131 130 139 89 89 231 31 39 155 96 97 98 106 106 77 75 75 59 59 58 
57 57 57 73 72 73 103 106 105 130 113 112 140 87 87 127 105 105 133 132 131 78 79 79 85 85 85 101 101 101 99 99 99 107 107 107 128 128 128 131 131 130 133 133 133 117 111 113 91 28 25 48 35 19 75 76 77 122 121 121 108 108 108 106 106 106 101 102 101 95 95 95 100 99 99 78 78 78 102 102 102 88 88 88 106 105 106 134 133 133 116 118 119 78 67 55 85 55 24 99 96 93 124 125 126 109 109 109 99 99 99 109 109 109 132 131 131 114 114 114 132 132 132 85 85 85 72 71 72 109 109 109 124 124 124 101 101 101 90 89 90 124 124 124 84 84 84 85 85 85 81 81 81 117 117 117 67 66 66 75 75 75 85 85 85 84 83 83 83 83 83 132 132 132 122 102 101 145 82 83 128 106 106 100 103 104 77 76 76 59 58 58 
57 57 57 74 73 73 102 103 103 134 136 136 130 137 136 128 129 129 131 132 132 81 81 81 91 91 91 115 114 115 121 121 121 125 125 125 126 126 126 132 131 131 134 134 134 115 109 111 116 44 31 89 63 34 93 94 96 117 117 117 121 121 121 73 73 73 55 54 55 55 54 55 63 62 62 85 85 85 102 102 102 87 86 87 106 106 106 135 135 134 118 119 121 79 67 54 89 56 22 98 95 92 124 125 125 108 108 108 110 108 109 105 104 105 103 103 103 113 112 112 133 132 133 83 82 82 71 70 71 105 105 105 118 118 118 101 101 101 90 90 90 126 126 126 86 86 86 85 84 85 79 78 79 115 114 114 100 99 99 89 89 89 77 77 77 82 81 81 84 84 84 132 132 132 132 134 134 127 136 135 124 126 126 98 99 99 77 77 77 59 58 58 
57 57 57 73 73 73 103 105 104 136 133 133 135 108 107 133 128 126 131 133 132 83 82 82 103 102 103 128 128 128 131 132 131 137 138 137 126 126 126 132 131 131 135 135 134 107 110 110 73 62 30 90 64 35 92 94 95 117 118 117 122 122 122 78 78 78 68 68 68 71 71 71 75 76 75 84 84 84 102 102 102 89 89 89 101 101 101 125 125 124 119 120 121 86 77 67 85 58 30 106 104 101 123 124 125 108 107 107 134 139 139 121 124 123 106 107 106 128 132 132 130 130 130 85 85 85 81 81 81 118 118 118 128 128 128 98 98 98 87 87 86 127 127 127 87 86 86 83 82 83 85 85 85 113 113 113 117 116 116 107 106 106 93 93 93 94 93 93 85 85 85 133 134 133 143 139 139 131 104 104 129 123 122 99 100 100 77 76 76 58 58 58 
57 57 57 73 71 72 101 109 108 167 82 84 238 28 37 165 77 78 131 138 136 78 77 77 78 78 78 96 97 96 102 102 102 113 113 113 124 124 124 132 132 131 132 135 134 120 112 112 144 40 34 86 61 33 91 94 94 117 117 116 117 117 117 90 90 90 109 109 108 110 111 110 88 88 88 82 82 82 101 101 100 96 96 95 116 116 116 120 121 121 119 119 119 97 97 97 104 104 104 121 121 121 122 122 123 112 109 108 145 86 85 138 83 83 144 87 86 140 81 82 127 123 122 92 93 93 112 113 112 122 122 122 125 125 125 116 116 116 107 107 107 125 126 126 83 83 83 99 99 99 120 120 119 122 123 122 120 120 120 119 119 119 118 118 118 120 121 120 98 97 97 133 141 139 168 87 89 236 27 36 166 74 75 97 104 103 77 75 75 59 59 58 
58 57 57 74 72 72 101 109 108 164 88 89 229 31 39 162 80 81 132 139 137 75 74 74 62 62 61 70 70 70 62 62 62 84 84 84 119 119 119 123 123 122 123 124 123 111 108 108 114 49 32 88 62 33 91 93 94 117 116 117 116 116 116 88 88 87 114 114 114 116 116 116 86 85 86 82 82 82 100 100 100 90 90 89 121 120 120 105 104 105 113 113 113 98 98 98 98 98 98 107 107 107 121 121 121 111 108 107 135 95 94 135 101 101 140 107 106 136 102 101 127 125 125 80 81 80 105 105 105 103 103 103 101 101 101 107 107 107 99 99 99 125 124 125 82 82 82 96 97 96 104 105 104 102 102 102 103 102 103 99 99 99 95 95 95 100 100 100 92 90 90 134 141 140 164 88 89 230 30 40 163 78 80 98 105 104 77 76 76 59 59 59 
57 57 57 74 73 74 103 104 104 135 137 136 134 118 117 132 128 128 132 133 133 81 81 81 88 87 87 110 110 110 78 77 78 90 89 90 117 118 118 115 116 118 120 120 122 106 108 111 78 60 30 89 63 34 92 93 95 117 116 116 115 115 115 88 88 87 113 112 113 115 114 115 85 84 84 81 81 80 102 102 102 77 76 77 70 69 70 67 66 67 68 68 68 57 57 57 54 53 53 84 83 84 125 125 124 106 106 106 121 126 126 126 130 130 113 117 117 125 130 130 127 127 127 84 83 84 67 67 67 61 61 61 63 63 62 64 63 63 92 91 92 126 125 126 85 85 84 84 84 84 66 65 66 66 65 66 67 67 67 67 67 67 67 67 67 65 64 65 79 79 79 132 132 132 132 132 131 130 115 114 131 131 130 100 100 100 77 77 77 59 59 59 
57 57 57 73 73 73 106 107 107 118 111 111 101 100 99 126 129 128 131 132 132 82 81 82 91 91 91 113 112 113 76 76 75 90 91 91 112 111 111 71 59 48 70 60 49 64 56 46 89 58 27 88 63 35 92 92 94 116 116 115 115 115 115 88 88 88 113 112 113 115 115 114 86 86 86 82 82 82 103 102 103 83 82 82 58 58 58 49 49 49 55 54 55 47 46 46 45 44 45 87 87 87 124 125 124 105 105 106 123 121 122 128 127 127 120 119 119 126 125 125 125 125 125 86 85 86 62 61 61 53 53 53 56 56 56 60 59 60 95 94 94 127 128 127 79 79 78 84 83 83 60 59 59 49 48 48 52 51 51 51 51 51 50 49 49 56 55 55 82 82 82 130 131 131 131 132 132 102 100 99 113 109 108 103 104 104 77 77 76 59 59 59 
57 57 57 74 73 73 99 105 105 145 98 99 172 37 40 113 87 87 133 135 133 81 81 81 90 89 90 112 113 113 71 72 71 95 95 96 108 107 106 63 51 19 41 41 15 40 42 17 85 64 27 90 65 37 91 92 93 116 116 116 116 117 116 88 88 88 113 113 113 115 115 115 88 88 88 84 84 84 99 98 98 76 76 76 81 81 80 88 88 88 95 95 95 80 79 80 73 73 73 88 89 88 122 122 122 105 105 105 128 127 127 129 130 130 135 135 135 132 132 132 128 128 128 79 79 79 90 91 90 99 99 99 99 98 99 92 92 92 95 96 95 126 127 127 91 90 90 86 85 85 90 90 90 93 93 93 92 92 92 92 92 92 92 92 92 93 94 93 87 87 87 134 136 136 108 87 86 159 34 38 145 97 97 100 107 107 78 76 76 59 59 59 
57 57 57 75 73 74 99 105 105 154 97 98 240 36 42 145 89 89 133 134 133 78 78 78 87 87 87 112 113 112 87 87 87 88 89 89 113 108 108 121 32 21 140 39 29 133 33 26 125 40 22 78 56 26 87 89 89 116 116 116 116 116 116 88 88 88 112 112 112 115 115 115 87 87 87 88 88 88 97 97 97 99 100 99 108 109 109 106 106 106 108 107 108 91 92 91 93 94 93 110 111 111 113 113 113 95 95 95 87 87 86 87 88 87 95 95 95 92 92 92 109 109 108 91 92 91 112 113 112 112 111 112 109 109 109 111 111 110 105 105 105 121 121 121 107 106 106 118 118 118 110 111 110 111 112 112 108 108 109 109 109 109 107 107 107 90 90 90 90 89 89 134 136 135 137 87 87 237 33 41 161 100 101 99 106 106 77 76 76 59 59 59 
57 57 57 74 72 72 104 109 109 154 100 101 230 35 42 148 89 91 134 133 132 80 80 80 96 95 95 124 124 125 117 117 117 110 110 111 124 121 121 146 78 83 146 67 72 164 83 89 126 65 67 94 90 82 105 104 105 117 116 116 116 116 116 88 88 88 113 113 112 115 115 115 86 86 86 89 89 89 133 134 133 119 119 119 91 90 90 124 124 124 81 81 81 121 121 121 64 63 64 115 115 115 138 138 138 113 113 112 83 83 83 114 114 114 114 114 114 107 107 107 101 101 101 98 98 98 112 111 111 118 118 118 119 119 119 120 119 120 109 109 109 123 123 123 108 108 108 123 123 123 122 122 122 87 87 87 115 114 115 107 107 106 91 91 91 73 73 73 82 81 82 138 136 134 145 89 89 230 35 43 159 98 99 100 106 106 77 76 76 59 59 59 
57 57 57 74 72 72 104 110 109 157 105 106 231 35 42 149 88 90 133 132 131 80 80 80 71 70 70 113 112 113 108 108 108 116 116 116 131 132 132 121 134 133 87 101 100 119 134 133 92 103 103 138 139 141 128 128 129 115 114 115 116 116 116 89 89 88 113 113 113 116 115 115 87 86 86 87 87 87 133 132 133 105 104 105 73 73 73 115 114 115 63 63 63 118 117 118 44 44 44 103 103 103 140 139 139 113 112 113 94 93 94 133 132 133 117 116 117 80 79 79 102 102 102 96 95 95 103 102 102 117 117 117 119 118 119 120 119 120 108 107 108 126 126 126 114 114 114 117 117 117 115 114 115 111 110 111 113 113 113 114 114 114 106 105 106 70 69 69 80 80 81 140 137 136 147 88 89 232 35 43 160 99 100 100 107 106 76 75 75 59 59 59 
57 57 57 74 72 73 104 110 109 156 104 105 230 35 42 148 88 89 132 131 130 79 79 79 76 75 76 112 112 112 107 107 107 113 113 113 128 128 128 120 117 117 94 91 91 121 118 118 93 91 91 130 129 129 129 129 129 115 115 115 116 117 116 89 88 88 113 112 113 115 115 115 87 87 86 89 89 89 132 131 132 108 108 107 82 82 81 117 117 117 68 68 68 118 118 118 51 50 51 106 107 106 139 138 138 113 112 113 93 92 92 126 126 126 123 123 123 106 106 106 103 102 103 81 80 80 80 80 80 87 87 87 86 86 86 86 85 86 87 87 87 131 132 131 114 114 114 119 119 119 117 117 117 117 117 117 115 115 115 118 117 118 111 110 111 70 70 69 80 80 80 144 142 140 151 92 93 231 34 42 160 100 100 100 107 106 74 72 73 59 58 58 
57 57 57 73 72 72 104 110 109 156 104 105 230 36 41 150 90 90 137 137 135 83 83 83 84 83 84 117 118 117 120 120 120 116 116 115 120 120 120 114 115 114 88 88 88 110 110 110 87 87 87 113 113 113 98 99 99 116 116 116 116 117 116 88 88 88 112 112 112 112 113 112 85 85 85 91 91 91 130 130 130 108 108 108 84 84 83 117 117 117 67 66 66 121 121 121 52 53 52 107 107 107 139 139 139 113 113 113 92 92 92 125 126 125 125 125 125 114 113 114 102 102 102 113 114 113 112 113 112 110 110 110 111 111 111 107 108 107 114 115 114 131 131 131 115 114 115 120 120 120 119 120 119 114 114 114 115 115 115 117 117 117 109 109 109 71 71 70 80 81 80 140 138 136 149 91 91 231 35 42 160 101 101 100 107 107 75 73 73 59 58 58 
57 57 57 73 71 72 103 109 109 155 104 104 231 38 43 141 81 83 106 104 103 67 67 67 84 84 83 93 93 93 92 91 91 90 89 90 87 88 87 92 92 92 111 111 110 119 118 119 117 117 117 114 115 114 95 96 96 115 115 115 117 116 117 89 89 89 119 119 119 120 120 120 87 86 86 92 92 93 127 127 127 104 104 104 82 82 82 120 120 120 69 69 69 119 120 119 53 53 53 107 106 106 138 138 138 113 113 113 93 93 93 126 126 126 124 124 124 113 113 112 102 102 102 123 124 124 104 104 104 112 112 112 101 101 101 111 111 111 108 108 108 128 127 127 114 114 114 117 117 116 114 114 114 118 118 118 114 114 114 118 118 117 111 112 111 70 70 69 80 80 81 138 136 135 149 93 92 231 34 41 160 101 101 102 109 108 75 73 74 59 58 58 
58 57 57 73 72 72 104 109 109 155 103 104 231 37 42 143 82 84 111 109 109 70 70 71 89 88 88 106 106 106 104 103 104 109 109 109 114 114 114 91 91 91 96 96 96 107 107 107 104 104 104 106 106 106 111 111 111 116 115 116 118 117 118 86 86 86 78 77 77 78 78 78 87 86 86 95 94 94 128 128 128 109 108 109 86 85 86 129 128 128 72 72 72 126 126 126 54 53 54 113 112 113 142 142 141 110 110 110 87 87 87 122 121 122 117 117 117 104 104 103 100 100 100 127 127 127 61 60 60 98 98 98 66 66 66 96 96 96 63 62 62 130 129 130 109 108 108 121 121 121 119 119 119 89 88 89 117 116 116 110 109 108 92 91 91 72 71 71 82 81 81 143 141 139 151 93 93 233 35 43 145 84 84 89 96 95 77 75 76 59 58 58 
58 57 57 74 72 72 103 110 109 154 103 104 231 37 43 140 81 83 108 108 107 75 75 75 90 89 90 114 114 114 115 114 115 124 123 123 124 124 124 99 98 99 79 78 79 81 81 81 81 81 81 81 81 81 75 75 76 103 103 103 119 119 119 86 86 86 75 74 75 75 75 75 87 87 87 100 100 100 107 107 107 74 73 73 66 65 65 88 88 87 53 52 52 88 87 87 45 44 44 75 75 75 117 117 117 123 122 122 90 90 90 75 74 74 97 96 96 98 98 98 113 113 113 91 91 91 48 48 48 73 73 73 59 59 59 69 68 69 55 55 55 102 102 102 102 102 102 88 88 88 85 84 85 83 82 81 88 90 91 78 83 87 78 79 82 72 70 69 64 65 66 112 108 107 144 87 87 235 37 45 143 81 80 89 96 95 78 76 76 58 58 58 
58 57 57 72 71 71 102 108 107 155 103 104 231 37 43 140 82 84 109 109 108 71 71 71 82 82 82 103 104 104 103 104 103 103 103 103 101 100 101 103 103 103 107 108 107 106 106 106 107 107 107 111 111 111 120 121 120 111 112 111 117 118 117 84 83 84 76 76 76 75 76 75 81 81 80 103 103 103 113 113 113 61 61 61 51 52 51 47 47 47 55 55 55 42 41 41 46 47 46 54 55 54 88 88 88 108 107 107 102 101 101 78 78 78 104 105 104 109 109 109 106 106 106 61 61 60 62 63 62 53 53 52 54 53 53 58 58 58 77 77 77 90 90 90 121 121 121 71 71 71 72 71 70 55 60 64 72 63 55 99 72 50 77 64 54 53 58 61 69 66 62 103 100 98 128 74 75 235 38 45 154 94 93 97 106 105 75 73 73 59 58 58 
57 57 57 71 70 69 120 127 126 153 101 102 230 36 42 150 90 91 137 137 135 83 84 84 85 85 84 78 79 78 79 79 79 111 111 111 111 112 112 111 111 111 111 111 111 112 112 112 105 105 105 112 112 112 127 128 128 117 118 117 117 117 117 83 82 82 80 80 79 81 82 81 83 83 83 101 101 101 122 122 122 80 81 80 69 69 69 74 74 74 75 74 75 63 63 62 54 55 54 69 69 69 62 62 61 59 58 58 60 60 60 65 66 66 61 61 61 62 61 61 58 58 57 63 64 63 81 81 81 61 60 60 62 62 61 79 79 79 90 91 91 97 97 97 122 122 122 90 89 88 84 87 89 75 58 42 191 104 32 182 103 35 52 53 50 81 59 38 162 101 50 118 121 124 127 73 73 236 38 45 159 98 99 121 129 129 74 73 73 58 58 58 
57 56 56 74 73 73 131 138 137 151 100 100 231 36 42 148 88 90 132 131 130 81 81 82 85 85 85 105 105 105 110 109 110 117 117 117 120 120 120 120 120 120 119 118 119 126 125 126 105 105 105 108 108 108 125 125 125 116 116 117 117 117 117 84 84 84 74 74 74 76 75 75 87 86 87 104 104 104 111 112 111 71 71 71 103 103 104 117 117 117 105 105 105 101 101 101 77 77 77 73 72 73 45 44 45 44 44 44 45 45 45 44 43 43 45 44 45 45 45 45 42 42 41 62 61 62 73 72 73 87 86 86 105 105 105 88 88 88 97 97 98 95 94 94 123 123 122 87 86 86 84 87 90 177 101 37 196 108 32 66 60 52 80 67 54 203 109 32 130 86 51 110 114 118 129 75 74 237 38 46 159 98 99 129 137 137 76 75 75 57 57 57 
56 56 56 74 73 73 129 135 135 152 100 100 231 35 43 148 88 90 132 131 130 82 82 82 87 86 86 117 116 117 120 120 120 116 116 116 118 118 118 128 127 128 122 121 121 86 85 85 96 96 96 110 110 111 126 125 126 116 116 116 117 117 117 85 85 85 75 72 72 77 73 74 85 84 85 106 106 106 115 115 115 71 69 70 111 110 110 129 129 129 120 120 119 78 78 78 77 76 77 103 102 103 101 101 101 86 86 86 86 85 85 81 80 80 81 80 80 87 87 87 86 85 85 78 77 78 85 84 85 103 103 103 122 121 122 101 101 101 98 97 98 95 95 95 124 124 124 88 87 87 96 96 97 119 104 91 112 104 98 89 95 99 121 107 95 116 98 84 93 97 99 116 115 113 126 74 74 237 38 47 156 96 97 128 136 135 77 75 75 57 57 57 
56 56 56 74 73 73 129 135 135 152 99 100 230 35 42 148 90 90 133 132 131 81 81 82 82 81 82 108 108 108 113 113 112 112 112 112 111 111 111 118 116 117 86 86 86 73 73 73 90 90 90 115 115 115 129 129 129 116 116 116 116 116 116 91 91 91 116 128 127 111 124 123 89 89 88 105 105 105 126 125 126 72 72 72 109 109 108 127 127 127 118 117 118 91 91 91 72 71 71 110 110 110 105 105 105 96 96 96 81 80 80 91 91 90 85 85 84 85 85 85 83 83 83 87 87 87 117 117 117 113 113 113 124 124 124 104 104 104 97 97 97 94 95 94 119 119 119 86 85 86 102 102 102 87 90 93 123 125 126 146 145 144 123 126 129 85 88 92 111 111 110 94 93 92 126 76 76 236 39 48 156 95 96 125 132 132 78 76 77 57 57 57 
56 56 56 74 73 73 130 136 135 151 100 100 231 39 45 137 77 77 118 114 113 75 76 76 73 73 73 87 87 87 85 85 84 84 84 84 81 80 80 88 88 88 92 92 92 94 94 94 110 110 110 117 117 117 119 119 119 116 116 116 116 118 118 93 86 85 155 60 64 153 57 62 92 85 84 104 106 106 124 123 123 72 72 72 110 111 110 131 131 131 115 115 115 86 86 86 73 74 73 103 103 103 96 96 96 96 96 96 89 89 88 95 96 96 90 91 91 98 97 98 83 83 83 98 98 98 119 120 119 113 113 113 129 129 129 105 105 105 97 98 97 93 93 93 107 107 107 85 85 85 87 88 87 96 96 95 128 128 127 135 135 135 114 114 113 83 82 81 113 113 113 102 101 101 120 72 71 237 41 49 157 96 97 129 136 136 78 77 77 57 57 57 
56 56 56 74 73 73 130 136 136 152 100 100 235 33 39 141 86 86 119 120 119 80 80 80 107 107 107 116 116 116 114 114 115 113 113 113 112 112 112 111 112 111 111 112 111 113 113 113 110 110 110 116 116 116 115 115 115 115 114 115 117 118 118 91 87 86 135 77 79 138 78 81 91 86 85 104 104 104 121 121 120 71 71 71 112 112 113 129 129 129 108 108 108 73 73 73 74 74 74 105 105 105 99 99 99 97 97 97 94 94 94 99 99 99 89 89 89 101 100 100 92 92 92 97 98 97 122 122 122 116 116 116 122 121 121 106 107 106 104 104 104 95 94 95 121 121 121 87 87 87 108 109 109 110 110 110 122 121 122 134 134 134 122 123 123 88 88 88 87 86 86 99 100 99 111 68 67 242 36 44 159 94 95 128 136 135 78 77 77 57 57 57 
57 56 56 75 73 73 130 136 136 141 99 98 176 61 62 126 103 102 121 122 122 88 88 87 77 77 77 103 102 103 80 80 80 104 104 104 80 80 80 109 109 109 105 104 105 106 106 106 112 112 112 116 116 116 115 115 115 115 115 116 115 115 115 93 94 94 114 126 125 106 117 116 90 90 90 104 104 103 121 121 121 72 72 72 112 111 112 132 131 132 120 120 120 106 106 106 76 75 76 103 102 103 99 98 98 96 96 96 92 91 92 97 96 97 95 95 95 100 100 99 89 89 88 98 97 98 121 120 121 107 106 106 111 111 111 123 123 123 113 113 113 93 92 93 122 122 121 87 87 87 107 106 107 109 108 108 118 118 118 131 132 131 121 121 121 78 77 78 65 65 65 115 114 114 103 85 84 178 68 71 144 94 96 127 134 134 78 77 77 57 57 57 
57 57 56 73 73 73 137 138 138 110 107 106 102 100 99 124 124 124 122 123 123 87 87 87 64 64 64 98 97 98 65 65 65 106 106 106 67 66 66 105 105 105 107 107 107 106 106 106 112 112 112 117 117 117 116 116 116 116 116 116 130 130 130 116 116 116 126 123 123 123 120 120 93 93 92 104 104 104 126 126 126 73 72 72 112 111 112 132 132 132 121 122 122 67 66 67 69 68 69 103 102 102 100 100 100 104 104 104 104 103 103 108 107 108 94 94 94 110 110 110 101 100 101 100 99 100 107 106 107 114 114 114 118 117 118 125 124 124 121 120 120 93 93 93 120 120 120 87 87 87 107 106 107 108 108 108 117 117 117 131 131 131 116 116 116 91 90 91 100 100 100 124 124 124 133 132 131 100 95 93 110 105 104 133 134 134 78 77 78 57 57 57 
56 56 56 73 73 73 126 126 126 99 99 99 105 105 106 105 105 105 109 109 109 89 89 89 67 66 66 100 100 100 69 69 68 110 111 110 70 70 70 106 106 106 106 106 106 105 105 105 114 114 114 109 109 109 82 82 82 116 117 116 121 122 121 133 132 133 125 125 125 128 128 128 99 99 99 106 106 106 125 125 125 69 69 69 99 99 99 114 114 114 110 109 110 88 88 89 85 85 84 106 106 106 106 106 106 108 108 108 110 110 110 102 102 102 104 104 104 101 101 101 119 118 118 117 117 116 117 117 116 136 136 136 119 119 120 117 117 117 103 103 103 93 93 92 119 119 119 86 86 86 109 109 109 113 113 112 122 122 121 137 137 137 134 134 134 102 102 102 112 113 113 103 103 103 110 110 110 97 95 96 100 101 100 123 123 123 77 77 77 57 57 57 
56 56 56 75 75 76 100 100 100 92 91 92 107 107 107 100 100 100 109 109 109 93 92 93 66 66 66 103 104 104 70 71 70 113 113 113 70 70 70 107 107 107 107 108 108 106 107 107 114 114 114 117 117 116 107 108 107 118 119 118 117 117 117 118 118 118 123 124 123 124 125 124 120 121 121 121 121 122 125 125 124 100 100 100 133 133 133 132 132 132 134 134 134 115 115 115 114 115 114 136 137 137 133 132 133 124 124 124 108 109 108 133 134 133 127 127 127 115 115 115 125 125 125 118 118 118 137 137 137 94 93 93 67 67 67 103 103 103 79 80 79 96 96 96 123 123 122 91 91 90 89 90 89 84 85 84 92 92 92 98 98 98 99 99 98 78 79 78 88 89 89 107 108 107 92 92 92 99 99 99 91 91 91 95 96 96 79 78 78 56 56 56 
56 56 56 69 69 69 117 117 117 93 93 93 91 91 91 107 107 107 106 105 106 82 82 82 63 64 63 88 88 88 67 66 66 99 99 99 67 67 66 96 96 95 97 96 97 95 94 95 100 100 100 104 105 104 105 105 105 103 103 103 104 103 103 104 104 104 104 104 103 104 104 104 107 107 107 102 102 102 105 105 105 99 99 99 111 110 111 88 87 88 104 104 104 101 101 100 100 100 100 116 116 116 111 111 111 113 113 113 72 72 71 91 91 91 87 86 87 96 96 96 104 104 104 90 90 89 108 107 108 89 89 89 76 76 76 92 92 92 85 85 85 83 83 83 104 103 103 82 82 82 91 91 91 81 80 81 82 81 81 82 82 82 82 82 82 83 83 83 77 77 77 114 114 114 114 114 114 85 85 85 88 87 88 108 107 108 73 73 73 58 58 58 
58 58 58 125 125 125 150 149 149 144 144 144 146 145 145 144 143 143 139 138 138 142 142 142 108 108 108 117 115 116 114 113 113 136 136 137 137 137 138 140 139 139 141 140 140 141 141 142 142 142 142 142 141 141 141 141 141 142 141 143 139 139 139 141 140 139 139 139 140 143 142 143 131 130 130 91 91 91 115 115 115 150 149 149 114 113 114 79 78 79 132 132 132 124 124 124 123 122 122 123 122 122 87 88 87 138 138 138 79 78 79 109 108 109 142 142 142 108 108 108 119 119 119 124 123 124 151 149 149 157 156 157 152 153 153 114 114 114 99 97 97 98 98 98 138 138 139 120 119 119 141 140 140 138 137 138 138 138 139 142 141 141 148 147 147 110 110 111 117 116 117 141 141 141 142 141 141 143 142 142 138 138 138 144 143 143 119 119 119 59 58 59 
62 62 62 112 112 112 73 75 75 96 97 97 65 67 67 73 74 74 130 130 130 102 101 101 67 66 67 76 79 82 66 68 70 88 87 86 91 88 86 82 85 88 84 87 88 92 90 88 90 89 88 83 86 89 87 88 90 92 90 88 83 83 82 78 82 86 87 86 85 87 85 85 112 112 112 112 112 112 112 112 112 134 134 134 113 113 113 99 99 99 123 123 123 110 110 110 107 106 107 118 118 118 111 111 111 123 123 123 105 104 104 123 123 123 132 132 132 102 102 102 78 78 78 80 79 80 87 90 93 85 87 89 93 92 90 82 80 79 56 59 62 62 64 66 87 84 82 77 75 75 77 80 83 79 80 81 88 84 82 82 82 83 81 84 88 72 69 68 88 88 88 128 128 128 74 74 75 64 67 67 87 87 87 73 75 75 103 103 102 59 59 59 
62 62 62 112 112 112 102 89 89 104 100 100 101 89 88 97 93 91 124 125 124 106 105 105 59 62 64 80 53 30 159 88 30 131 78 32 39 43 45 81 58 38 160 88 28 114 72 34 34 41 46 95 64 36 161 89 27 101 67 36 34 42 47 117 70 30 139 81 34 108 107 105 121 122 122 118 118 117 112 112 112 121 121 121 107 108 107 102 102 102 120 120 120 104 104 104 100 100 100 116 116 116 109 109 109 114 114 114 97 98 97 122 122 122 131 131 130 106 106 106 95 94 94 39 42 43 84 56 32 163 88 25 114 69 31 34 41 46 100 67 39 162 90 30 98 65 36 35 42 47 115 71 35 160 88 29 78 58 40 42 44 46 129 70 23 115 83 57 118 122 124 128 127 127 92 87 85 111 97 96 142 139 139 105 96 96 108 108 108 59 59 59 
64 63 63 101 107 106 141 34 42 85 48 50 159 33 41 127 72 40 117 115 111 115 114 115 109 114 117 142 100 64 189 104 32 72 61 51 82 65 48 203 110 28 180 102 33 58 55 53 99 73 48 209 115 31 160 96 38 49 53 55 130 85 43 195 110 36 125 112 100 128 131 133 121 121 120 102 102 102 106 106 106 111 111 111 90 91 90 104 103 104 122 121 121 100 100 100 91 92 92 110 110 110 105 105 105 111 111 111 118 119 119 119 119 119 112 112 111 104 104 104 118 119 119 104 103 101 181 102 36 182 101 33 57 55 52 101 72 45 209 113 31 154 92 39 47 51 53 120 80 43 212 115 33 132 85 43 49 53 57 151 90 37 157 107 65 118 121 122 124 125 125 118 117 115 116 69 40 178 86 93 185 167 169 163 96 101 99 101 101 61 60 60 
65 64 63 105 108 110 91 56 39 71 59 54 100 56 38 79 69 63 81 81 81 55 55 55 124 124 125 127 128 130 110 106 102 98 102 105 126 114 104 132 116 102 109 107 105 101 104 107 128 115 104 129 115 102 78 78 78 104 105 106 131 115 101 124 119 114 122 125 128 118 117 117 65 65 65 51 51 51 47 47 47 47 47 47 47 46 46 46 45 45 48 48 48 44 43 43 41 41 41 48 47 47 45 45 45 45 45 45 46 45 45 46 46 46 50 50 50 55 55 55 104 104 104 119 120 121 126 118 113 112 109 107 104 108 110 129 116 105 127 114 102 102 103 104 103 104 105 131 116 104 126 115 105 93 96 99 99 96 94 133 120 108 123 127 130 114 114 115 56 55 55 80 79 79 72 65 60 100 61 43 116 107 101 99 66 48 106 108 110 61 60 60 
60 60 60 99 100 100 109 106 100 102 101 99 108 105 99 101 102 103 103 103 103 91 91 91 107 107 106 122 122 122 101 102 103 114 112 112 114 116 118 112 115 119 118 118 119 121 120 119 115 117 120 111 114 118 89 89 89 123 122 122 116 119 122 112 113 114 103 102 101 59 59 59 44 43 43 49 49 49 83 83 83 93 93 93 90 90 90 92 92 92 97 96 96 82 82 82 80 80 80 93 93 93 93 93 93 95 95 95 95 95 95 81 81 81 52 52 52 45 44 44 52 51 51 102 102 102 115 116 118 125 125 126 130 129 128 114 116 119 111 114 117 112 112 112 115 115 114 116 119 122 120 122 124 107 105 105 92 92 93 115 119 121 113 112 111 95 94 94 86 86 86 103 103 103 98 99 100 108 105 98 97 95 93 109 105 99 99 99 100 58 57 57 
63 63 63 57 57 57 60 61 62 61 61 62 59 60 62 61 61 60 60 60 60 63 63 63 60 59 59 57 57 56 56 56 55 56 56 56 57 56 56 58 57 56 57 56 56 56 56 56 58 57 56 58 57 56 56 56 55 57 57 57 58 57 56 59 58 58 56 56 56 54 53 54 56 56 56 56 56 56 63 62 62 60 60 60 60 60 60 60 60 60 61 60 60 59 59 59 60 60 59 61 61 60 61 61 61 62 62 62 61 61 61 62 62 61 57 56 56 56 55 55 52 52 52 55 54 54 57 56 56 56 55 55 56 55 55 57 56 55 57 56 55 56 56 55 56 56 56 57 57 56 58 57 56 57 56 56 55 55 55 56 55 55 56 55 55 59 59 59 64 63 63 60 60 60 62 61 61 60 60 62 63 63 63 61 61 63 57 57 57 63 63 63 
