P3
# Created by GIMP version 2.10.38 PNM plug-in
320 200
255
75
55
27
75
55
27
75
55
27
75
55
27
75
55
27
75
55
27
75
55
27
75
55
27
75
55
27
75
55
27
75
55
27
75
55
27
75
55
27
75
55
27
75
55
27
75
55
27
75
55
27
75
55
27
75
55
27
75
55
27
75
55
27
75
55
27
75
55
27
75
55
27
75
55
27
75
55
27
75
55
27
75
55
27
75
55
27
75
55
27
75
55
27
75
55
27
75
55
27
75
55
27
75
55
27
75
55
27
75
55
27
75
55
27
75
55
27
75
55
27
75
55
27
75
55
27
75
55
27
75
55
27
75
55
27
75
55
27
75
55
27
75
55
27
75
55
27
75
55
27
75
55
27
75
55
27
75
55
27
75
55
27
75
55
27
75
55
27
75
55
27
75
55
27
75
55
27
75
55
27
75
55
27
75
55
27
75
55
27
75
55
27
75
55
27
75
55
27
75
55
27
75
55
27
75
55
27
75
55
27
75
55
27
75
55
27
75
55
27
75
55
27
75
55
27
75
55
27
75
55
27
75
55
27
75
55
27
75
55
27
75
55
27
75
55
27
75
55
27
75
55
27
75
55
27
75
55
27
75
55
27
75
55
27
75
55
27
75
55
27
75
55
27
75
55
27
75
55
27
75
55
27
75
55
27
75
55
27
75
55
27
75
55
27
75
55
27
75
55
27
75
55
27
75
55
27
75
55
27
75
55
27
75
55
27
75
55
27
75
55
27
75
55
27
75
55
27
75
55
27
75
55
27
75
55
27
75
55
27
75
55
27
75
55
27
75
55
27
75
55
27
75
55
27
75
55
27
75
55
27
75
55
27
75
55
27
75
55
27
75
55
27
75
55
27
75
55
27
75
55
27
75
55
27
75
55
27
75
55
27
75
55
27
75
55
27
75
55
27
75
55
27
75
55
27
75
55
27
75
55
27
75
55
27
75
55
27
75
55
27
75
55
27
75
55
27
75
55
27
75
55
27
75
55
27
75
55
27
75
55
27
75
55
27
75
55
27
75
55
27
75
55
27
75
55
27
75
55
27
75
55
27
75
55
27
75
55
27
75
55
27
75
55
27
75
55
27
75
55
27
75
55
27
75
55
27
75
55
27
75
55
27
75
55
27
75
55
27
75
55
27
75
55
27
75
55
27
75
55
27
75
55
27
75
55
27
75
55
27
75
55
27
75
55
27
75
55
27
75
55
27
75
55
27
75
55
27
75
55
27
75
55
27
75
55
27
75
55
27
75
55
27
75
55
27
75
55
27
75
55
27
75
55
27
75
55
27
75
55
27
75
55
27
75
55
27
75
55
27
75
55
27
75
55
27
75
55
27
75
55
27
75
55
27
75
55
27
75
55
27
75
55
27
75
55
27
75
55
27
75
55
27
75
55
27
75
55
27
75
55
27
75
55
27
75
55
27
75
55
27
75
55
27
75
55
27
75
55
27
75
55
27
75
55
27
75
55
27
75
55
27
75
55
27
75
55
27
75
55
27
75
55
27
75
55
27
75
55
27
75
55
27
75
55
27
75
55
27
75
55
27
75
55
27
75
55
27
75
55
27
75
55
27
75
55
27
75
55
27
75
55
27
75
55
27
75
55
27
75
55
27
75
55
27
75
55
27
75
55
27
75
55
27
75
55
27
75
55
27
75
55
27
75
55
27
75
55
27
75
55
27
75
55
27
75
55
27
75
55
27
75
55
27
75
55
27
75
55
27
75
55
27
75
55
27
75
55
27
75
55
27
75
55
27
75
55
27
75
55
27
75
55
27
75
55
27
75
55
27
75
55
27
75
55
27
75
55
27
75
55
27
75
55
27
75
55
27
75
55
27
75
55
27
75
55
27
75
55
27
75
55
27
75
55
27
75
55
27
75
55
27
75
55
27
75
55
27
75
55
27
75
55
27
75
55
27
75
55
27
75
55
27
75
55
27
75
55
27
75
55
27
75
55
27
75
55
27
75
55
27
75
55
27
75
55
27
75
55
27
75
55
27
75
55
27
75
55
27
75
55
27
75
55
27
75
55
27
75
55
27
75
55
27
75
55
27
75
55
27
75
55
27
75
55
27
75
55
27
75
55
27
75
55
27
75
55
27
75
55
27
75
55
27
75
55
27
0
0
0
0
0
0
0
0
0
0
0
0
0
0
0
0
0
0
0
0
0
0
0
0
75
55
27
255
127
27
255
235
223
255
235
223
255
235
223
255
235
223
255
127
27
255
127
27
67
51
27
255
127
27
255
127
27
255
127
27
255
127
27
255
127
27
255
127
27
255
127
27
67
51
27
255
127
27
255
127
27
255
127
27
255
127
27
255
127
27
255
127
27
255
127
27
67
51
27
255
127
27
255
127
27
255
127
27
255
127
27
255
127
27
255
127
27
255
127
27
67
51
27
255
127
27
255
127
27
255
127
27
255
127
27
255
235
223
255
127
27
255
127
27
67
51
27
255
127
27
255
127
27
255
127
27
255
127
27
255
127
27
255
127
27
255
127
27
67
51
27
255
127
27
255
127
27
255
127
27
255
127
27
255
127
27
255
127
27
255
127
27
67
51
27
255
127
27
255
127
27
255
127
27
255
127
27
255
127
27
255
127
27
255
127
27
67
51
27
255
127
27
255
127
27
255
127
27
255
127
27
255
127
27
255
127
27
255
127
27
67
51
27
255
127
27
255
127
27
255
127
27
255
127
27
255
127
27
255
127
27
255
127
27
75
55
27
255
127
27
255
235
223
255
235
223
255
235
223
255
235
223
255
235
223
255
127
27
67
51
27
255
127
27
255
127
27
255
127
27
255
127
27
255
127
27
255
127
27
255
127
27
67
51
27
255
127
27
255
127
27
255
127
27
255
127
27
255
127
27
255
127
27
255
127
27
67
51
27
255
127
27
255
127
27
255
127
27
255
127
27
255
127
27
255
127
27
255
127
27
67
51
27
255
127
27
255
127
27
255
127
27
255
127
27
255
235
223
255
127
27
255
127
27
67
51
27
255
127
27
255
127
27
255
127
27
255
127
27
255
127
27
255
127
27
255
127
27
67
51
27
255
127
27
255
127
27
255
127
27
255
127
27
255
127
27
255
127
27
255
127
27
67
51
27
255
127
27
255
127
27
255
127
27
255
127
27
255
127
27
255
127
27
255
127
27
67
51
27
255
127
27
255
127
27
255
127
27
255
127
27
255
127
27
255
127
27
255
127
27
67
51
27
255
127
27
255
127
27
255
127
27
255
127
27
255
127
27
255
127
27
255
127
27
75
55
27
255
127
27
255
235
223
255
235
223
255
235
223
255
235
223
255
235
223
255
127
27
67
51
27
255
127
27
255
127
27
255
127
27
255
127
27
255
127
27
255
127
27
255
127
27
67
51
27
255
127
27
255
127
27
255
127
27
255
127
27
255
127
27
255
127
27
255
127
27
67
51
27
255
127
27
255
127
27
255
127
27
255
127
27
255
127
27
255
127
27
255
127
27
67
51
27
255
127
27
255
127
27
255
127
27
255
127
27
255
235
223
255
127
27
255
127
27
67
51
27
255
127
27
255
127
27
255
127
27
255
127
27
255
127
27
255
127
27
255
127
27
67
51
27
255
127
27
255
127
27
255
127
27
255
127
27
255
127
27
255
127
27
255
127
27
67
51
27
255
127
27
255
127
27
255
127
27
255
127
27
255
127
27
255
127
27
255
127
27
67
51
27
255
127
27
255
127
27
255
127
27
255
127
27
255
127
27
255
127
27
255
127
27
67
51
27
255
127
27
255
127
27
255
127
27
255
127
27
255
127
27
255
127
27
255
127
27
75
55
27
255
127
27
255
235
223
255
235
223
255
235
223
255
235
223
255
235
223
255
127
27
67
51
27
255
127
27
255
127
27
255
127
27
255
127
27
255
127
27
255
127
27
255
127
27
67
51
27
255
127
27
255
127
27
255
127
27
255
127
27
255
127
27
255
127
27
255
127
27
67
51
27
255
127
27
255
127
27
255
127
27
255
127
27
255
127
27
255
127
27
255
127
27
67
51
27
255
127
27
255
127
27
255
127
27
255
127
27
255
235
223
255
127
27
255
127
27
67
51
27
255
127
27
255
127
27
255
127
27
255
127
27
255
127
27
255
127
27
255
127
27
67
51
27
255
127
27
255
127
27
255
127
27
255
127
27
255
127
27
255
127
27
255
127
27
67
51
27
255
127
27
255
127
27
255
127
27
255
127
27
255
127
27
255
127
27
255
127
27
67
51
27
255
127
27
255
127
27
255
127
27
255
127
27
255
127
27
255
127
27
255
127
27
67
51
27
255
127
27
255
127
27
255
127
27
255
127
27
255
127
27
255
127
27
255
127
27
75
55
27
255
235
223
255
235
223
255
127
27
255
127
27
255
235
223
255
235
223
255
127
27
67
51
27
255
127
27
255
127
27
255
127
27
255
127
27
255
127
27
255
127
27
255
255
255
67
51
27
255
127
27
255
235
223
255
235
223
255
127
27
255
127
27
255
235
223
255
235
223
67
51
27
255
127
27
255
235
223
255
235
223
255
127
27
255
235
223
255
235
223
255
127
27
67
51
27
255
235
223
255
235
223
255
235
223
255
235
223
255
235
223
255
235
223
255
235
223
67
51
27
255
235
223
255
127
27
255
127
27
255
235
223
255
235
223
255
235
223
255
127
27
67
51
27
255
127
27
255
235
223
255
127
27
255
127
27
255
235
223
255
235
223
255
127
27
67
51
27
255
235
223
255
235
223
255
127
27
255
127
27
255
127
27
255
127
27
255
127
27
67
51
27
255
127
27
255
235
223
255
235
223
255
127
27
255
235
223
255
235
223
255
127
27
67
51
27
255
127
27
255
235
223
255
235
223
255
235
223
255
235
223
255
127
27
255
127
27
75
55
27
255
235
223
255
235
223
255
235
223
255
235
223
255
255
255
255
235
223
255
235
223
67
51
27
255
127
27
255
127
27
255
127
27
255
127
27
255
127
27
255
127
27
255
255
255
67
51
27
255
127
27
255
235
223
255
235
223
255
127
27
255
127
27
255
235
223
255
235
223
67
51
27
255
127
27
255
235
223
255
235
223
255
127
27
255
235
223
255
235
223
255
127
27
67
51
27
255
235
223
255
235
223
255
235
223
255
235
223
255
235
223
255
235
223
255
235
223
67
51
27
255
235
223
255
127
27
255
127
27
255
235
223
255
235
223
255
235
223
255
127
27
67
51
27
255
127
27
255
235
223
255
127
27
255
127
27
255
235
223
255
235
223
255
127
27
67
51
27
255
235
223
255
235
223
255
127
27
255
127
27
255
127
27
255
127
27
255
127
27
67
51
27
255
127
27
255
235
223
255
235
223
255
127
27
255
235
223
255
235
223
255
127
27
67
51
27
255
127
27
255
235
223
255
235
223
255
235
223
255
235
223
255
127
27
255
127
27
75
55
27
255
235
223
255
235
223
255
235
223
255
235
223
255
255
255
255
235
223
255
235
223
67
51
27
255
127
27
255
127
27
255
127
27
255
127
27
255
127
27
255
127
27
255
255
255
67
51
27
255
127
27
255
235
223
255
235
223
255
127
27
255
127
27
255
235
223
255
235
223
67
51
27
255
127
27
255
235
223
255
235
223
255
127
27
255
235
223
255
235
223
255
127
27
67
51
27
255
235
223
255
235
223
255
235
223
255
235
223
255
235
223
255
235
223
255
235
223
67
51
27
255
235
223
255
127
27
255
127
27
255
235
223
255
235
223
255
235
223
255
127
27
67
51
27
255
127
27
255
235
223
255
127
27
255
127
27
255
235
223
255
235
223
255
127
27
67
51
27
255
235
223
255
235
223
255
127
27
255
127
27
255
127
27
255
127
27
255
127
27
67
51
27
255
127
27
255
235
223
255
235
223
255
127
27
255
235
223
255
235
223
255
127
27
67
51
27
255
127
27
255
235
223
255
235
223
255
235
223
255
235
223
255
127
27
255
127
27
75
55
27
255
235
223
255
235
223
255
235
223
255
235
223
255
255
255
255
235
223
255
235
223
67
51
27
255
127
27
255
127
27
255
127
27
255
127
27
255
127
27
255
127
27
255
255
255
67
51
27
255
127
27
255
235
223
255
235
223
255
127
27
255
127
27
255
235
223
255
235
223
67
51
27
255
127
27
255
235
223
255
235
223
255
127
27
255
235
223
255
235
223
255
127
27
67
51
27
255
235
223
255
235
223
255
235
223
255
235
223
255
235
223
255
235
223
255
235
223
67
51
27
255
235
223
255
127
27
255
127
27
255
235
223
255
235
223
255
235
223
255
127
27
67
51
27
255
127
27
255
235
223
255
127
27
255
127
27
255
235
223
255
235
223
255
127
27
67
51
27
255
235
223
255
235
223
255
127
27
255
127
27
255
127
27
255
127
27
255
127
27
67
51
27
255
127
27
255
235
223
255
235
223
255
127
27
255
235
223
255
235
223
255
127
27
67
51
27
255
127
27
255
235
223
255
235
223
255
235
223
255
235
223
255
127
27
255
127
27
75
55
27
255
235
223
255
235
223
255
127
27
255
127
27
255
235
223
255
235
223
255
127
27
67
51
27
255
255
255
255
255
255
255
255
255
255
255
255
255
255
255
255
255
255
255
255
255
67
51
27
255
235
223
255
235
223
255
235
223
255
235
223
255
127
27
255
235
223
255
235
223
67
51
27
255
235
223
255
235
223
255
235
223
255
235
223
255
235
223
255
235
223
255
235
223
67
51
27
255
235
223
255
235
223
255
235
223
255
235
223
255
235
223
255
235
223
255
235
223
67
51
27
255
235
223
255
127
27
255
235
223
255
235
223
255
235
223
255
235
223
255
235
223
67
51
27
255
235
223
255
235
223
255
127
27
255
235
223
255
235
223
255
235
223
255
235
223
67
51
27
255
235
223
255
235
223
255
235
223
255
127
27
255
127
27
255
127
27
255
127
27
67
51
27
255
235
223
255
235
223
255
235
223
255
235
223
255
235
223
255
235
223
255
235
223
67
51
27
255
235
223
255
235
223
255
235
223
255
235
223
255
235
223
255
235
223
255
127
27
75
55
27
255
235
223
255
127
27
255
127
27
255
127
27
255
127
27
255
127
27
255
235
223
67
51
27
255
255
255
255
255
255
255
255
255
255
255
255
255
255
255
255
255
255
255
255
255
67
51
27
255
235
223
255
235
223
255
235
223
255
235
223
255
127
27
255
235
223
255
235
223
67
51
27
255
235
223
255
235
223
255
235
223
255
235
223
255
235
223
255
235
223
255
235
223
67
51
27
255
235
223
255
235
223
255
235
223
255
235
223
255
235
223
255
235
223
255
235
223
67
51
27
255
235
223
255
127
27
255
235
223
255
235
223
255
235
223
255
235
223
255
235
223
67
51
27
255
235
223
255
235
223
255
127
27
255
235
223
255
235
223
255
235
223
255
235
223
67
51
27
255
235
223
255
235
223
255
235
223
255
127
27
255
127
27
255
127
27
255
127
27
67
51
27
255
235
223
255
235
223
255
235
223
255
235
223
255
235
223
255
235
223
255
235
223
67
51
27
255
235
223
255
235
223
255
235
223
255
235
223
255
235
223
255
235
223
255
127
27
75
55
27
255
235
223
255
127
27
255
127
27
255
127
27
255
127
27
255
127
27
255
235
223
67
51
27
255
255
255
255
255
255
255
255
255
255
255
255
255
255
255
255
255
255
255
255
255
67
51
27
255
235
223
255
235
223
255
235
223
255
235
223
255
127
27
255
235
223
255
235
223
67
51
27
255
235
223
255
235
223
255
235
223
255
235
223
255
235
223
255
235
223
255
235
223
67
51
27
255
235
223
255
235
223
255
235
223
255
235
223
255
235
223
255
235
223
255
235
223
67
51
27
255
235
223
255
127
27
255
235
223
255
235
223
255
235
223
255
235
223
255
235
223
67
51
27
255
235
223
255
235
223
255
127
27
255
235
223
255
235
223
255
235
223
255
235
223
67
51
27
255
235
223
255
235
223
255
235
223
255
127
27
255
127
27
255
127
27
255
127
27
67
51
27
255
235
223
255
235
223
255
235
223
255
235
223
255
235
223
255
235
223
255
235
223
67
51
27
255
235
223
255
235
223
255
235
223
255
235
223
255
235
223
255
235
223
255
127
27
75
55
27
255
235
223
255
127
27
255
127
27
255
127
27
255
127
27
255
127
27
255
235
223
67
51
27
255
255
255
255
255
255
255
255
255
255
255
255
255
255
255
255
255
255
255
255
255
67
51
27
255
235
223
255
235
223
255
235
223
255
235
223
255
127
27
255
235
223
255
235
223
67
51
27
255
235
223
255
235
223
255
235
223
255
235
223
255
235
223
255
235
223
255
235
223
67
51
27
255
235
223
255
235
223
255
235
223
255
235
223
255
235
223
255
235
223
255
235
223
67
51
27
255
235
223
255
127
27
255
235
223
255
235
223
255
235
223
255
235
223
255
235
223
67
51
27
255
235
223
255
235
223
255
127
27
255
235
223
255
235
223
255
235
223
255
235
223
67
51
27
255
235
223
255
235
223
255
235
223
255
127
27
255
127
27
255
127
27
255
127
27
67
51
27
255
235
223
255
235
223
255
235
223
255
235
223
255
235
223
255
235
223
255
235
223
67
51
27
255
235
223
255
235
223
255
235
223
255
235
223
255
235
223
255
235
223
255
127
27
75
55
27
255
235
223
255
235
223
255
127
27
255
127
27
255
235
223
255
235
223
255
127
27
67
51
27
255
235
223
255
235
223
255
235
223
255
235
223
255
235
223
255
235
223
255
255
255
67
51
27
255
235
223
255
127
27
255
127
27
255
235
223
255
127
27
255
127
27
255
235
223
67
51
27
255
235
223
255
127
27
255
127
27
255
235
223
255
127
27
255
127
27
255
235
223
67
51
27
255
235
223
255
235
223
255
127
27
255
127
27
255
235
223
255
127
27
255
127
27
67
51
27
255
235
223
255
127
27
255
235
223
255
127
27
255
127
27
255
127
27
255
235
223
67
51
27
255
235
223
255
127
27
255
127
27
255
235
223
255
127
27
255
127
27
255
235
223
67
51
27
255
235
223
255
127
27
255
235
223
255
235
223
255
235
223
255
235
223
255
235
223
67
51
27
255
235
223
255
127
27
255
127
27
255
235
223
255
127
27
255
127
27
255
235
223
67
51
27
255
235
223
255
127
27
255
127
27
255
235
223
255
127
27
255
235
223
255
235
223
75
55
27
255
235
223
255
127
27
255
127
27
255
127
27
255
127
27
255
127
27
255
235
223
67
51
27
255
235
223
255
235
223
255
235
223
255
235
223
255
235
223
255
235
223
255
255
255
67
51
27
255
235
223
255
127
27
255
127
27
255
235
223
255
127
27
255
127
27
255
235
223
67
51
27
255
235
223
255
127
27
255
127
27
255
235
223
255
127
27
255
127
27
255
235
223
67
51
27
255
235
223
255
235
223
255
127
27
255
127
27
255
235
223
255
127
27
255
127
27
67
51
27
255
235
223
255
127
27
255
235
223
255
127
27
255
127
27
255
127
27
255
235
223
67
51
27
255
235
223
255
127
27
255
127
27
255
235
223
255
127
27
255
127
27
255
235
223
67
51
27
255
235
223
255
127
27
255
235
223
255
235
223
255
235
223
255
235
223
255
235
223
67
51
27
255
235
223
255
127
27
255
127
27
255
235
223
255
127
27
255
127
27
255
235
223
67
51
27
255
235
223
255
127
27
255
127
27
255
235
223
255
127
27
255
235
223
255
235
223
75
55
27
255
235
223
255
127
27
255
127
27
255
127
27
255
127
27
255
127
27
255
235
223
67
51
27
255
235
223
255
235
223
255
235
223
255
235
223
255
235
223
255
235
223
255
255
255
67
51
27
255
235
223
255
127
27
255
127
27
255
235
223
255
127
27
255
127
27
255
235
223
67
51
27
255
235
223
255
127
27
255
127
27
255
235
223
255
127
27
255
127
27
255
235
223
67
51
27
255
235
223
255
235
223
255
127
27
255
127
27
255
235
223
255
127
27
255
127
27
67
51
27
255
235
223
255
127
27
255
235
223
255
127
27
255
127
27
255
127
27
255
235
223
67
51
27
255
235
223
255
127
27
255
127
27
255
235
223
255
127
27
255
127
27
255
235
223
67
51
27
255
235
223
255
127
27
255
235
223
255
235
223
255
235
223
255
235
223
255
235
223
67
51
27
255
235
223
255
127
27
255
127
27
255
235
223
255
127
27
255
127
27
255
235
223
67
51
27
255
235
223
255
127
27
255
127
27
255
235
223
255
127
27
255
235
223
255
235
223
75
55
27
255
235
223
255
127
27
255
127
27
255
127
27
255
127
27
255
127
27
255
235
223
67
51
27
255
235
223
255
235
223
255
235
223
255
235
223
255
235
223
255
235
223
255
255
255
67
51
27
255
235
223
255
127
27
255
127
27
255
235
223
255
127
27
255
127
27
255
235
223
67
51
27
255
235
223
255
127
27
255
127
27
255
235
223
255
127
27
255
127
27
255
235
223
67
51
27
255
235
223
255
235
223
255
127
27
255
127
27
255
235
223
255
127
27
255
127
27
67
51
27
255
235
223
255
127
27
255
235
223
255
127
27
255
127
27
255
127
27
255
235
223
67
51
27
255
235
223
255
127
27
255
127
27
255
235
223
255
127
27
255
127
27
255
235
223
67
51
27
255
235
223
255
127
27
255
235
223
255
235
223
255
235
223
255
235
223
255
235
223
67
51
27
255
235
223
255
127
27
255
127
27
255
235
223
255
127
27
255
127
27
255
235
223
67
51
27
255
235
223
255
127
27
255
127
27
255
235
223
255
127
27
255
235
223
255
235
223
75
55
27
255
235
223
255
235
223
255
127
27
255
127
27
255
235
223
255
235
223
255
127
27
75
55
27
255
127
27
255
255
255
255
127
27
255
127
27
255
127
27
255
127
27
255
255
255
75
55
27
255
235
223
255
127
27
255
127
27
255
235
223
255
235
223
255
127
27
255
235
223
75
55
27
255
235
223
255
127
27
255
127
27
255
235
223
255
127
27
255
127
27
255
235
223
75
55
27
255
127
27
255
235
223
255
235
223
255
127
27
255
235
223
255
127
27
255
127
27
75
55
27
255
235
223
255
127
27
255
235
223
255
127
27
255
127
27
255
127
27
255
235
223
75
55
27
255
235
223
255
127
27
255
127
27
255
235
223
255
127
27
255
127
27
255
235
223
75
55
27
255
235
223
255
127
27
255
127
27
255
235
223
255
235
223
255
235
223
255
235
223
75
55
27
255
235
223
255
127
27
255
127
27
255
235
223
255
127
27
255
127
27
255
235
223
75
55
27
255
235
223
255
127
27
255
127
27
255
235
223
255
127
27
255
127
27
255
235
223
75
55
27
255
235
223
255
127
27
255
127
27
255
127
27
255
127
27
255
127
27
255
235
223
75
55
27
255
127
27
255
255
255
255
127
27
255
127
27
255
127
27
255
127
27
255
255
255
75
55
27
255
235
223
255
127
27
255
127
27
255
235
223
255
235
223
255
127
27
255
235
223
75
55
27
255
235
223
255
127
27
255
127
27
255
235
223
255
127
27
255
127
27
255
235
223
75
55
27
255
127
27
255
235
223
255
235
223
255
127
27
255
235
223
255
127
27
255
127
27
75
55
27
255
235
223
255
127
27
255
235
223
255
127
27
255
127
27
255
127
27
255
235
223
75
55
27
255
235
223
255
127
27
255
127
27
255
235
223
255
127
27
255
127
27
255
235
223
75
55
27
255
235
223
255
127
27
255
127
27
255
235
223
255
235
223
255
235
223
255
235
223
75
55
27
255
235
223
255
127
27
255
127
27
255
235
223
255
127
27
255
127
27
255
235
223
75
55
27
255
235
223
255
127
27
255
127
27
255
235
223
255
127
27
255
127
27
255
235
223
75
55
27
255
235
223
255
127
27
255
127
27
255
127
27
255
127
27
255
127
27
255
235
223
75
55
27
255
127
27
255
255
255
255
127
27
255
127
27
255
127
27
255
127
27
255
255
255
75
55
27
255
235
223
255
127
27
255
127
27
255
235
223
255
235
223
255
127
27
255
235
223
75
55
27
255
235
223
255
127
27
255
127
27
255
235
223
255
127
27
255
127
27
255
235
223
75
55
27
255
127
27
255
235
223
255
235
223
255
127
27
255
235
223
255
127
27
255
127
27
75
55
27
255
235
223
255
127
27
255
235
223
255
127
27
255
127
27
255
127
27
255
235
223
75
55
27
255
235
223
255
127
27
255
127
27
255
235
223
255
127
27
255
127
27
255
235
223
75
55
27
255
235
223
255
127
27
255
127
27
255
235
223
255
235
223
255
235
223
255
235
223
75
55
27
255
235
223
255
127
27
255
127
27
255
235
223
255
127
27
255
127
27
255
235
223
75
55
27
255
235
223
255
127
27
255
127
27
255
235
223
255
127
27
255
127
27
255
235
223
75
55
27
255
235
223
255
127
27
255
127
27
255
127
27
255
127
27
255
127
27
255
235
223
75
55
27
255
127
27
255
255
255
255
127
27
255
127
27
255
127
27
255
127
27
255
255
255
75
55
27
255
235
223
255
127
27
255
127
27
255
235
223
255
235
223
255
127
27
255
235
223
75
55
27
255
235
223
255
127
27
255
127
27
255
235
223
255
127
27
255
127
27
255
235
223
75
55
27
255
127
27
255
235
223
255
235
223
255
127
27
255
235
223
255
127
27
255
127
27
75
55
27
255
235
223
255
127
27
255
235
223
255
127
27
255
127
27
255
127
27
255
235
223
75
55
27
255
235
223
255
127
27
255
127
27
255
235
223
255
127
27
255
127
27
255
235
223
75
55
27
255
235
223
255
127
27
255
127
27
255
235
223
255
235
223
255
235
223
255
235
223
75
55
27
255
235
223
255
127
27
255
127
27
255
235
223
255
127
27
255
127
27
255
235
223
75
55
27
255
235
223
255
127
27
255
127
27
255
235
223
255
127
27
255
127
27
255
235
223
75
55
27
255
235
223
255
235
223
255
127
27
255
127
27
255
255
255
255
235
223
255
127
27
75
55
27
255
127
27
255
127
27
255
127
27
255
127
27
255
127
27
255
127
27
255
127
27
75
55
27
255
235
223
255
235
223
255
127
27
255
127
27
255
235
223
255
235
223
255
235
223
75
55
27
255
235
223
255
255
255
255
127
27
255
235
223
255
127
27
255
255
255
255
235
223
75
55
27
255
127
27
255
127
27
255
235
223
255
235
223
255
235
223
255
127
27
255
127
27
75
55
27
255
235
223
255
235
223
255
235
223
255
127
27
255
127
27
255
235
223
255
235
223
75
55
27
255
235
223
255
235
223
255
235
223
255
235
223
255
235
223
255
235
223
255
235
223
75
55
27
255
235
223
255
235
223
255
127
27
255
127
27
255
127
27
255
127
27
255
127
27
75
55
27
255
235
223
255
235
223
255
235
223
255
235
223
255
235
223
255
235
223
255
235
223
75
55
27
255
235
223
255
235
223
255
235
223
255
235
223
255
127
27
255
127
27
255
235
223
75
55
27
255
235
223
255
235
223
255
255
255
255
255
255
255
255
255
255
235
223
255
235
223
75
55
27
255
127
27
255
127
27
255
127
27
255
127
27
255
127
27
255
127
27
255
127
27
75
55
27
255
235
223
255
235
223
255
127
27
255
127
27
255
235
223
255
235
223
255
235
223
75
55
27
255
235
223
255
255
255
255
127
27
255
235
223
255
127
27
255
255
255
255
235
223
75
55
27
255
127
27
255
127
27
255
235
223
255
235
223
255
235
223
255
127
27
255
127
27
75
55
27
255
235
223
255
235
223
255
235
223
255
127
27
255
127
27
255
235
223
255
235
223
75
55
27
255
235
223
255
235
223
255
235
223
255
235
223
255
235
223
255
235
223
255
235
223
75
55
27
255
235
223
255
235
223
255
127
27
255
127
27
255
127
27
255
127
27
255
127
27
75
55
27
255
235
223
255
235
223
255
235
223
255
235
223
255
235
223
255
235
223
255
235
223
75
55
27
255
235
223
255
235
223
255
235
223
255
235
223
255
127
27
255
127
27
255
235
223
75
55
27
255
235
223
255
235
223
255
255
255
255
255
255
255
255
255
255
235
223
255
235
223
75
55
27
255
127
27
255
127
27
255
127
27
255
127
27
255
127
27
255
127
27
255
127
27
75
55
27
255
235
223
255
235
223
255
127
27
255
127
27
255
235
223
255
235
223
255
235
223
75
55
27
255
235
223
255
255
255
255
127
27
255
235
223
255
127
27
255
255
255
255
235
223
75
55
27
255
127
27
255
127
27
255
235
223
255
235
223
255
235
223
255
127
27
255
127
27
75
55
27
255
235
223
255
235
223
255
235
223
255
127
27
255
127
27
255
235
223
255
235
223
75
55
27
255
235
223
255
235
223
255
235
223
255
235
223
255
235
223
255
235
223
255
235
223
75
55
27
255
235
223
255
235
223
255
127
27
255
127
27
255
127
27
255
127
27
255
127
27
75
55
27
255
235
223
255
235
223
255
235
223
255
235
223
255
235
223
255
235
223
255
235
223
75
55
27
255
235
223
255
235
223
255
235
223
255
235
223
255
127
27
255
127
27
255
235
223
75
55
27
255
235
223
255
235
223
255
255
255
255
255
255
255
255
255
255
235
223
255
235
223
75
55
27
255
127
27
255
127
27
255
127
27
255
127
27
255
127
27
255
127
27
255
127
27
75
55
27
255
235
223
255
235
223
255
127
27
255
127
27
255
235
223
255
235
223
255
235
223
75
55
27
255
235
223
255
255
255
255
127
27
255
235
223
255
127
27
255
255
255
255
235
223
75
55
27
255
127
27
255
127
27
255
235
223
255
235
223
255
235
223
255
127
27
255
127
27
75
55
27
255
235
223
255
235
223
255
235
223
255
127
27
255
127
27
255
235
223
255
235
223
75
55
27
255
235
223
255
235
223
255
235
223
255
235
223
255
235
223
255
235
223
255
235
223
75
55
27
255
235
223
255
235
223
255
127
27
255
127
27
255
127
27
255
127
27
255
127
27
75
55
27
255
235
223
255
235
223
255
235
223
255
235
223
255
235
223
255
235
223
255
235
223
75
55
27
255
235
223
255
235
223
255
235
223
255
235
223
255
127
27
255
127
27
255
235
223
75
55
27
255
127
27
255
235
223
255
235
223
255
235
223
255
235
223
255
127
27
255
127
27
75
55
27
255
127
27
255
127
27
255
127
27
255
127
27
255
127
27
255
127
27
255
127
27
75
55
27
255
127
27
255
235
223
255
127
27
255
127
27
255
127
27
255
235
223
255
235
223
75
55
27
255
127
27
255
255
255
255
127
27
255
127
27
255
127
27
255
255
255
255
127
27
75
55
27
255
127
27
255
127
27
255
127
27
255
235
223
255
235
223
255
127
27
255
127
27
75
55
27
255
235
223
255
235
223
255
235
223
255
127
27
255
127
27
255
235
223
255
127
27
75
55
27
255
127
27
255
235
223
255
235
223
255
235
223
255
235
223
255
235
223
255
127
27
75
55
27
255
235
223
255
235
223
255
127
27
255
127
27
255
127
27
255
127
27
255
127
27
75
55
27
255
127
27
255
235
223
255
235
223
255
127
27
255
235
223
255
235
223
255
127
27
75
55
27
255
127
27
255
235
223
255
235
223
255
127
27
255
127
27
255
127
27
255
127
27
75
55
27
255
127
27
255
235
223
255
235
223
255
235
223
255
235
223
255
235
223
255
127
27
75
55
27
255
127
27
255
127
27
255
127
27
255
127
27
255
127
27
255
127
27
255
127
27
75
55
27
255
127
27
255
235
223
255
127
27
255
127
27
255
127
27
255
235
223
255
235
223
75
55
27
255
127
27
255
255
255
255
127
27
255
127
27
255
127
27
255
255
255
255
127
27
75
55
27
255
127
27
255
127
27
255
127
27
255
235
223
255
235
223
255
127
27
255
127
27
75
55
27
255
235
223
255
235
223
255
235
223
255
127
27
255
127
27
255
235
223
255
127
27
75
55
27
255
127
27
255
235
223
255
235
223
255
235
223
255
235
223
255
235
223
255
127
27
75
55
27
255
235
223
255
235
223
255
127
27
255
127
27
255
127
27
255
127
27
255
127
27
75
55
27
255
127
27
255
235
223
255
235
223
255
127
27
255
235
223
255
235
223
255
127
27
75
55
27
255
127
27
255
235
223
255
235
223
255
127
27
255
127
27
255
127
27
255
127
27
75
55
27
255
127
27
255
235
223
255
235
223
255
235
223
255
235
223
255
235
223
255
127
27
75
55
27
255
127
27
255
127
27
255
127
27
255
127
27
255
127
27
255
127
27
255
127
27
75
55
27
255
127
27
255
235
223
255
127
27
255
127
27
255
127
27
255
235
223
255
235
223
75
55
27
255
127
27
255
255
255
255
127
27
255
127
27
255
127
27
255
255
255
255
127
27
75
55
27
255
127
27
255
127
27
255
127
27
255
235
223
255
235
223
255
127
27
255
127
27
75
55
27
255
235
223
255
235
223
255
235
223
255
127
27
255
127
27
255
235
223
255
127
27
75
55
27
255
127
27
255
235
223
255
235
223
255
235
223
255
235
223
255
235
223
255
127
27
75
55
27
255
235
223
255
235
223
255
127
27
255
127
27
255
127
27
255
127
27
255
127
27
75
55
27
255
127
27
255
235
223
255
235
223
255
127
27
255
235
223
255
235
223
255
127
27
75
55
27
255
127
27
255
235
223
255
235
223
255
127
27
255
127
27
255
127
27
255
127
27
75
55
27
255
127
27
255
235
223
255
235
223
255
235
223
255
235
223
255
235
223
255
127
27
75
55
27
255
127
27
255
127
27
255
127
27
255
127
27
255
127
27
255
127
27
255
127
27
75
55
27
255
127
27
255
235
223
255
127
27
255
127
27
255
127
27
255
235
223
255
235
223
75
55
27
255
127
27
255
255
255
255
127
27
255
127
27
255
127
27
255
255
255
255
127
27
75
55
27
255
127
27
255
127
27
255
127
27
255
235
223
255
235
223
255
127
27
255
127
27
75
55
27
255
235
223
255
235
223
255
235
223
255
127
27
255
127
27
255
235
223
255
127
27
75
55
27
255
127
27
255
235
223
255
235
223
255
235
223
255
235
223
255
235
223
255
127
27
75
55
27
255
235
223
255
235
223
255
127
27
255
127
27
255
127
27
255
127
27
255
127
27
75
55
27
255
127
27
255
235
223
255
235
223
255
127
27
255
235
223
255
235
223
255
127
27
75
55
27
255
127
27
255
235
223
255
235
223
255
127
27
255
127
27
255
127
27
255
127
27
75
55
27
75
55
27
75
55
27
75
55
27
75
55
27
75
55
27
75
55
27
75
55
27
75
55
27
75
55
27
75
55
27
75
55
27
75
55
27
75
55
27
75
55
27
75
55
27
75
55
27
75
55
27
75
55
27
75
55
27
75
55
27
75
55
27
75
55
27
75
55
27
75
55
27
75
55
27
75
55
27
75
55
27
75
55
27
75
55
27
75
55
27
75
55
27
75
55
27
75
55
27
75
55
27
75
55
27
75
55
27
75
55
27
75
55
27
75
55
27
75
55
27
75
55
27
75
55
27
75
55
27
75
55
27
75
55
27
75
55
27
75
55
27
75
55
27
75
55
27
75
55
27
75
55
27
75
55
27
75
55
27
75
55
27
75
55
27
75
55
27
75
55
27
75
55
27
75
55
27
75
55
27
75
55
27
75
55
27
75
55
27
75
55
27
75
55
27
75
55
27
75
55
27
75
55
27
75
55
27
75
55
27
75
55
27
75
55
27
75
55
27
75
55
27
75
55
27
75
55
27
75
55
27
75
55
27
75
55
27
75
55
27
75
55
27
75
55
27
75
55
27
75
55
27
75
55
27
75
55
27
75
55
27
75
55
27
75
55
27
75
55
27
75
55
27
75
55
27
75
55
27
75
55
27
75
55
27
75
55
27
75
55
27
75
55
27
75
55
27
75
55
27
75
55
27
75
55
27
75
55
27
75
55
27
75
55
27
75
55
27
75
55
27
75
55
27
75
55
27
75
55
27
75
55
27
75
55
27
75
55
27
75
55
27
75
55
27
75
55
27
75
55
27
75
55
27
75
55
27
75
55
27
75
55
27
75
55
27
75
55
27
75
55
27
75
55
27
75
55
27
75
55
27
75
55
27
75
55
27
75
55
27
75
55
27
75
55
27
75
55
27
75
55
27
75
55
27
75
55
27
75
55
27
75
55
27
75
55
27
75
55
27
75
55
27
75
55
27
75
55
27
75
55
27
75
55
27
75
55
27
75
55
27
75
55
27
75
55
27
75
55
27
75
55
27
75
55
27
75
55
27
75
55
27
75
55
27
75
55
27
75
55
27
75
55
27
75
55
27
75
55
27
75
55
27
75
55
27
75
55
27
75
55
27
75
55
27
75
55
27
75
55
27
75
55
27
75
55
27
75
55
27
75
55
27
75
55
27
75
55
27
75
55
27
75
55
27
75
55
27
75
55
27
75
55
27
75
55
27
75
55
27
75
55
27
75
55
27
75
55
27
75
55
27
75
55
27
75
55
27
75
55
27
75
55
27
75
55
27
75
55
27
75
55
27
75
55
27
75
55
27
75
55
27
75
55
27
75
55
27
75
55
27
75
55
27
75
55
27
75
55
27
75
55
27
75
55
27
75
55
27
75
55
27
75
55
27
75
55
27
75
55
27
75
55
27
75
55
27
75
55
27
75
55
27
75
55
27
75
55
27
75
55
27
75
55
27
75
55
27
75
55
27
75
55
27
75
55
27
75
55
27
75
55
27
75
55
27
75
55
27
75
55
27
75
55
27
75
55
27
75
55
27
75
55
27
75
55
27
75
55
27
75
55
27
75
55
27
75
55
27
75
55
27
75
55
27
75
55
27
75
55
27
75
55
27
75
55
27
75
55
27
75
55
27
75
55
27
75
55
27
75
55
27
75
55
27
75
55
27
75
55
27
75
55
27
75
55
27
75
55
27
75
55
27
75
55
27
75
55
27
75
55
27
75
55
27
75
55
27
75
55
27
75
55
27
75
55
27
75
55
27
75
55
27
75
55
27
75
55
27
75
55
27
75
55
27
75
55
27
75
55
27
75
55
27
75
55
27
75
55
27
75
55
27
75
55
27
75
55
27
75
55
27
75
55
27
75
55
27
75
55
27
75
55
27
75
55
27
75
55
27
75
55
27
75
55
27
75
55
27
75
55
27
75
55
27
75
55
27
75
55
27
75
55
27
75
55
27
75
55
27
75
55
27
75
55
27
75
55
27
75
55
27
75
55
27
75
55
27
75
55
27
75
55
27
75
55
27
75
55
27
75
55
27
75
55
27
75
55
27
75
55
27
75
55
27
75
55
27
75
55
27
75
55
27
75
55
27
75
55
27
75
55
27
75
55
27
75
55
27
75
55
27
75
55
27
75
55
27
75
55
27
75
55
27
75
55
27
75
55
27
255
127
27
255
127
27
255
127
27
255
235
223
255
255
255
255
127
27
255
127
27
67
51
27
255
127
27
255
127
27
255
127
27
255
127
27
255
127
27
255
127
27
255
127
27
67
51
27
255
127
27
255
127
27
255
127
27
255
127
27
255
127
27
255
127
27
255
127
27
67
51
27
255
127
27
255
127
27
255
127
27
255
127
27
255
127
27
255
127
27
255
127
27
67
51
27
255
127
27
255
127
27
255
127
27
255
127
27
255
127
27
255
127
27
255
127
27
67
51
27
255
127
27
255
127
27
255
127
27
255
127
27
255
127
27
255
127
27
255
127
27
67
51
27
255
127
27
255
127
27
255
127
27
255
127
27
255
127
27
255
127
27
255
127
27
67
51
27
255
127
27
255
127
27
255
127
27
255
127
27
255
127
27
255
127
27
255
127
27
67
51
27
255
127
27
255
127
27
255
127
27
255
127
27
255
127
27
255
127
27
255
127
27
67
51
27
255
127
27
255
127
27
255
127
27
255
127
27
255
127
27
255
127
27
255
127
27
67
51
27
255
127
27
255
127
27
255
127
27
255
127
27
255
127
27
255
127
27
255
127
27
67
51
27
255
127
27
255
127
27
255
127
27
255
127
27
255
127
27
255
127
27
255
127
27
67
51
27
255
127
27
255
127
27
255
127
27
255
127
27
255
127
27
255
127
27
255
127
27
67
51
27
255
127
27
255
127
27
255
127
27
255
127
27
255
127
27
255
127
27
255
127
27
67
51
27
255
127
27
255
127
27
255
127
27
255
127
27
255
127
27
255
127
27
255
127
27
67
51
27
255
127
27
255
127
27
255
127
27
255
127
27
255
127
27
255
127
27
255
127
27
67
51
27
255
127
27
255
127
27
255
127
27
255
127
27
255
127
27
255
127
27
255
127
27
67
51
27
255
127
27
255
127
27
255
127
27
255
127
27
255
127
27
255
127
27
255
127
27
67
51
27
255
127
27
255
127
27
255
127
27
255
127
27
255
127
27
255
127
27
255
127
27
67
51
27
255
127
27
255
127
27
255
127
27
255
127
27
255
127
27
255
127
27
255
127
27
67
51
27
255
127
27
255
127
27
255
127
27
255
127
27
255
127
27
255
127
27
255
127
27
67
51
27
255
127
27
255
127
27
255
127
27
255
127
27
255
127
27
255
127
27
255
127
27
67
51
27
255
127
27
255
127
27
255
127
27
255
127
27
255
127
27
255
127
27
255
127
27
67
51
27
255
127
27
255
127
27
255
127
27
255
127
27
255
127
27
255
127
27
255
127
27
67
51
27
255
127
27
255
127
27
255
127
27
255
127
27
255
127
27
255
127
27
255
127
27
67
51
27
255
127
27
255
127
27
255
127
27
255
127
27
255
127
27
255
127
27
255
127
27
67
51
27
255
127
27
255
127
27
255
127
27
255
127
27
255
127
27
255
127
27
255
127
27
67
51
27
255
127
27
255
127
27
255
127
27
255
127
27
255
127
27
255
127
27
255
127
27
67
51
27
255
127
27
255
127
27
255
127
27
255
127
27
255
127
27
255
127
27
255
127
27
67
51
27
255
127
27
255
127
27
255
127
27
255
127
27
255
127
27
255
127
27
255
127
27
67
51
27
255
127
27
255
127
27
255
127
27
255
127
27
255
127
27
255
127
27
255
127
27
67
51
27
255
127
27
255
127
27
255
127
27
255
127
27
255
127
27
255
127
27
255
127
27
67
51
27
255
127
27
255
127
27
255
127
27
255
127
27
255
127
27
255
127
27
255
127
27
67
51
27
255
127
27
255
127
27
255
127
27
255
127
27
255
127
27
255
127
27
255
127
27
67
51
27
255
127
27
255
127
27
255
127
27
255
127
27
255
127
27
255
127
27
255
127
27
67
51
27
255
127
27
255
127
27
255
127
27
255
127
27
255
127
27
255
127
27
255
127
27
67
51
27
255
127
27
255
127
27
255
127
27
255
127
27
255
127
27
255
127
27
255
127
27
67
51
27
255
127
27
255
127
27
255
127
27
255
127
27
255
127
27
255
127
27
255
127
27
67
51
27
255
127
27
255
127
27
255
127
27
255
127
27
255
127
27
255
127
27
255
127
27
67
51
27
255
127
27
255
127
27
255
127
27
255
127
27
255
127
27
255
127
27
255
127
27
75
55
27
255
127
27
255
127
27
255
255
255
255
235
223
255
255
255
255
127
27
255
127
27
67
51
27
255
127
27
255
127
27
255
127
27
255
127
27
255
127
27
255
127
27
255
127
27
67
51
27
255
127
27
255
127
27
255
127
27
255
127
27
255
127
27
255
127
27
255
127
27
67
51
27
255
127
27
255
127
27
255
127
27
255
127
27
255
127
27
255
127
27
255
127
27
67
51
27
255
127
27
255
127
27
255
127
27
255
127
27
255
127
27
255
127
27
255
127
27
67
51
27
255
127
27
255
127
27
255
127
27
255
127
27
255
127
27
255
127
27
255
127
27
67
51
27
255
127
27
255
127
27
255
127
27
255
127
27
255
127
27
255
127
27
255
127
27
67
51
27
255
127
27
255
127
27
255
127
27
255
127
27
255
127
27
255
127
27
255
127
27
67
51
27
255
127
27
255
127
27
255
127
27
255
127
27
255
127
27
255
127
27
255
127
27
67
51
27
255
127
27
255
127
27
255
127
27
255
127
27
255
127
27
255
127
27
255
127
27
67
51
27
255
127
27
255
127
27
255
127
27
255
127
27
255
127
27
255
127
27
255
255
255
67
51
27
255
127
27
255
127
27
255
127
27
255
127
27
255
127
27
255
127
27
255
255
255
67
51
27
255
127
27
255
127
27
255
127
27
255
127
27
255
127
27
255
127
27
255
255
255
67
51
27
255
127
27
255
127
27
255
127
27
255
127
27
255
127
27
255
127
27
255
255
255
67
51
27
255
127
27
255
127
27
255
127
27
255
127
27
255
127
27
255
127
27
255
255
255
67
51
27
255
127
27
255
127
27
255
127
27
255
127
27
255
127
27
255
127
27
255
255
255
67
51
27
255
127
27
255
127
27
255
127
27
255
127
27
255
127
27
255
127
27
255
255
255
67
51
27
255
127
27
255
127
27
255
127
27
255
127
27
255
127
27
255
127
27
255
255
255
67
51
27
255
127
27
255
127
27
255
127
27
255
127
27
255
127
27
255
127
27
255
255
255
67
51
27
255
127
27
255
127
27
255
127
27
255
127
27
255
127
27
255
127
27
255
255
255
67
51
27
255
127
27
255
235
223
255
235
223
255
127
27
255
127
27
255
235
223
255
235
223
67
51
27
255
127
27
255
235
223
255
235
223
255
127
27
255
127
27
255
235
223
255
235
223
67
51
27
255
127
27
255
235
223
255
235
223
255
127
27
255
127
27
255
235
223
255
235
223
67
51
27
255
127
27
255
235
223
255
235
223
255
127
27
255
127
27
255
235
223
255
235
223
67
51
27
255
127
27
255
235
223
255
235
223
255
127
27
255
127
27
255
235
223
255
235
223
67
51
27
255
127
27
255
235
223
255
235
223
255
127
27
255
127
27
255
235
223
255
235
223
67
51
27
255
127
27
255
235
223
255
235
223
255
127
27
255
127
27
255
235
223
255
235
223
67
51
27
255
127
27
255
235
223
255
235
223
255
127
27
255
127
27
255
235
223
255
235
223
67
51
27
255
127
27
255
235
223
255
235
223
255
127
27
255
127
27
255
235
223
255
235
223
67
51
27
255
127
27
255
235
223
255
235
223
255
127
27
255
127
27
255
235
223
255
235
223
67
51
27
255
127
27
255
235
223
255
235
223
255
127
27
255
235
223
255
235
223
255
127
27
67
51
27
255
127
27
255
235
223
255
235
223
255
127
27
255
235
223
255
235
223
255
127
27
67
51
27
255
127
27
255
235
223
255
235
223
255
127
27
255
235
223
255
235
223
255
127
27
67
51
27
255
127
27
255
235
223
255
235
223
255
127
27
255
235
223
255
235
223
255
127
27
67
51
27
255
127
27
255
235
223
255
235
223
255
127
27
255
235
223
255
235
223
255
127
27
67
51
27
255
127
27
255
235
223
255
235
223
255
127
27
255
235
223
255
235
223
255
127
27
67
51
27
255
127
27
255
235
223
255
235
223
255
127
27
255
235
223
255
235
223
255
127
27
67
51
27
255
127
27
255
235
223
255
235
223
255
127
27
255
235
223
255
235
223
255
127
27
67
51
27
255
127
27
255
235
223
255
235
223
255
127
27
255
235
223
255
235
223
255
127
27
67
51
27
255
127
27
255
235
223
255
235
223
255
127
27
255
235
223
255
235
223
255
127
27
75
55
27
255
127
27
255
127
27
255
127
27
255
235
223
255
255
255
255
127
27
255
127
27
67
51
27
255
127
27
255
127
27
255
127
27
255
127
27
255
127
27
255
127
27
255
127
27
67
51
27
255
127
27
255
127
27
255
127
27
255
127
27
255
127
27
255
127
27
255
127
27
67
51
27
255
127
27
255
127
27
255
127
27
255
127
27
255
127
27
255
127
27
255
127
27
67
51
27
255
127
27
255
127
27
255
127
27
255
127
27
255
127
27
255
127
27
255
127
27
67
51
27
255
127
27
255
127
27
255
127
27
255
127
27
255
127
27
255
127
27
255
127
27
67
51
27
255
127
27
255
127
27
255
127
27
255
127
27
255
127
27
255
127
27
255
127
27
67
51
27
255
127
27
255
127
27
255
127
27
255
127
27
255
127
27
255
127
27
255
127
27
67
51
27
255
127
27
255
127
27
255
127
27
255
127
27
255
127
27
255
127
27
255
127
27
67
51
27
255
127
27
255
127
27
255
127
27
255
127
27
255
127
27
255
127
27
255
127
27
67
51
27
255
255
255
255
255
255
255
255
255
255
255
255
255
255
255
255
255
255
255
255
255
67
51
27
255
255
255
255
255
255
255
255
255
255
255
255
255
255
255
255
255
255
255
255
255
67
51
27
255
255
255
255
255
255
255
255
255
255
255
255
255
255
255
255
255
255
255
255
255
67
51
27
255
255
255
255
255
255
255
255
255
255
255
255
255
255
255
255
255
255
255
255
255
67
51
27
255
255
255
255
255
255
255
255
255
255
255
255
255
255
255
255
255
255
255
255
255
67
51
27
255
255
255
255
255
255
255
255
255
255
255
255
255
255
255
255
255
255
255
255
255
67
51
27
255
255
255
255
255
255
255
255
255
255
255
255
255
255
255
255
255
255
255
255
255
67
51
27
255
255
255
255
255
255
255
255
255
255
255
255
255
255
255
255
255
255
255
255
255
67
51
27
255
255
255
255
255
255
255
255
255
255
255
255
255
255
255
255
255
255
255
255
255
67
51
27
255
255
255
255
255
255
255
255
255
255
255
255
255
255
255
255
255
255
255
255
255
67
51
27
255
235
223
255
235
223
255
235
223
255
235
223
255
127
27
255
235
223
255
235
223
67
51
27
255
235
223
255
235
223
255
235
223
255
235
223
255
127
27
255
235
223
255
235
223
67
51
27
255
235
223
255
235
223
255
235
223
255
235
223
255
127
27
255
235
223
255
235
223
67
51
27
255
235
223
255
235
223
255
235
223
255
235
223
255
127
27
255
235
223
255
235
223
67
51
27
255
235
223
255
235
223
255
235
223
255
235
223
255
127
27
255
235
223
255
235
223
67
51
27
255
235
223
255
235
223
255
235
223
255
235
223
255
127
27
255
235
223
255
235
223
67
51
27
255
235
223
255
235
223
255
235
223
255
235
223
255
127
27
255
235
223
255
235
223
67
51
27
255
235
223
255
235
223
255
235
223
255
235
223
255
127
27
255
235
223
255
235
223
67
51
27
255
235
223
255
235
223
255
235
223
255
235
223
255
127
27
255
235
223
255
235
223
67
51
27
255
235
223
255
235
223
255
235
223
255
235
223
255
127
27
255
235
223
255
235
223
67
51
27
255
235
223
255
235
223
255
235
223
255
235
223
255
235
223
255
235
223
255
235
223
67
51
27
255
235
223
255
235
223
255
235
223
255
235
223
255
235
223
255
235
223
255
235
223
67
51
27
255
235
223
255
235
223
255
235
223
255
235
223
255
235
223
255
235
223
255
235
223
67
51
27
255
235
223
255
235
223
255
235
223
255
235
223
255
235
223
255
235
223
255
235
223
67
51
27
255
235
223
255
235
223
255
235
223
255
235
223
255
235
223
255
235
223
255
235
223
67
51
27
255
235
223
255
235
223
255
235
223
255
235
223
255
235
223
255
235
223
255
235
223
67
51
27
255
235
223
255
235
223
255
235
223
255
235
223
255
235
223
255
235
223
255
235
223
67
51
27
255
235
223
255
235
223
255
235
223
255
235
223
255
235
223
255
235
223
255
235
223
67
51
27
255
235
223
255
235
223
255
235
223
255
235
223
255
235
223
255
235
223
255
235
223
67
51
27
255
235
223
255
235
223
255
235
223
255
235
223
255
235
223
255
235
223
255
235
223
75
55
27
255
127
27
255
127
27
255
127
27
255
235
223
255
255
255
255
127
27
255
127
27
67
51
27
255
127
27
255
127
27
255
127
27
255
127
27
255
127
27
255
127
27
255
127
27
67
51
27
255
127
27
255
127
27
255
127
27
255
127
27
255
127
27
255
127
27
255
127
27
67
51
27
255
127
27
255
127
27
255
127
27
255
127
27
255
127
27
255
127
27
255
127
27
67
51
27
255
127
27
255
127
27
255
127
27
255
127
27
255
127
27
255
127
27
255
127
27
67
51
27
255
127
27
255
127
27
255
127
27
255
127
27
255
127
27
255
127
27
255
127
27
67
51
27
255
127
27
255
127
27
255
127
27
255
127
27
255
127
27
255
127
27
255
127
27
67
51
27
255
127
27
255
127
27
255
127
27
255
127
27
255
127
27
255
127
27
255
127
27
67
51
27
255
127
27
255
127
27
255
127
27
255
127
27
255
127
27
255
127
27
255
127
27
67
51
27
255
127
27
255
127
27
255
127
27
255
127
27
255
127
27
255
127
27
255
127
27
67
51
27
255
235
223
255
235
223
255
235
223
255
235
223
255
235
223
255
235
223
255
255
255
67
51
27
255
235
223
255
235
223
255
235
223
255
235
223
255
235
223
255
235
223
255
255
255
67
51
27
255
235
223
255
235
223
255
235
223
255
235
223
255
235
223
255
235
223
255
255
255
67
51
27
255
235
223
255
235
223
255
235
223
255
235
223
255
235
223
255
235
223
255
255
255
67
51
27
255
235
223
255
235
223
255
235
223
255
235
223
255
235
223
255
235
223
255
255
255
67
51
27
255
235
223
255
235
223
255
235
223
255
235
223
255
235
223
255
235
223
255
255
255
67
51
27
255
235
223
255
235
223
255
235
223
255
235
223
255
235
223
255
235
223
255
255
255
67
51
27
255
235
223
255
235
223
255
235
223
255
235
223
255
235
223
255
235
223
255
255
255
67
51
27
255
235
223
255
235
223
255
235
223
255
235
223
255
235
223
255
235
223
255
255
255
67
51
27
255
235
223
255
235
223
255
235
223
255
235
223
255
235
223
255
235
223
255
255
255
67
51
27
255
235
223
255
127
27
255
127
27
255
235
223
255
127
27
255
127
27
255
235
223
67
51
27
255
235
223
255
127
27
255
127
27
255
235
223
255
127
27
255
127
27
255
235
223
67
51
27
255
235
223
255
127
27
255
127
27
255
235
223
255
127
27
255
127
27
255
235
223
67
51
27
255
235
223
255
127
27
255
127
27
255
235
223
255
127
27
255
127
27
255
235
223
67
51
27
255
235
223
255
127
27
255
127
27
255
235
223
255
127
27
255
127
27
255
235
223
67
51
27
255
235
223
255
127
27
255
127
27
255
235
223
255
127
27
255
127
27
255
235
223
67
51
27
255
235
223
255
127
27
255
127
27
255
235
223
255
127
27
255
127
27
255
235
223
67
51
27
255
235
223
255
127
27
255
127
27
255
235
223
255
127
27
255
127
27
255
235
223
67
51
27
255
235
223
255
127
27
255
127
27
255
235
223
255
127
27
255
127
27
255
235
223
67
51
27
255
235
223
255
127
27
255
127
27
255
235
223
255
127
27
255
127
27
255
235
223
67
51
27
255
235
223
255
127
27
255
127
27
255
235
223
255
127
27
255
127
27
255
235
223
67
51
27
255
235
223
255
127
27
255
127
27
255
235
223
255
127
27
255
127
27
255
235
223
67
51
27
255
235
223
255
127
27
255
127
27
255
235
223
255
127
27
255
127
27
255
235
223
67
51
27
255
235
223
255
127
27
255
127
27
255
235
223
255
127
27
255
127
27
255
235
223
67
51
27
255
235
223
255
127
27
255
127
27
255
235
223
255
127
27
255
127
27
255
235
223
67
51
27
255
235
223
255
127
27
255
127
27
255
235
223
255
127
27
255
127
27
255
235
223
67
51
27
255
235
223
255
127
27
255
127
27
255
235
223
255
127
27
255
127
27
255
235
223
67
51
27
255
235
223
255
127
27
255
127
27
255
235
223
255
127
27
255
127
27
255
235
223
67
51
27
255
235
223
255
127
27
255
127
27
255
235
223
255
127
27
255
127
27
255
235
223
67
51
27
255
235
223
255
127
27
255
127
27
255
235
223
255
127
27
255
127
27
255
235
223
75
55
27
255
127
27
255
127
27
255
127
27
255
235
223
255
255
255
255
127
27
255
127
27
67
51
27
255
127
27
255
127
27
255
127
27
255
127
27
255
127
27
255
127
27
255
127
27
67
51
27
255
127
27
255
127
27
255
127
27
255
127
27
255
127
27
255
127
27
255
127
27
67
51
27
255
127
27
255
127
27
255
127
27
255
127
27
255
127
27
255
127
27
255
127
27
67
51
27
255
127
27
255
127
27
255
127
27
255
127
27
255
127
27
255
127
27
255
127
27
67
51
27
255
127
27
255
127
27
255
127
27
255
127
27
255
127
27
255
127
27
255
127
27
67
51
27
255
127
27
255
127
27
255
127
27
255
127
27
255
127
27
255
127
27
255
127
27
67
51
27
255
127
27
255
127
27
255
127
27
255
127
27
255
127
27
255
127
27
255
127
27
67
51
27
255
127
27
255
127
27
255
127
27
255
127
27
255
127
27
255
127
27
255
127
27
67
51
27
255
127
27
255
127
27
255
127
27
255
127
27
255
127
27
255
127
27
255
127
27
75
55
27
255
127
27
255
255
255
255
127
27
255
127
27
255
127
27
255
127
27
255
255
255
75
55
27
255
127
27
255
255
255
255
127
27
255
127
27
255
127
27
255
127
27
255
255
255
75
55
27
255
127
27
255
255
255
255
127
27
255
127
27
255
127
27
255
127
27
255
255
255
75
55
27
255
127
27
255
255
255
255
127
27
255
127
27
255
127
27
255
127
27
255
255
255
75
55
27
255
127
27
255
255
255
255
127
27
255
127
27
255
127
27
255
127
27
255
255
255
75
55
27
255
127
27
255
255
255
255
127
27
255
127
27
255
127
27
255
127
27
255
255
255
75
55
27
255
127
27
255
255
255
255
127
27
255
127
27
255
127
27
255
127
27
255
255
255
75
55
27
255
127
27
255
255
255
255
127
27
255
127
27
255
127
27
255
127
27
255
255
255
75
55
27
255
127
27
255
255
255
255
127
27
255
127
27
255
127
27
255
127
27
255
255
255
75
55
27
255
127
27
255
255
255
255
127
27
255
127
27
255
127
27
255
127
27
255
255
255
75
55
27
255
235
223
255
127
27
255
127
27
255
235
223
255
235
223
255
127
27
255
235
223
75
55
27
255
235
223
255
127
27
255
127
27
255
235
223
255
235
223
255
127
27
255
235
223
75
55
27
255
235
223
255
127
27
255
127
27
255
235
223
255
235
223
255
127
27
255
235
223
75
55
27
255
235
223
255
127
27
255
127
27
255
235
223
255
235
223
255
127
27
255
235
223
75
55
27
255
235
223
255
127
27
255
127
27
255
235
223
255
235
223
255
127
27
255
235
223
75
55
27
255
235
223
255
127
27
255
127
27
255
235
223
255
235
223
255
127
27
255
235
223
75
55
27
255
235
223
255
127
27
255
127
27
255
235
223
255
235
223
255
127
27
255
235
223
75
55
27
255
235
223
255
127
27
255
127
27
255
235
223
255
235
223
255
127
27
255
235
223
75
55
27
255
235
223
255
127
27
255
127
27
255
235
223
255
235
223
255
127
27
255
235
223
75
55
27
255
235
223
255
127
27
255
127
27
255
235
223
255
235
223
255
127
27
255
235
223
75
55
27
255
235
223
255
127
27
255
127
27
255
235
223
255
127
27
255
127
27
255
235
223
75
55
27
255
235
223
255
127
27
255
127
27
255
235
223
255
127
27
255
127
27
255
235
223
75
55
27
255
235
223
255
127
27
255
127
27
255
235
223
255
127
27
255
127
27
255
235
223
75
55
27
255
235
223
255
127
27
255
127
27
255
235
223
255
127
27
255
127
27
255
235
223
75
55
27
255
235
223
255
127
27
255
127
27
255
235
223
255
127
27
255
127
27
255
235
223
75
55
27
255
235
223
255
127
27
255
127
27
255
235
223
255
127
27
255
127
27
255
235
223
75
55
27
255
235
223
255
127
27
255
127
27
255
235
223
255
127
27
255
127
27
255
235
223
75
55
27
255
235
223
255
127
27
255
127
27
255
235
223
255
127
27
255
127
27
255
235
223
75
55
27
255
235
223
255
127
27
255
127
27
255
235
223
255
127
27
255
127
27
255
235
223
75
55
27
255
235
223
255
127
27
255
127
27
255
235
223
255
127
27
255
127
27
255
235
223
75
55
27
255
127
27
255
127
27
255
127
27
255
235
223
255
255
255
255
127
27
255
127
27
67
51
27
255
127
27
255
127
27
255
127
27
255
127
27
255
127
27
255
127
27
255
127
27
67
51
27
255
127
27
255
127
27
255
127
27
255
127
27
255
127
27
255
127
27
255
127
27
67
51
27
255
127
27
255
127
27
255
127
27
255
127
27
255
127
27
255
127
27
255
127
27
67
51
27
255
127
27
255
127
27
255
127
27
255
127
27
255
127
27
255
127
27
255
127
27
67
51
27
255
127
27
255
127
27
255
127
27
255
127
27
255
127
27
255
127
27
255
127
27
67
51
27
255
127
27
255
127
27
255
127
27
255
127
27
255
127
27
255
127
27
255
127
27
67
51
27
255
127
27
255
127
27
255
127
27
255
127
27
255
127
27
255
127
27
255
127
27
67
51
27
255
127
27
255
127
27
255
127
27
255
127
27
255
127
27
255
127
27
255
127
27
67
51
27
255
127
27
255
127
27
255
127
27
255
127
27
255
127
27
255
127
27
255
127
27
75
55
27
255
127
27
255
127
27
255
127
27
255
127
27
255
127
27
255
127
27
255
127
27
75
55
27
255
127
27
255
127
27
255
127
27
255
127
27
255
127
27
255
127
27
255
127
27
75
55
27
255
127
27
255
127
27
255
127
27
255
127
27
255
127
27
255
127
27
255
127
27
75
55
27
255
127
27
255
127
27
255
127
27
255
127
27
255
127
27
255
127
27
255
127
27
75
55
27
255
127
27
255
127
27
255
127
27
255
127
27
255
127
27
255
127
27
255
127
27
75
55
27
255
127
27
255
127
27
255
127
27
255
127
27
255
127
27
255
127
27
255
127
27
75
55
27
255
127
27
255
127
27
255
127
27
255
127
27
255
127
27
255
127
27
255
127
27
75
55
27
255
127
27
255
127
27
255
127
27
255
127
27
255
127
27
255
127
27
255
127
27
75
55
27
255
127
27
255
127
27
255
127
27
255
127
27
255
127
27
255
127
27
255
127
27
75
55
27
255
127
27
255
127
27
255
127
27
255
127
27
255
127
27
255
127
27
255
127
27
75
55
27
255
235
223
255
235
223
255
127
27
255
127
27
255
235
223
255
235
223
255
235
223
75
55
27
255
235
223
255
235
223
255
127
27
255
127
27
255
235
223
255
235
223
255
235
223
75
55
27
255
235
223
255
235
223
255
127
27
255
127
27
255
235
223
255
235
223
255
235
223
75
55
27
255
235
223
255
235
223
255
127
27
255
127
27
255
235
223
255
235
223
255
235
223
75
55
27
255
235
223
255
235
223
255
127
27
255
127
27
255
235
223
255
235
223
255
235
223
75
55
27
255
235
223
255
235
223
255
127
27
255
127
27
255
235
223
255
235
223
255
235
223
75
55
27
255
235
223
255
235
223
255
127
27
255
127
27
255
235
223
255
235
223
255
235
223
75
55
27
255
235
223
255
235
223
255
127
27
255
127
27
255
235
223
255
235
223
255
235
223
75
55
27
255
235
223
255
235
223
255
127
27
255
127
27
255
235
223
255
235
223
255
235
223
75
55
27
255
235
223
255
235
223
255
127
27
255
127
27
255
235
223
255
235
223
255
235
223
75
55
27
255
235
223
255
255
255
255
127
27
255
235
223
255
127
27
255
255
255
255
235
223
75
55
27
255
235
223
255
255
255
255
127
27
255
235
223
255
127
27
255
255
255
255
235
223
75
55
27
255
235
223
255
255
255
255
127
27
255
235
223
255
127
27
255
255
255
255
235
223
75
55
27
255
235
223
255
255
255
255
127
27
255
235
223
255
127
27
255
255
255
255
235
223
75
55
27
255
235
223
255
255
255
255
127
27
255
235
223
255
127
27
255
255
255
255
235
223
75
55
27
255
235
223
255
255
255
255
127
27
255
235
223
255
127
27
255
255
255
255
235
223
75
55
27
255
235
223
255
255
255
255
127
27
255
235
223
255
127
27
255
255
255
255
235
223
75
55
27
255
235
223
255
255
255
255
127
27
255
235
223
255
127
27
255
255
255
255
235
223
75
55
27
255
235
223
255
255
255
255
127
27
255
235
223
255
127
27
255
255
255
255
235
223
75
55
27
255
235
223
255
255
255
255
127
27
255
235
223
255
127
27
255
255
255
255
235
223
75
55
27
255
127
27
255
127
27
255
255
255
255
255
255
255
255
255
255
255
255
255
127
27
67
51
27
255
127
27
255
127
27
255
127
27
255
127
27
255
127
27
255
127
27
255
127
27
67
51
27
255
127
27
255
127
27
255
127
27
255
127
27
255
127
27
255
127
27
255
127
27
67
51
27
255
127
27
255
127
27
255
127
27
255
127
27
255
127
27
255
127
27
255
127
27
67
51
27
255
127
27
255
127
27
255
127
27
255
127
27
255
127
27
255
127
27
255
127
27
67
51
27
255
127
27
255
127
27
255
127
27
255
127
27
255
127
27
255
127
27
255
127
27
67
51
27
255
127
27
255
127
27
255
127
27
255
127
27
255
127
27
255
127
27
255
127
27
67
51
27
255
127
27
255
127
27
255
127
27
255
127
27
255
127
27
255
127
27
255
127
27
67
51
27
255
127
27
255
127
27
255
127
27
255
127
27
255
127
27
255
127
27
255
127
27
67
51
27
255
127
27
255
127
27
255
127
27
255
127
27
255
127
27
255
127
27
255
127
27
75
55
27
255
127
27
255
127
27
255
127
27
255
127
27
255
127
27
255
127
27
255
127
27
75
55
27
255
127
27
255
127
27
255
127
27
255
127
27
255
127
27
255
127
27
255
127
27
75
55
27
255
127
27
255
127
27
255
127
27
255
127
27
255
127
27
255
127
27
255
127
27
75
55
27
255
127
27
255
127
27
255
127
27
255
127
27
255
127
27
255
127
27
255
127
27
75
55
27
255
127
27
255
127
27
255
127
27
255
127
27
255
127
27
255
127
27
255
127
27
75
55
27
255
127
27
255
127
27
255
127
27
255
127
27
255
127
27
255
127
27
255
127
27
75
55
27
255
127
27
255
127
27
255
127
27
255
127
27
255
127
27
255
127
27
255
127
27
75
55
27
255
127
27
255
127
27
255
127
27
255
127
27
255
127
27
255
127
27
255
127
27
75
55
27
255
127
27
255
127
27
255
127
27
255
127
27
255
127
27
255
127
27
255
127
27
75
55
27
255
127
27
255
127
27
255
127
27
255
127
27
255
127
27
255
127
27
255
127
27
75
55
27
255
127
27
255
235
223
255
127
27
255
127
27
255
127
27
255
235
223
255
235
223
75
55
27
255
127
27
255
235
223
255
127
27
255
127
27
255
127
27
255
235
223
255
235
223
75
55
27
255
127
27
255
235
223
255
127
27
255
127
27
255
127
27
255
235
223
255
235
223
75
55
27
255
127
27
255
235
223
255
127
27
255
127
27
255
127
27
255
235
223
255
235
223
75
55
27
255
127
27
255
235
223
255
127
27
255
127
27
255
127
27
255
235
223
255
235
223
75
55
27
255
127
27
255
235
223
255
127
27
255
127
27
255
127
27
255
235
223
255
235
223
75
55
27
255
127
27
255
235
223
255
127
27
255
127
27
255
127
27
255
235
223
255
235
223
75
55
27
255
127
27
255
235
223
255
127
27
255
127
27
255
127
27
255
235
223
255
235
223
75
55
27
255
127
27
255
235
223
255
127
27
255
127
27
255
127
27
255
235
223
255
235
223
75
55
27
255
127
27
255
235
223
255
127
27
255
127
27
255
127
27
255
235
223
255
235
223
75
55
27
255
127
27
255
255
255
255
127
27
255
127
27
255
127
27
255
255
255
255
127
27
75
55
27
255
127
27
255
255
255
255
127
27
255
127
27
255
127
27
255
255
255
255
127
27
75
55
27
255
127
27
255
255
255
255
127
27
255
127
27
255
127
27
255
255
255
255
127
27
75
55
27
255
127
27
255
255
255
255
127
27
255
127
27
255
127
27
255
255
255
255
127
27
75
55
27
255
127
27
255
255
255
255
127
27
255
127
27
255
127
27
255
255
255
255
127
27
75
55
27
255
127
27
255
255
255
255
127
27
255
127
27
255
127
27
255
255
255
255
127
27
75
55
27
255
127
27
255
255
255
255
127
27
255
127
27
255
127
27
255
255
255
255
127
27
75
55
27
255
127
27
255
255
255
255
127
27
255
127
27
255
127
27
255
255
255
255
127
27
75
55
27
255
127
27
255
255
255
255
127
27
255
127
27
255
127
27
255
255
255
255
127
27
75
55
27
255
127
27
255
255
255
255
127
27
255
127
27
255
127
27
255
255
255
255
127
27
75
55
27
75
55
27
75
55
27
75
55
27
67
51
27
67
51
27
67
51
27
67
51
27
67
51
27
67
51
27
67
51
27
67
51
27
67
51
27
67
51
27
67
51
27
67
51
27
167
107
107
167
107
107
167
107
107
167
107
107
167
107
107
167
107
107
167
107
107
167
107
107
167
107
107
167
107
107
167
107
107
167
107
107
167
107
107
167
107
107
167
107
107
167
107
107
167
107
107
167
107
107
167
107
107
167
107
107
167
107
107
167
107
107
167
107
107
167
107
107
167
107
107
167
107
107
167
107
107
167
107
107
167
107
107
167
107
107
167
107
107
167
107
107
167
107
107
167
107
107
167
107
107
167
107
107
167
107
107
167
107
107
167
107
107
167
107
107
167
107
107
167
107
107
167
107
107
167
107
107
167
107
107
167
107
107
167
107
107
167
107
107
167
107
107
167
107
107
167
107
107
167
107
107
167
107
107
167
107
107
167
107
107
167
107
107
167
107
107
167
107
107
167
107
107
167
107
107
167
107
107
167
107
107
167
107
107
167
107
107
67
51
27
67
51
27
67
51
27
67
51
27
67
51
27
67
51
27
67
51
27
67
51
27
167
107
107
167
107
107
167
107
107
167
107
107
167
107
107
167
107
107
167
107
107
167
107
107
167
107
107
167
107
107
167
107
107
167
107
107
167
107
107
167
107
107
167
107
107
167
107
107
167
107
107
167
107
107
167
107
107
167
107
107
167
107
107
167
107
107
167
107
107
167
107
107
167
107
107
167
107
107
167
107
107
167
107
107
167
107
107
167
107
107
167
107
107
167
107
107
167
107
107
167
107
107
167
107
107
167
107
107
167
107
107
167
107
107
167
107
107
167
107
107
167
107
107
167
107
107
167
107
107
167
107
107
167
107
107
167
107
107
167
107
107
167
107
107
167
107
107
167
107
107
167
107
107
167
107
107
167
107
107
167
107
107
167
107
107
167
107
107
167
107
107
167
107
107
167
107
107
167
107
107
167
107
107
167
107
107
167
107
107
167
107
107
67
51
27
67
51
27
67
51
27
67
51
27
67
51
27
67
51
27
67
51
27
67
51
27
167
107
107
167
107
107
167
107
107
167
107
107
167
107
107
167
107
107
167
107
107
167
107
107
167
107
107
167
107
107
167
107
107
167
107
107
167
107
107
167
107
107
167
107
107
167
107
107
167
107
107
167
107
107
167
107
107
167
107
107
167
107
107
167
107
107
167
107
107
167
107
107
167
107
107
167
107
107
167
107
107
167
107
107
167
107
107
167
107
107
167
107
107
167
107
107
167
107
107
167
107
107
167
107
107
167
107
107
167
107
107
167
107
107
167
107
107
167
107
107
167
107
107
167
107
107
167
107
107
167
107
107
167
107
107
167
107
107
167
107
107
167
107
107
167
107
107
167
107
107
167
107
107
167
107
107
167
107
107
167
107
107
167
107
107
167
107
107
167
107
107
167
107
107
167
107
107
167
107
107
167
107
107
167
107
107
167
107
107
167
107
107
255
255
255
255
255
255
255
255
255
255
255
255
255
255
255
0
0
0
67
51
27
67
51
27
167
107
107
167
107
107
167
107
107
167
107
107
167
107
107
167
107
107
167
107
107
167
107
107
167
107
107
167
107
107
167
107
107
167
107
107
167
107
107
167
107
107
167
107
107
167
107
107
167
107
107
167
107
107
167
107
107
167
107
107
167
107
107
167
107
107
167
107
107
167
107
107
167
107
107
167
107
107
167
107
107
167
107
107
167
107
107
167
107
107
167
107
107
167
107
107
167
107
107
167
107
107
167
107
107
167
107
107
167
107
107
167
107
107
167
107
107
167
107
107
167
107
107
167
107
107
167
107
107
167
107
107
167
107
107
167
107
107
167
107
107
167
107
107
167
107
107
167
107
107
167
107
107
167
107
107
167
107
107
167
107
107
167
107
107
167
107
107
167
107
107
167
107
107
167
107
107
167
107
107
167
107
107
167
107
107
167
107
107
167
107
107
75
55
27
75
55
27
75
55
27
75
55
27
75
55
27
75
55
27
75
55
27
75
55
27
75
55
27
75
55
27
75
55
27
75
55
27
75
55
27
75
55
27
75
55
27
75
55
27
75
55
27
75
55
27
75
55
27
75
55
27
75
55
27
75
55
27
75
55
27
75
55
27
75
55
27
255
127
27
255
235
223
255
235
223
255
235
223
255
235
223
255
127
27
255
127
27
67
51
27
255
127
27
255
127
27
255
127
27
255
127
27
255
127
27
255
127
27
255
127
27
167
107
107
167
107
107
167
107
107
167
107
107
167
107
107
167
107
107
167
107
107
167
107
107
167
107
107
167
107
107
167
107
107
167
107
107
167
107
107
167
107
107
167
107
107
167
107
107
167
107
107
167
107
107
167
107
107
167
107
107
167
107
107
167
107
107
167
107
107
167
107
107
167
107
107
167
107
107
167
107
107
167
107
107
167
107
107
167
107
107
167
107
107
167
107
107
167
107
107
167
107
107
167
107
107
167
107
107
167
107
107
167
107
107
167
107
107
167
107
107
167
107
107
167
107
107
167
107
107
167
107
107
167
107
107
167
107
107
167
107
107
167
107
107
167
107
107
167
107
107
167
107
107
167
107
107
167
107
107
167
107
107
167
107
107
167
107
107
167
107
107
167
107
107
167
107
107
167
107
107
167
107
107
167
107
107
167
107
107
167
107
107
67
51
27
0
0
0
0
0
0
0
0
0
0
0
0
0
0
0
0
0
0
0
0
0
167
107
107
167
107
107
167
107
107
167
107
107
167
107
107
167
107
107
167
107
107
167
107
107
167
107
107
167
107
107
167
107
107
167
107
107
167
107
107
167
107
107
167
107
107
167
107
107
167
107
107
167
107
107
167
107
107
167
107
107
167
107
107
167
107
107
167
107
107
167
107
107
167
107
107
167
107
107
167
107
107
167
107
107
167
107
107
167
107
107
167
107
107
167
107
107
167
107
107
167
107
107
167
107
107
167
107
107
167
107
107
167
107
107
167
107
107
167
107
107
167
107
107
167
107
107
167
107
107
167
107
107
167
107
107
167
107
107
167
107
107
167
107
107
167
107
107
167
107
107
167
107
107
167
107
107
167
107
107
167
107
107
167
107
107
167
107
107
167
107
107
167
107
107
167
107
107
167
107
107
167
107
107
167
107
107
167
107
107
167
107
107
67
51
27
0
0
0
0
0
0
0
0
0
0
0
0
0
0
0
0
0
0
0
0
0
167
107
107
167
107
107
167
107
107
167
107
107
167
107
107
167
107
107
167
107
107
167
107
107
167
107
107
167
107
107
167
107
107
167
107
107
167
107
107
167
107
107
167
107
107
167
107
107
167
107
107
167
107
107
167
107
107
167
107
107
167
107
107
167
107
107
167
107
107
167
107
107
167
107
107
167
107
107
167
107
107
167
107
107
167
107
107
167
107
107
167
107
107
167
107
107
167
107
107
167
107
107
167
107
107
167
107
107
167
107
107
167
107
107
167
107
107
167
107
107
167
107
107
167
107
107
167
107
107
167
107
107
167
107
107
167
107
107
167
107
107
167
107
107
167
107
107
167
107
107
167
107
107
167
107
107
167
107
107
167
107
107
167
107
107
167
107
107
167
107
107
167
107
107
167
107
107
167
107
107
167
107
107
167
107
107
167
107
107
167
107
107
255
255
255
255
255
255
0
0
0
0
0
0
255
255
255
255
255
255
0
0
0
0
0
0
167
107
107
167
107
107
167
107
107
167
107
107
167
107
107
167
107
107
167
107
107
167
107
107
167
107
107
167
107
107
167
107
107
167
107
107
167
107
107
167
107
107
167
107
107
167
107
107
167
107
107
167
107
107
167
107
107
167
107
107
167
107
107
167
107
107
167
107
107
167
107
107
167
107
107
167
107
107
167
107
107
167
107
107
167
107
107
167
107
107
167
107
107
167
107
107
167
107
107
167
107
107
167
107
107
167
107
107
167
107
107
167
107
107
167
107
107
167
107
107
167
107
107
167
107
107
167
107
107
167
107
107
167
107
107
167
107
107
167
107
107
167
107
107
167
107
107
167
107
107
167
107
107
167
107
107
167
107
107
167
107
107
167
107
107
167
107
107
167
107
107
167
107
107
167
107
107
167
107
107
167
107
107
167
107
107
167
107
107
167
107
107
67
51
27
0
0
0
0
0
0
0
0
0
0
0
0
0
0
0
0
0
0
0
0
0
67
51
27
0
0
0
0
0
0
0
0
0
0
0
0
0
0
0
0
0
0
0
0
0
0
0
0
0
0
0
0
0
0
0
0
0
0
0
0
0
0
0
0
0
0
0
0
0
75
55
27
255
235
223
255
235
223
255
127
27
255
127
27
255
235
223
255
235
223
255
127
27
67
51
27
255
127
27
255
127
27
255
127
27
255
127
27
255
127
27
255
127
27
255
127
27
167
107
107
167
107
107
167
107
107
167
107
107
167
107
107
167
107
107
167
107
107
167
107
107
167
107
107
167
107
107
167
107
107
167
107
107
167
107
107
167
107
107
167
107
107
167
107
107
167
107
107
167
107
107
167
107
107
167
107
107
167
107
107
167
107
107
167
107
107
167
107
107
167
107
107
167
107
107
167
107
107
167
107
107
167
107
107
167
107
107
167
107
107
167
107
107
167
107
107
167
107
107
167
107
107
167
107
107
167
107
107
167
107
107
167
107
107
167
107
107
167
107
107
167
107
107
167
107
107
167
107
107
167
107
107
167
107
107
167
107
107
167
107
107
167
107
107
167
107
107
167
107
107
167
107
107
167
107
107
167
107
107
167
107
107
167
107
107
167
107
107
167
107
107
167
107
107
167
107
107
167
107
107
167
107
107
167
107
107
167
107
107
67
51
27
255
255
255
255
255
255
255
255
255
255
255
255
0
0
0
0
0
0
0
0
0
167
107
107
167
107
107
167
107
107
167
107
107
167
107
107
167
107
107
167
107
107
167
107
107
167
107
107
167
107
107
167
107
107
167
107
107
167
107
107
167
107
107
167
107
107
167
107
107
167
107
107
167
107
107
167
107
107
167
107
107
167
107
107
167
107
107
167
107
107
167
107
107
167
107
107
167
107
107
167
107
107
167
107
107
167
107
107
167
107
107
167
107
107
167
107
107
167
107
107
167
107
107
167
107
107
167
107
107
167
107
107
167
107
107
167
107
107
167
107
107
167
107
107
167
107
107
167
107
107
167
107
107
167
107
107
167
107
107
167
107
107
167
107
107
167
107
107
167
107
107
167
107
107
167
107
107
167
107
107
167
107
107
167
107
107
167
107
107
167
107
107
167
107
107
167
107
107
167
107
107
167
107
107
167
107
107
167
107
107
167
107
107
67
51
27
0
0
0
0
0
0
0
0
0
0
0
0
0
0
0
0
0
0
0
0
0
167
107
107
167
107
107
167
107
107
167
107
107
167
107
107
167
107
107
167
107
107
167
107
107
167
107
107
167
107
107
167
107
107
167
107
107
167
107
107
167
107
107
167
107
107
167
107
107
167
107
107
167
107
107
167
107
107
167
107
107
167
107
107
167
107
107
167
107
107
167
107
107
167
107
107
167
107
107
167
107
107
167
107
107
167
107
107
167
107
107
167
107
107
167
107
107
167
107
107
167
107
107
167
107
107
167
107
107
167
107
107
167
107
107
167
107
107
167
107
107
167
107
107
167
107
107
167
107
107
167
107
107
167
107
107
167
107
107
167
107
107
167
107
107
167
107
107
167
107
107
167
107
107
167
107
107
167
107
107
167
107
107
167
107
107
167
107
107
167
107
107
167
107
107
167
107
107
167
107
107
167
107
107
167
107
107
167
107
107
167
107
107
255
255
255
255
255
255
0
0
0
0
0
0
255
255
255
255
255
255
0
0
0
0
0
0
167
107
107
167
107
107
167
107
107
167
107
107
167
107
107
167
107
107
167
107
107
167
107
107
167
107
107
167
107
107
167
107
107
167
107
107
167
107
107
167
107
107
167
107
107
167
107
107
167
107
107
167
107
107
167
107
107
167
107
107
167
107
107
167
107
107
167
107
107
167
107
107
167
107
107
167
107
107
167
107
107
167
107
107
167
107
107
167
107
107
167
107
107
167
107
107
167
107
107
167
107
107
167
107
107
167
107
107
167
107
107
167
107
107
167
107
107
167
107
107
167
107
107
167
107
107
167
107
107
167
107
107
167
107
107
167
107
107
167
107
107
167
107
107
167
107
107
167
107
107
167
107
107
167
107
107
167
107
107
167
107
107
167
107
107
167
107
107
167
107
107
167
107
107
167
107
107
167
107
107
167
107
107
167
107
107
167
107
107
167
107
107
67
51
27
255
255
255
255
255
255
255
255
255
255
255
255
255
255
255
0
0
0
0
0
0
67
51
27
0
0
0
0
0
0
0
0
0
0
0
0
0
0
0
0
0
0
0
0
0
0
0
0
0
0
0
0
0
0
0
0
0
0
0
0
0
0
0
0
0
0
0
0
0
75
55
27
255
127
27
255
127
27
255
127
27
255
127
27
255
235
223
255
235
223
255
127
27
67
51
27
255
127
27
255
127
27
255
127
27
255
127
27
255
127
27
255
127
27
255
127
27
167
107
107
167
107
107
167
107
107
167
107
107
167
107
107
167
107
107
167
107
107
167
107
107
167
107
107
167
107
107
167
107
107
167
107
107
167
107
107
167
107
107
167
107
107
167
107
107
167
107
107
167
107
107
167
107
107
167
107
107
167
107
107
167
107
107
167
107
107
167
107
107
167
107
107
167
107
107
167
107
107
167
107
107
167
107
107
167
107
107
167
107
107
167
107
107
167
107
107
167
107
107
167
107
107
167
107
107
167
107
107
167
107
107
167
107
107
167
107
107
167
107
107
167
107
107
167
107
107
167
107
107
167
107
107
167
107
107
167
107
107
167
107
107
167
107
107
167
107
107
167
107
107
167
107
107
167
107
107
167
107
107
167
107
107
167
107
107
167
107
107
167
107
107
167
107
107
167
107
107
167
107
107
167
107
107
167
107
107
167
107
107
67
51
27
255
255
255
0
0
0
0
0
0
255
255
255
255
255
255
0
0
0
0
0
0
167
107
107
167
107
107
167
107
107
167
107
107
167
107
107
167
107
107
167
107
107
167
107
107
167
107
107
167
107
107
167
107
107
167
107
107
167
107
107
167
107
107
167
107
107
167
107
107
167
107
107
167
107
107
167
107
107
167
107
107
167
107
107
167
107
107
167
107
107
167
107
107
167
107
107
167
107
107
167
107
107
167
107
107
167
107
107
167
107
107
167
107
107
167
107
107
167
107
107
167
107
107
167
107
107
167
107
107
167
107
107
167
107
107
167
107
107
167
107
107
167
107
107
167
107
107
167
107
107
167
107
107
167
107
107
167
107
107
167
107
107
167
107
107
167
107
107
167
107
107
167
107
107
167
107
107
167
107
107
167
107
107
167
107
107
167
107
107
167
107
107
167
107
107
167
107
107
167
107
107
167
107
107
167
107
107
167
107
107
167
107
107
67
51
27
0
0
0
0
0
0
0
0
0
0
0
0
0
0
0
0
0
0
0
0
0
167
107
107
167
107
107
167
107
107
167
107
107
167
107
107
167
107
107
167
107
107
167
107
107
167
107
107
167
107
107
167
107
107
167
107
107
167
107
107
167
107
107
167
107
107
167
107
107
167
107
107
167
107
107
167
107
107
167
107
107
167
107
107
167
107
107
167
107
107
167
107
107
167
107
107
167
107
107
167
107
107
167
107
107
167
107
107
167
107
107
167
107
107
167
107
107
167
107
107
167
107
107
167
107
107
167
107
107
167
107
107
167
107
107
167
107
107
167
107
107
167
107
107
167
107
107
167
107
107
167
107
107
167
107
107
167
107
107
167
107
107
167
107
107
167
107
107
167
107
107
167
107
107
167
107
107
167
107
107
167
107
107
167
107
107
167
107
107
167
107
107
167
107
107
167
107
107
167
107
107
167
107
107
167
107
107
167
107
107
167
107
107
255
255
255
255
255
255
255
255
255
255
255
255
255
255
255
0
0
0
0
0
0
0
0
0
167
107
107
167
107
107
167
107
107
167
107
107
167
107
107
167
107
107
167
107
107
167
107
107
167
107
107
167
107
107
167
107
107
167
107
107
167
107
107
167
107
107
167
107
107
167
107
107
167
107
107
167
107
107
167
107
107
167
107
107
167
107
107
167
107
107
167
107
107
167
107
107
167
107
107
167
107
107
167
107
107
167
107
107
167
107
107
167
107
107
167
107
107
167
107
107
167
107
107
167
107
107
167
107
107
167
107
107
167
107
107
167
107
107
167
107
107
167
107
107
167
107
107
167
107
107
167
107
107
167
107
107
167
107
107
167
107
107
167
107
107
167
107
107
167
107
107
167
107
107
167
107
107
167
107
107
167
107
107
167
107
107
167
107
107
167
107
107
167
107
107
167
107
107
167
107
107
167
107
107
167
107
107
167
107
107
167
107
107
167
107
107
255
255
255
255
255
255
0
0
0
0
0
0
0
0
0
0
0
0
0
0
0
0
0
0
67
51
27
0
0
0
0
0
0
0
0
0
0
0
0
0
0
0
0
0
0
0
0
0
0
0
0
0
0
0
0
0
0
0
0
0
0
0
0
0
0
0
0
0
0
0
0
0
75
55
27
255
127
27
255
127
27
255
235
223
255
235
223
255
235
223
255
127
27
255
127
27
67
51
27
255
127
27
255
127
27
255
127
27
255
127
27
255
127
27
255
127
27
255
127
27
167
107
107
167
107
107
167
107
107
167
107
107
167
107
107
167
107
107
167
107
107
167
107
107
167
107
107
167
107
107
167
107
107
167
107
107
167
107
107
167
107
107
167
107
107
167
107
107
167
107
107
167
107
107
167
107
107
167
107
107
167
107
107
167
107
107
167
107
107
167
107
107
167
107
107
167
107
107
167
107
107
167
107
107
167
107
107
167
107
107
167
107
107
167
107
107
167
107
107
167
107
107
167
107
107
167
107
107
167
107
107
167
107
107
167
107
107
167
107
107
167
107
107
167
107
107
167
107
107
167
107
107
167
107
107
167
107
107
167
107
107
167
107
107
167
107
107
167
107
107
167
107
107
167
107
107
167
107
107
167
107
107
167
107
107
167
107
107
167
107
107
167
107
107
167
107
107
167
107
107
167
107
107
167
107
107
167
107
107
167
107
107
67
51
27
255
255
255
0
0
0
0
0
0
255
255
255
255
255
255
0
0
0
0
0
0
167
107
107
167
107
107
167
107
107
167
107
107
167
107
107
167
107
107
167
107
107
167
107
107
167
107
107
167
107
107
167
107
107
167
107
107
167
107
107
167
107
107
167
107
107
167
107
107
167
107
107
167
107
107
167
107
107
167
107
107
167
107
107
167
107
107
167
107
107
167
107
107
167
107
107
167
107
107
167
107
107
167
107
107
167
107
107
167
107
107
167
107
107
167
107
107
167
107
107
167
107
107
167
107
107
167
107
107
167
107
107
167
107
107
167
107
107
167
107
107
167
107
107
167
107
107
167
107
107
167
107
107
167
107
107
167
107
107
167
107
107
167
107
107
167
107
107
167
107
107
167
107
107
167
107
107
167
107
107
167
107
107
167
107
107
167
107
107
167
107
107
167
107
107
167
107
107
167
107
107
167
107
107
167
107
107
167
107
107
167
107
107
67
51
27
0
0
0
0
0
0
0
0
0
0
0
0
0
0
0
0
0
0
0
0
0
167
107
107
167
107
107
167
107
107
167
107
107
167
107
107
167
107
107
167
107
107
167
107
107
167
107
107
167
107
107
167
107
107
167
107
107
167
107
107
167
107
107
167
107
107
167
107
107
167
107
107
167
107
107
167
107
107
167
107
107
167
107
107
167
107
107
167
107
107
167
107
107
167
107
107
167
107
107
167
107
107
167
107
107
167
107
107
167
107
107
167
107
107
167
107
107
167
107
107
167
107
107
167
107
107
167
107
107
167
107
107
167
107
107
167
107
107
167
107
107
167
107
107
167
107
107
167
107
107
167
107
107
167
107
107
167
107
107
167
107
107
167
107
107
167
107
107
167
107
107
167
107
107
167
107
107
167
107
107
167
107
107
167
107
107
167
107
107
167
107
107
167
107
107
167
107
107
167
107
107
167
107
107
167
107
107
167
107
107
167
107
107
255
255
255
255
255
255
0
0
0
0
0
0
255
255
255
255
255
255
0
0
0
0
0
0
167
107
107
167
107
107
167
107
107
167
107
107
167
107
107
167
107
107
167
107
107
167
107
107
167
107
107
167
107
107
167
107
107
167
107
107
167
107
107
167
107
107
167
107
107
167
107
107
167
107
107
167
107
107
167
107
107
167
107
107
167
107
107
167
107
107
167
107
107
167
107
107
167
107
107
167
107
107
167
107
107
167
107
107
167
107
107
167
107
107
167
107
107
167
107
107
167
107
107
167
107
107
167
107
107
167
107
107
167
107
107
167
107
107
167
107
107
167
107
107
167
107
107
167
107
107
167
107
107
167
107
107
167
107
107
167
107
107
167
107
107
167
107
107
167
107
107
167
107
107
167
107
107
167
107
107
167
107
107
167
107
107
167
107
107
167
107
107
167
107
107
167
107
107
167
107
107
167
107
107
167
107
107
167
107
107
167
107
107
167
107
107
255
255
255
255
255
255
0
0
0
0
0
0
0
0
0
0
0
0
0
0
0
0
0
0
67
51
27
0
0
0
0
0
0
0
0
0
0
0
0
0
0
0
0
0
0
0
0
0
0
0
0
0
0
0
0
0
0
0
0
0
0
0
0
0
0
0
0
0
0
0
0
0
75
55
27
255
127
27
255
235
223
255
235
223
255
127
27
255
127
27
255
127
27
255
127
27
67
51
27
255
127
27
255
127
27
255
127
27
255
127
27
255
127
27
255
127
27
255
127
27
167
107
107
167
107
107
167
107
107
167
107
107
167
107
107
167
107
107
167
107
107
167
107
107
167
107
107
167
107
107
167
107
107
167
107
107
167
107
107
167
107
107
167
107
107
167
107
107
167
107
107
167
107
107
167
107
107
167
107
107
167
107
107
167
107
107
167
107
107
167
107
107
167
107
107
167
107
107
167
107
107
167
107
107
167
107
107
167
107
107
167
107
107
167
107
107
167
107
107
167
107
107
167
107
107
167
107
107
167
107
107
167
107
107
167
107
107
167
107
107
167
107
107
167
107
107
167
107
107
167
107
107
167
107
107
167
107
107
167
107
107
167
107
107
167
107
107
167
107
107
167
107
107
167
107
107
167
107
107
167
107
107
167
107
107
167
107
107
167
107
107
167
107
107
167
107
107
167
107
107
167
107
107
167
107
107
167
107
107
167
107
107
67
51
27
255
255
255
255
255
255
255
255
255
255
255
255
0
0
0
0
0
0
0
0
0
167
107
107
167
107
107
167
107
107
167
107
107
167
107
107
167
107
107
167
107
107
167
107
107
167
107
107
167
107
107
167
107
107
167
107
107
167
107
107
167
107
107
167
107
107
167
107
107
167
107
107
167
107
107
167
107
107
167
107
107
167
107
107
167
107
107
167
107
107
167
107
107
167
107
107
167
107
107
167
107
107
167
107
107
167
107
107
167
107
107
167
107
107
167
107
107
167
107
107
167
107
107
167
107
107
167
107
107
167
107
107
167
107
107
167
107
107
167
107
107
167
107
107
167
107
107
167
107
107
167
107
107
167
107
107
167
107
107
167
107
107
167
107
107
167
107
107
167
107
107
167
107
107
167
107
107
167
107
107
167
107
107
167
107
107
167
107
107
167
107
107
167
107
107
167
107
107
167
107
107
167
107
107
167
107
107
167
107
107
167
107
107
67
51
27
0
0
0
0
0
0
0
0
0
0
0
0
0
0
0
0
0
0
0
0
0
167
107
107
167
107
107
167
107
107
167
107
107
167
107
107
167
107
107
167
107
107
167
107
107
167
107
107
167
107
107
167
107
107
167
107
107
167
107
107
167
107
107
167
107
107
167
107
107
167
107
107
167
107
107
167
107
107
167
107
107
167
107
107
167
107
107
167
107
107
167
107
107
167
107
107
167
107
107
167
107
107
167
107
107
167
107
107
167
107
107
167
107
107
167
107
107
167
107
107
167
107
107
167
107
107
167
107
107
167
107
107
167
107
107
167
107
107
167
107
107
167
107
107
167
107
107
167
107
107
167
107
107
167
107
107
167
107
107
167
107
107
167
107
107
167
107
107
167
107
107
167
107
107
167
107
107
167
107
107
167
107
107
167
107
107
167
107
107
167
107
107
167
107
107
167
107
107
167
107
107
167
107
107
167
107
107
167
107
107
167
107
107
255
255
255
255
255
255
67
51
27
67
51
27
255
255
255
255
255
255
0
0
0
0
0
0
167
107
107
167
107
107
167
107
107
167
107
107
167
107
107
167
107
107
167
107
107
167
107
107
167
107
107
167
107
107
167
107
107
167
107
107
167
107
107
167
107
107
167
107
107
167
107
107
167
107
107
167
107
107
167
107
107
167
107
107
167
107
107
167
107
107
167
107
107
167
107
107
167
107
107
167
107
107
167
107
107
167
107
107
167
107
107
167
107
107
167
107
107
167
107
107
167
107
107
167
107
107
167
107
107
167
107
107
167
107
107
167
107
107
167
107
107
167
107
107
167
107
107
167
107
107
167
107
107
167
107
107
167
107
107
167
107
107
167
107
107
167
107
107
167
107
107
167
107
107
167
107
107
167
107
107
167
107
107
167
107
107
167
107
107
167
107
107
167
107
107
167
107
107
167
107
107
167
107
107
167
107
107
167
107
107
167
107
107
167
107
107
255
255
255
255
255
255
0
0
0
0
0
0
0
0
0
0
0
0
0
0
0
0
0
0
67
51
27
0
0
0
0
0
0
0
0
0
0
0
0
0
0
0
0
0
0
0
0
0
0
0
0
0
0
0
0
0
0
0
0
0
0
0
0
0
0
0
0
0
0
0
0
0
75
55
27
255
235
223
255
235
223
255
127
27
255
127
27
255
235
223
255
235
223
255
127
27
67
51
27
255
127
27
255
127
27
255
127
27
255
127
27
255
127
27
255
127
27
255
127
27
167
107
107
167
107
107
167
107
107
167
107
107
167
107
107
167
107
107
167
107
107
167
107
107
167
107
107
167
107
107
167
107
107
167
107
107
167
107
107
167
107
107
167
107
107
167
107
107
167
107
107
167
107
107
167
107
107
167
107
107
167
107
107
167
107
107
167
107
107
167
107
107
167
107
107
167
107
107
167
107
107
167
107
107
167
107
107
167
107
107
167
107
107
167
107
107
167
107
107
167
107
107
167
107
107
167
107
107
167
107
107
167
107
107
167
107
107
167
107
107
167
107
107
167
107
107
167
107
107
167
107
107
167
107
107
167
107
107
167
107
107
167
107
107
167
107
107
167
107
107
167
107
107
167
107
107
167
107
107
167
107
107
167
107
107
167
107
107
167
107
107
167
107
107
167
107
107
167
107
107
167
107
107
167
107
107
167
107
107
167
107
107
67
51
27
255
255
255
0
0
0
0
0
0
0
0
0
0
0
0
0
0
0
0
0
0
167
107
107
167
107
107
167
107
107
167
107
107
167
107
107
167
107
107
167
107
107
167
107
107
167
107
107
167
107
107
167
107
107
167
107
107
167
107
107
167
107
107
167
107
107
167
107
107
167
107
107
167
107
107
167
107
107
167
107
107
167
107
107
167
107
107
167
107
107
167
107
107
167
107
107
167
107
107
167
107
107
167
107
107
167
107
107
167
107
107
167
107
107
167
107
107
167
107
107
167
107
107
167
107
107
167
107
107
167
107
107
167
107
107
167
107
107
167
107
107
167
107
107
167
107
107
167
107
107
167
107
107
167
107
107
167
107
107
167
107
107
167
107
107
167
107
107
167
107
107
167
107
107
167
107
107
167
107
107
167
107
107
167
107
107
167
107
107
167
107
107
167
107
107
167
107
107
167
107
107
167
107
107
167
107
107
167
107
107
167
107
107
67
51
27
0
0
0
0
0
0
0
0
0
0
0
0
0
0
0
0
0
0
0
0
0
167
107
107
167
107
107
167
107
107
167
107
107
167
107
107
167
107
107
167
107
107
167
107
107
167
107
107
167
107
107
167
107
107
167
107
107
167
107
107
167
107
107
167
107
107
167
107
107
167
107
107
167
107
107
167
107
107
167
107
107
167
107
107
167
107
107
167
107
107
167
107
107
167
107
107
167
107
107
167
107
107
167
107
107
167
107
107
167
107
107
167
107
107
167
107
107
167
107
107
167
107
107
167
107
107
167
107
107
167
107
107
167
107
107
167
107
107
167
107
107
167
107
107
167
107
107
167
107
107
167
107
107
167
107
107
167
107
107
167
107
107
167
107
107
167
107
107
167
107
107
167
107
107
167
107
107
167
107
107
167
107
107
167
107
107
167
107
107
167
107
107
167
107
107
167
107
107
167
107
107
167
107
107
167
107
107
167
107
107
167
107
107
255
255
255
255
255
255
255
255
255
255
255
255
255
255
255
0
0
0
0
0
0
0
0
0
167
107
107
167
107
107
167
107
107
167
107
107
167
107
107
167
107
107
167
107
107
167
107
107
167
107
107
167
107
107
167
107
107
167
107
107
167
107
107
167
107
107
167
107
107
167
107
107
167
107
107
167
107
107
167
107
107
167
107
107
167
107
107
167
107
107
167
107
107
167
107
107
167
107
107
167
107
107
167
107
107
167
107
107
167
107
107
167
107
107
167
107
107
167
107
107
167
107
107
167
107
107
167
107
107
167
107
107
167
107
107
167
107
107
167
107
107
167
107
107
167
107
107
167
107
107
167
107
107
167
107
107
167
107
107
167
107
107
167
107
107
167
107
107
167
107
107
167
107
107
167
107
107
167
107
107
167
107
107
167
107
107
167
107
107
167
107
107
167
107
107
167
107
107
167
107
107
167
107
107
167
107
107
167
107
107
167
107
107
167
107
107
255
255
255
255
255
255
0
0
0
0
0
0
0
0
0
0
0
0
0
0
0
0
0
0
67
51
27
0
0
0
0
0
0
0
0
0
0
0
0
0
0
0
0
0
0
0
0
0
0
0
0
0
0
0
0
0
0
0
0
0
0
0
0
0
0
0
0
0
0
0
0
0
75
55
27
255
235
223
255
235
223
255
235
223
255
235
223
255
235
223
255
235
223
255
127
27
67
51
27
255
127
27
255
127
27
255
127
27
255
127
27
255
127
27
255
127
27
255
127
27
167
107
107
167
107
107
167
107
107
167
107
107
167
107
107
167
107
107
167
107
107
167
107
107
167
107
107
167
107
107
167
107
107
167
107
107
167
107
107
167
107
107
167
107
107
167
107
107
167
107
107
167
107
107
167
107
107
167
107
107
167
107
107
167
107
107
167
107
107
167
107
107
167
107
107
167
107
107
167
107
107
167
107
107
167
107
107
167
107
107
167
107
107
167
107
107
167
107
107
167
107
107
167
107
107
167
107
107
167
107
107
167
107
107
167
107
107
167
107
107
167
107
107
167
107
107
167
107
107
167
107
107
167
107
107
167
107
107
167
107
107
167
107
107
167
107
107
167
107
107
167
107
107
167
107
107
167
107
107
167
107
107
167
107
107
167
107
107
167
107
107
167
107
107
167
107
107
167
107
107
167
107
107
167
107
107
167
107
107
167
107
107
67
51
27
255
255
255
0
0
0
0
0
0
0
0
0
0
0
0
0
0
0
0
0
0
167
107
107
167
107
107
167
107
107
167
107
107
167
107
107
167
107
107
167
107
107
167
107
107
167
107
107
167
107
107
167
107
107
167
107
107
167
107
107
167
107
107
167
107
107
167
107
107
167
107
107
167
107
107
167
107
107
167
107
107
167
107
107
167
107
107
167
107
107
167
107
107
167
107
107
167
107
107
167
107
107
167
107
107
167
107
107
167
107
107
167
107
107
167
107
107
167
107
107
167
107
107
167
107
107
167
107
107
167
107
107
167
107
107
167
107
107
167
107
107
167
107
107
167
107
107
167
107
107
167
107
107
167
107
107
167
107
107
167
107
107
167
107
107
167
107
107
167
107
107
167
107
107
167
107
107
167
107
107
167
107
107
167
107
107
167
107
107
167
107
107
167
107
107
167
107
107
167
107
107
167
107
107
167
107
107
167
107
107
167
107
107
67
51
27
0
0
0
0
0
0
0
0
0
0
0
0
0
0
0
0
0
0
0
0
0
167
107
107
167
107
107
167
107
107
167
107
107
167
107
107
167
107
107
167
107
107
167
107
107
167
107
107
167
107
107
167
107
107
167
107
107
167
107
107
167
107
107
167
107
107
167
107
107
167
107
107
167
107
107
167
107
107
167
107
107
167
107
107
167
107
107
167
107
107
167
107
107
167
107
107
167
107
107
167
107
107
167
107
107
167
107
107
167
107
107
167
107
107
167
107
107
167
107
107
167
107
107
167
107
107
167
107
107
167
107
107
167
107
107
167
107
107
167
107
107
167
107
107
167
107
107
167
107
107
167
107
107
167
107
107
167
107
107
167
107
107
167
107
107
167
107
107
167
107
107
167
107
107
167
107
107
167
107
107
167
107
107
167
107
107
167
107
107
167
107
107
167
107
107
167
107
107
167
107
107
167
107
107
167
107
107
167
107
107
167
107
107
67
51
27
0
0
0
0
0
0
0
0
0
0
0
0
0
0
0
0
0
0
0
0
0
167
107
107
167
107
107
167
107
107
167
107
107
167
107
107
167
107
107
167
107
107
167
107
107
167
107
107
167
107
107
167
107
107
167
107
107
167
107
107
167
107
107
167
107
107
167
107
107
167
107
107
167
107
107
167
107
107
167
107
107
167
107
107
167
107
107
167
107
107
167
107
107
167
107
107
167
107
107
167
107
107
167
107
107
167
107
107
167
107
107
167
107
107
167
107
107
167
107
107
167
107
107
167
107
107
167
107
107
167
107
107
167
107
107
167
107
107
167
107
107
167
107
107
167
107
107
167
107
107
167
107
107
167
107
107
167
107
107
167
107
107
167
107
107
167
107
107
167
107
107
167
107
107
167
107
107
167
107
107
167
107
107
167
107
107
167
107
107
167
107
107
167
107
107
167
107
107
167
107
107
167
107
107
167
107
107
167
107
107
167
107
107
255
255
255
255
255
255
0
0
0
0
0
0
0
0
0
0
0
0
0
0
0
0
0
0
67
51
27
0
0
0
0
0
0
0
0
0
0
0
0
0
0
0
0
0
0
0
0
0
0
0
0
0
0
0
0
0
0
0
0
0
0
0
0
0
0
0
0
0
0
0
0
0
75
55
27
75
55
27
75
55
27
75
55
27
67
51
27
67
51
27
67
51
27
67
51
27
67
51
27
67
51
27
67
51
27
67
51
27
67
51
27
67
51
27
67
51
27
67
51
27
167
107
107
167
107
107
167
107
107
167
107
107
167
107
107
167
107
107
167
107
107
167
107
107
167
107
107
167
107
107
167
107
107
167
107
107
167
107
107
167
107
107
167
107
107
167
107
107
167
107
107
167
107
107
167
107
107
167
107
107
167
107
107
167
107
107
167
107
107
167
107
107
167
107
107
167
107
107
167
107
107
167
107
107
167
107
107
167
107
107
167
107
107
167
107
107
167
107
107
167
107
107
167
107
107
167
107
107
167
107
107
167
107
107
167
107
107
167
107
107
167
107
107
167
107
107
167
107
107
167
107
107
167
107
107
167
107
107
167
107
107
167
107
107
167
107
107
167
107
107
167
107
107
167
107
107
167
107
107
167
107
107
167
107
107
167
107
107
167
107
107
167
107
107
167
107
107
167
107
107
167
107
107
167
107
107
167
107
107
167
107
107
67
51
27
255
255
255
67
51
27
67
51
27
67
51
27
67
51
27
67
51
27
67
51
27
167
107
107
167
107
107
167
107
107
167
107
107
167
107
107
167
107
107
167
107
107
167
107
107
167
107
107
167
107
107
167
107
107
167
107
107
167
107
107
167
107
107
167
107
107
167
107
107
167
107
107
167
107
107
167
107
107
167
107
107
167
107
107
167
107
107
167
107
107
167
107
107
167
107
107
167
107
107
167
107
107
167
107
107
167
107
107
167
107
107
167
107
107
167
107
107
167
107
107
167
107
107
167
107
107
167
107
107
167
107
107
167
107
107
167
107
107
167
107
107
167
107
107
167
107
107
167
107
107
167
107
107
167
107
107
167
107
107
167
107
107
167
107
107
167
107
107
167
107
107
167
107
107
167
107
107
167
107
107
167
107
107
167
107
107
167
107
107
167
107
107
167
107
107
167
107
107
167
107
107
167
107
107
167
107
107
167
107
107
167
107
107
67
51
27
67
51
27
67
51
27
67
51
27
67
51
27
67
51
27
67
51
27
67
51
27
167
107
107
167
107
107
167
107
107
167
107
107
167
107
107
167
107
107
167
107
107
167
107
107
167
107
107
167
107
107
167
107
107
167
107
107
167
107
107
167
107
107
167
107
107
167
107
107
167
107
107
167
107
107
167
107
107
167
107
107
167
107
107
167
107
107
167
107
107
167
107
107
167
107
107
167
107
107
167
107
107
167
107
107
167
107
107
167
107
107
167
107
107
167
107
107
167
107
107
167
107
107
167
107
107
167
107
107
167
107
107
167
107
107
167
107
107
167
107
107
167
107
107
167
107
107
167
107
107
167
107
107
167
107
107
167
107
107
167
107
107
167
107
107
167
107
107
167
107
107
167
107
107
167
107
107
167
107
107
167
107
107
167
107
107
167
107
107
167
107
107
167
107
107
167
107
107
167
107
107
167
107
107
167
107
107
167
107
107
167
107
107
67
51
27
67
51
27
67
51
27
67
51
27
67
51
27
67
51
27
67
51
27
67
51
27
167
107
107
167
107
107
167
107
107
167
107
107
167
107
107
167
107
107
167
107
107
167
107
107
167
107
107
167
107
107
167
107
107
167
107
107
167
107
107
167
107
107
167
107
107
167
107
107
167
107
107
167
107
107
167
107
107
167
107
107
167
107
107
167
107
107
167
107
107
167
107
107
167
107
107
167
107
107
167
107
107
167
107
107
167
107
107
167
107
107
167
107
107
35
35
35
39
39
39
55
55
55
39
39
39
35
35
35
167
107
107
167
107
107
167
107
107
167
107
107
167
107
107
167
107
107
167
107
107
167
107
107
167
107
107
167
107
107
167
107
107
167
107
107
167
107
107
167
107
107
167
107
107
167
107
107
167
107
107
167
107
107
167
107
107
167
107
107
167
107
107
167
107
107
167
107
107
167
107
107
167
107
107
167
107
107
167
107
107
167
107
107
67
51
27
255
255
255
255
255
255
255
255
255
255
255
255
255
255
255
67
51
27
67
51
27
67
51
27
67
51
27
67
51
27
67
51
27
67
51
27
67
51
27
67
51
27
67
51
27
0
0
0
0
0
0
0
0
0
0
0
0
0
0
0
0
0
0
0
0
0
0
0
0
75
55
27
255
127
27
255
235
223
255
235
223
255
235
223
255
235
223
255
127
27
255
127
27
67
51
27
255
127
27
255
127
27
255
127
27
255
127
27
255
127
27
255
127
27
255
127
27
167
107
107
167
107
107
167
107
107
167
107
107
167
107
107
167
107
107
167
107
107
167
107
107
167
107
107
167
107
107
167
107
107
167
107
107
167
107
107
167
107
107
167
107
107
167
107
107
167
107
107
167
107
107
167
107
107
167
107
107
167
107
107
167
107
107
167
107
107
167
107
107
167
107
107
167
107
107
167
107
107
167
107
107
167
107
107
167
107
107
167
107
107
167
107
107
167
107
107
167
107
107
167
107
107
167
107
107
167
107
107
167
107
107
167
107
107
167
107
107
167
107
107
167
107
107
167
107
107
167
107
107
167
107
107
167
107
107
167
107
107
167
107
107
167
107
107
167
107
107
167
107
107
167
107
107
167
107
107
167
107
107
167
107
107
167
107
107
167
107
107
167
107
107
167
107
107
167
107
107
167
107
107
167
107
107
167
107
107
167
107
107
67
51
27
0
0
0
0
0
0
0
0
0
0
0
0
0
0
0
0
0
0
0
0
0
167
107
107
167
107
107
167
107
107
167
107
107
167
107
107
167
107
107
167
107
107
167
107
107
167
107
107
167
107
107
167
107
107
167
107
107
167
107
107
167
107
107
167
107
107
167
107
107
167
107
107
167
107
107
167
107
107
167
107
107
167
107
107
167
107
107
167
107
107
167
107
107
167
107
107
167
107
107
167
107
107
167
107
107
167
107
107
167
107
107
167
107
107
167
107
107
167
107
107
167
107
107
167
107
107
167
107
107
167
107
107
167
107
107
167
107
107
167
107
107
167
107
107
167
107
107
167
107
107
167
107
107
167
107
107
167
107
107
167
107
107
167
107
107
167
107
107
167
107
107
167
107
107
167
107
107
167
107
107
167
107
107
167
107
107
167
107
107
167
107
107
167
107
107
167
107
107
167
107
107
167
107
107
167
107
107
167
107
107
167
107
107
67
51
27
0
0
0
0
0
0
0
0
0
0
0
0
0
0
0
0
0
0
0
0
0
167
107
107
167
107
107
167
107
107
167
107
107
167
107
107
167
107
107
167
107
107
167
107
107
167
107
107
167
107
107
167
107
107
167
107
107
167
107
107
167
107
107
167
107
107
167
107
107
167
107
107
167
107
107
167
107
107
167
107
107
167
107
107
167
107
107
167
107
107
167
107
107
167
107
107
167
107
107
167
107
107
167
107
107
167
107
107
167
107
107
167
107
107
167
107
107
167
107
107
167
107
107
167
107
107
167
107
107
167
107
107
167
107
107
167
107
107
167
107
107
167
107
107
167
107
107
167
107
107
167
107
107
167
107
107
167
107
107
167
107
107
167
107
107
167
107
107
167
107
107
167
107
107
167
107
107
167
107
107
167
107
107
167
107
107
167
107
107
167
107
107
167
107
107
167
107
107
167
107
107
167
107
107
167
107
107
167
107
107
167
107
107
67
51
27
0
0
0
255
255
255
255
255
255
0
0
0
0
0
0
0
0
0
0
0
0
167
107
107
167
107
107
167
107
107
167
107
107
167
107
107
167
107
107
167
107
107
167
107
107
167
107
107
167
107
107
167
107
107
167
107
107
167
107
107
167
107
107
167
107
107
167
107
107
167
107
107
167
107
107
167
107
107
167
107
107
167
107
107
167
107
107
167
107
107
167
107
107
167
107
107
167
107
107
167
107
107
167
107
107
167
107
107
0
0
0
27
27
27
39
39
39
55
55
55
67
67
67
55
55
55
39
39
39
27
27
27
0
0
0
167
107
107
167
107
107
167
107
107
167
107
107
167
107
107
167
107
107
167
107
107
167
107
107
167
107
107
167
107
107
167
107
107
167
107
107
167
107
107
167
107
107
167
107
107
167
107
107
167
107
107
167
107
107
167
107
107
167
107
107
167
107
107
167
107
107
167
107
107
167
107
107
167
107
107
167
107
107
67
51
27
0
0
0
0
0
0
0
0
0
0
0
0
0
0
0
0
0
0
0
0
0
67
51
27
0
0
0
0
0
0
0
0
0
0
0
0
0
0
0
0
0
0
0
0
0
0
0
0
0
0
0
0
0
0
0
0
0
0
0
0
0
0
0
0
0
0
0
0
0
75
55
27
255
255
255
255
255
255
255
127
27
255
127
27
255
235
223
255
235
223
255
127
27
67
51
27
255
127
27
255
127
27
255
127
27
255
127
27
255
127
27
255
127
27
255
127
27
167
107
107
167
107
107
167
107
107
167
107
107
167
107
107
167
107
107
167
107
107
167
107
107
167
107
107
167
107
107
167
107
107
167
107
107
167
107
107
167
107
107
167
107
107
167
107
107
167
107
107
167
107
107
167
107
107
167
107
107
167
107
107
167
107
107
167
107
107
167
107
107
167
107
107
167
107
107
167
107
107
167
107
107
167
107
107
167
107
107
167
107
107
167
107
107
167
107
107
167
107
107
167
107
107
167
107
107
167
107
107
167
107
107
167
107
107
167
107
107
167
107
107
167
107
107
167
107
107
167
107
107
167
107
107
167
107
107
167
107
107
167
107
107
167
107
107
167
107
107
167
107
107
167
107
107
167
107
107
167
107
107
167
107
107
167
107
107
167
107
107
167
107
107
167
107
107
167
107
107
167
107
107
167
107
107
167
107
107
167
107
107
67
51
27
0
0
0
0
0
0
0
0
0
0
0
0
0
0
0
0
0
0
0
0
0
167
107
107
167
107
107
167
107
107
167
107
107
167
107
107
167
107
107
167
107
107
167
107
107
167
107
107
167
107
107
167
107
107
167
107
107
167
107
107
167
107
107
167
107
107
167
107
107
167
107
107
167
107
107
167
107
107
167
107
107
167
107
107
167
107
107
167
107
107
167
107
107
167
107
107
167
107
107
167
107
107
167
107
107
167
107
107
167
107
107
167
107
107
167
107
107
167
107
107
167
107
107
167
107
107
167
107
107
167
107
107
167
107
107
167
107
107
167
107
107
167
107
107
167
107
107
167
107
107
167
107
107
167
107
107
167
107
107
167
107
107
167
107
107
167
107
107
167
107
107
167
107
107
167
107
107
167
107
107
167
107
107
167
107
107
167
107
107
167
107
107
167
107
107
167
107
107
167
107
107
167
107
107
167
107
107
167
107
107
167
107
107
67
51
27
0
0
0
0
0
0
0
0
0
0
0
0
0
0
0
0
0
0
0
0
0
167
107
107
167
107
107
167
107
107
167
107
107
167
107
107
167
107
107
167
107
107
167
107
107
167
107
107
167
107
107
167
107
107
167
107
107
167
107
107
167
107
107
167
107
107
167
107
107
167
107
107
167
107
107
167
107
107
167
107
107
167
107
107
167
107
107
167
107
107
167
107
107
167
107
107
167
107
107
167
107
107
167
107
107
167
107
107
167
107
107
167
107
107
167
107
107
167
107
107
167
107
107
167
107
107
167
107
107
167
107
107
167
107
107
167
107
107
167
107
107
167
107
107
167
107
107
167
107
107
167
107
107
167
107
107
167
107
107
167
107
107
167
107
107
167
107
107
167
107
107
167
107
107
167
107
107
167
107
107
167
107
107
167
107
107
167
107
107
167
107
107
167
107
107
167
107
107
167
107
107
167
107
107
167
107
107
167
107
107
167
107
107
67
51
27
255
255
255
255
255
255
255
255
255
255
255
255
0
0
0
0
0
0
0
0
0
167
107
107
167
107
107
167
107
107
167
107
107
167
107
107
167
107
107
167
107
107
167
107
107
167
107
107
167
107
107
167
107
107
167
107
107
167
107
107
167
107
107
167
107
107
167
107
107
167
107
107
167
107
107
167
107
107
167
107
107
167
107
107
167
107
107
167
107
107
167
107
107
167
107
107
167
107
107
167
107
107
167
107
107
0
0
0
27
27
27
39
39
39
55
55
55
67
67
67
71
71
71
67
67
67
55
55
55
39
39
39
27
27
27
0
0
0
167
107
107
167
107
107
167
107
107
167
107
107
167
107
107
167
107
107
167
107
107
167
107
107
167
107
107
167
107
107
167
107
107
167
107
107
167
107
107
167
107
107
167
107
107
167
107
107
167
107
107
167
107
107
167
107
107
167
107
107
167
107
107
167
107
107
167
107
107
167
107
107
167
107
107
67
51
27
0
0
0
0
0
0
0
0
0
0
0
0
0
0
0
0
0
0
0
0
0
67
51
27
0
0
0
0
0
0
0
0
0
0
0
0
0
0
0
0
0
0
0
0
0
0
0
0
0
0
0
0
0
0
0
0
0
0
0
0
0
0
0
0
0
0
0
0
0
75
55
27
255
127
27
255
127
27
255
127
27
255
127
27
255
235
223
255
235
223
255
127
27
67
51
27
255
127
27
255
127
27
255
127
27
255
127
27
255
127
27
255
127
27
255
127
27
167
107
107
167
107
107
167
107
107
167
107
107
167
107
107
167
107
107
167
107
107
167
107
107
167
107
107
167
107
107
167
107
107
167
107
107
167
107
107
167
107
107
167
107
107
167
107
107
167
107
107
167
107
107
167
107
107
167
107
107
167
107
107
167
107
107
167
107
107
167
107
107
167
107
107
167
107
107
167
107
107
167
107
107
167
107
107
167
107
107
167
107
107
167
107
107
167
107
107
167
107
107
167
107
107
167
107
107
167
107
107
167
107
107
167
107
107
167
107
107
167
107
107
167
107
107
167
107
107
167
107
107
167
107
107
167
107
107
167
107
107
167
107
107
167
107
107
167
107
107
167
107
107
167
107
107
167
107
107
167
107
107
167
107
107
167
107
107
167
107
107
167
107
107
167
107
107
167
107
107
167
107
107
167
107
107
167
107
107
167
107
107
67
51
27
255
255
255
255
255
255
255
255
255
255
255
255
0
0
0
0
0
0
0
0
0
167
107
107
167
107
107
167
107
107
167
107
107
167
107
107
167
107
107
167
107
107
167
107
107
167
107
107
167
107
107
167
107
107
167
107
107
167
107
107
167
107
107
167
107
107
167
107
107
167
107
107
167
107
107
167
107
107
167
107
107
167
107
107
167
107
107
167
107
107
167
107
107
255
0
0
255
0
0
167
107
107
167
107
107
167
107
107
255
0
0
255
0
0
167
107
107
167
107
107
255
0
0
255
0
0
255
0
0
255
0
0
255
0
0
167
107
107
167
107
107
167
107
107
167
107
107
167
107
107
167
107
107
167
107
107
167
107
107
167
107
107
167
107
107
167
107
107
167
107
107
167
107
107
167
107
107
167
107
107
167
107
107
167
107
107
167
107
107
167
107
107
167
107
107
167
107
107
167
107
107
167
107
107
167
107
107
167
107
107
167
107
107
67
51
27
0
0
0
0
0
0
0
0
0
0
0
0
0
0
0
0
0
0
0
0
0
167
107
107
167
107
107
167
107
107
167
107
107
167
107
107
167
107
107
167
107
107
167
107
107
167
107
107
167
107
107
167
107
107
167
107
107
167
107
107
167
107
107
167
107
107
167
107
107
167
107
107
167
107
107
167
107
107
167
107
107
167
107
107
167
107
107
167
107
107
167
107
107
167
107
107
167
107
107
167
107
107
167
107
107
167
107
107
167
107
107
167
107
107
167
107
107
167
107
107
167
107
107
167
107
107
167
107
107
167
107
107
167
107
107
167
107
107
167
107
107
167
107
107
167
107
107
167
107
107
167
107
107
167
107
107
167
107
107
167
107
107
167
107
107
167
107
107
167
107
107
167
107
107
167
107
107
167
107
107
167
107
107
167
107
107
167
107
107
167
107
107
167
107
107
167
107
107
167
107
107
167
107
107
167
107
107
167
107
107
167
107
107
255
255
255
255
255
255
0
0
0
0
0
0
255
255
255
255
255
255
0
0
0
0
0
0
167
107
107
167
107
107
167
107
107
167
107
107
167
107
107
167
107
107
167
107
107
167
107
107
167
107
107
167
107
107
167
107
107
167
107
107
167
107
107
167
107
107
167
107
107
167
107
107
167
107
107
167
107
107
167
107
107
167
107
107
167
107
107
167
107
107
167
107
107
167
107
107
167
107
107
167
107
107
167
107
107
167
107
107
215
187
67
235
219
87
255
255
115
255
255
143
255
255
179
255
255
215
255
255
179
255
255
143
255
255
115
235
219
87
215
187
67
167
107
107
167
107
107
167
107
107
167
107
107
167
107
107
167
107
107
167
107
107
167
107
107
167
107
107
167
107
107
167
107
107
167
107
107
167
107
107
167
107
107
167
107
107
167
107
107
167
107
107
167
107
107
167
107
107
167
107
107
167
107
107
167
107
107
167
107
107
167
107
107
167
107
107
67
51
27
255
255
255
255
255
255
255
255
255
255
255
255
0
0
0
0
0
0
0
0
0
67
51
27
0
0
0
0
0
0
0
0
0
0
0
0
0
0
0
0
0
0
0
0
0
0
0
0
0
0
0
0
0
0
0
0
0
0
0
0
0
0
0
0
0
0
0
0
0
75
55
27
255
127
27
255
235
223
255
235
223
255
235
223
255
235
223
255
127
27
255
127
27
67
51
27
255
127
27
255
127
27
255
127
27
255
127
27
255
127
27
255
127
27
255
127
27
167
107
107
167
107
107
167
107
107
167
107
107
167
107
107
167
107
107
167
107
107
167
107
107
167
107
107
167
107
107
167
107
107
167
107
107
167
107
107
167
107
107
167
107
107
167
107
107
167
107
107
167
107
107
167
107
107
167
107
107
167
107
107
167
107
107
167
107
107
167
107
107
167
107
107
167
107
107
167
107
107
167
107
107
167
107
107
167
107
107
167
107
107
167
107
107
167
107
107
167
107
107
167
107
107
167
107
107
167
107
107
167
107
107
167
107
107
167
107
107
167
107
107
167
107
107
167
107
107
167
107
107
167
107
107
167
107
107
167
107
107
167
107
107
167
107
107
167
107
107
167
107
107
167
107
107
167
107
107
167
107
107
167
107
107
167
107
107
167
107
107
167
107
107
167
107
107
167
107
107
167
107
107
167
107
107
167
107
107
167
107
107
67
51
27
255
255
255
0
0
0
0
0
0
255
255
255
255
255
255
0
0
0
0
0
0
167
107
107
167
107
107
167
107
107
167
107
107
167
107
107
167
107
107
167
107
107
167
107
107
167
107
107
167
107
107
167
107
107
167
107
107
167
107
107
167
107
107
167
107
107
167
107
107
167
107
107
167
107
107
167
107
107
167
107
107
167
107
107
167
107
107
167
107
107
167
107
107
255
0
0
255
0
0
255
0
0
167
107
107
167
107
107
255
0
0
255
0
0
167
107
107
255
0
0
255
0
0
167
107
107
167
107
107
167
107
107
167
107
107
167
107
107
167
107
107
167
107
107
167
107
107
167
107
107
167
107
107
167
107
107
167
107
107
167
107
107
167
107
107
167
107
107
167
107
107
167
107
107
167
107
107
167
107
107
167
107
107
167
107
107
167
107
107
167
107
107
167
107
107
167
107
107
167
107
107
167
107
107
167
107
107
167
107
107
167
107
107
67
51
27
0
0
0
0
0
0
0
0
0
0
0
0
0
0
0
0
0
0
0
0
0
167
107
107
167
107
107
167
107
107
167
107
107
167
107
107
167
107
107
167
107
107
167
107
107
167
107
107
167
107
107
167
107
107
167
107
107
167
107
107
167
107
107
167
107
107
167
107
107
167
107
107
167
107
107
167
107
107
167
107
107
167
107
107
167
107
107
167
107
107
167
107
107
167
107
107
167
107
107
167
107
107
167
107
107
167
107
107
167
107
107
167
107
107
167
107
107
167
107
107
167
107
107
167
107
107
167
107
107
167
107
107
167
107
107
167
107
107
167
107
107
167
107
107
167
107
107
167
107
107
167
107
107
167
107
107
167
107
107
167
107
107
167
107
107
167
107
107
167
107
107
167
107
107
167
107
107
167
107
107
167
107
107
167
107
107
167
107
107
167
107
107
167
107
107
167
107
107
167
107
107
167
107
107
167
107
107
167
107
107
167
107
107
255
255
255
255
255
255
0
0
0
0
0
0
255
255
255
255
255
255
0
0
0
0
0
0
167
107
107
167
107
107
167
107
107
167
107
107
167
107
107
167
107
107
167
107
107
167
107
107
167
107
107
167
107
107
167
107
107
167
107
107
167
107
107
167
107
107
167
107
107
167
107
107
167
107
107
167
107
107
167
107
107
167
107
107
167
107
107
167
107
107
167
107
107
167
107
107
167
107
107
167
107
107
167
107
107
167
107
107
215
187
67
235
219
87
255
255
115
255
255
143
255
255
215
255
255
255
255
255
215
255
255
143
255
255
115
235
219
87
215
187
67
167
107
107
167
107
107
167
107
107
167
107
107
167
107
107
167
107
107
167
107
107
167
107
107
167
107
107
167
107
107
167
107
107
167
107
107
167
107
107
167
107
107
167
107
107
167
107
107
167
107
107
167
107
107
167
107
107
167
107
107
167
107
107
167
107
107
167
107
107
167
107
107
167
107
107
255
255
255
255
255
255
0
0
0
0
0
0
255
255
255
255
255
255
0
0
0
0
0
0
67
51
27
0
0
0
0
0
0
0
0
0
0
0
0
0
0
0
0
0
0
0
0
0
0
0
0
0
0
0
0
0
0
0
0
0
0
0
0
0
0
0
0
0
0
0
0
0
75
55
27
255
127
27
255
127
27
255
127
27
255
127
27
255
235
223
255
235
223
255
127
27
67
51
27
255
127
27
255
127
27
255
127
27
255
127
27
255
127
27
255
127
27
255
127
27
167
107
107
167
107
107
167
107
107
167
107
107
167
107
107
167
107
107
167
107
107
167
107
107
167
107
107
167
107
107
167
107
107
167
107
107
167
107
107
167
107
107
167
107
107
167
107
107
167
107
107
167
107
107
167
107
107
167
107
107
167
107
107
167
107
107
167
107
107
167
107
107
167
107
107
167
107
107
167
107
107
167
107
107
167
107
107
167
107
107
167
107
107
167
107
107
167
107
107
167
107
107
167
107
107
167
107
107
167
107
107
167
107
107
167
107
107
167
107
107
167
107
107
167
107
107
167
107
107
167
107
107
167
107
107
167
107
107
167
107
107
167
107
107
167
107
107
167
107
107
167
107
107
167
107
107
167
107
107
167
107
107
167
107
107
167
107
107
167
107
107
167
107
107
167
107
107
167
107
107
167
107
107
167
107
107
167
107
107
167
107
107
67
51
27
255
255
255
0
0
0
0
0
0
255
255
255
255
255
255
0
0
0
0
0
0
167
107
107
167
107
107
167
107
107
167
107
107
167
107
107
167
107
107
167
107
107
167
107
107
167
107
107
167
107
107
167
107
107
167
107
107
167
107
107
167
107
107
167
107
107
167
107
107
167
107
107
167
107
107
167
107
107
167
107
107
167
107
107
167
107
107
167
107
107
167
107
107
255
0
0
255
0
0
255
0
0
255
0
0
167
107
107
255
0
0
255
0
0
167
107
107
255
0
0
255
0
0
167
107
107
167
107
107
167
107
107
167
107
107
167
107
107
167
107
107
167
107
107
167
107
107
167
107
107
167
107
107
167
107
107
167
107
107
167
107
107
167
107
107
167
107
107
167
107
107
167
107
107
167
107
107
167
107
107
167
107
107
167
107
107
167
107
107
167
107
107
167
107
107
167
107
107
167
107
107
167
107
107
167
107
107
167
107
107
167
107
107
67
51
27
0
0
0
0
0
0
0
0
0
0
0
0
0
0
0
0
0
0
0
0
0
167
107
107
167
107
107
167
107
107
167
107
107
167
107
107
167
107
107
167
107
107
167
107
107
167
107
107
167
107
107
167
107
107
167
107
107
167
107
107
167
107
107
167
107
107
167
107
107
167
107
107
167
107
107
167
107
107
167
107
107
167
107
107
167
107
107
167
107
107
167
107
107
167
107
107
167
107
107
167
107
107
167
107
107
167
107
107
167
107
107
167
107
107
167
107
107
167
107
107
167
107
107
167
107
107
167
107
107
167
107
107
167
107
107
167
107
107
167
107
107
167
107
107
167
107
107
167
107
107
167
107
107
167
107
107
167
107
107
167
107
107
167
107
107
167
107
107
167
107
107
167
107
107
167
107
107
167
107
107
167
107
107
167
107
107
167
107
107
167
107
107
167
107
107
167
107
107
167
107
107
167
107
107
167
107
107
167
107
107
167
107
107
255
255
255
255
255
255
255
255
255
255
255
255
255
255
255
255
255
255
0
0
0
0
0
0
167
107
107
167
107
107
167
107
107
167
107
107
167
107
107
167
107
107
167
107
107
167
107
107
167
107
107
167
107
107
167
107
107
167
107
107
167
107
107
167
107
107
167
107
107
167
107
107
167
107
107
167
107
107
167
107
107
167
107
107
167
107
107
167
107
107
167
107
107
167
107
107
167
107
107
167
107
107
167
107
107
167
107
107
215
187
67
235
219
87
255
255
115
255
255
143
255
255
215
255
255
255
255
255
215
255
255
143
255
255
115
235
219
87
215
187
67
167
107
107
167
107
107
167
107
107
167
107
107
167
107
107
167
107
107
167
107
107
167
107
107
167
107
107
167
107
107
167
107
107
167
107
107
167
107
107
167
107
107
167
107
107
167
107
107
167
107
107
167
107
107
167
107
107
167
107
107
167
107
107
167
107
107
167
107
107
167
107
107
167
107
107
255
255
255
255
255
255
0
0
0
0
0
0
255
255
255
255
255
255
0
0
0
0
0
0
67
51
27
0
0
0
0
0
0
0
0
0
0
0
0
0
0
0
0
0
0
0
0
0
0
0
0
0
0
0
0
0
0
0
0
0
0
0
0
0
0
0
0
0
0
0
0
0
75
55
27
255
255
255
255
255
255
255
127
27
255
127
27
255
235
223
255
235
223
255
127
27
67
51
27
255
127
27
255
127
27
255
127
27
255
127
27
255
127
27
255
127
27
255
127
27
167
107
107
167
107
107
167
107
107
167
107
107
167
107
107
167
107
107
167
107
107
167
107
107
167
107
107
167
107
107
167
107
107
167
107
107
167
107
107
167
107
107
167
107
107
167
107
107
167
107
107
167
107
107
167
107
107
167
107
107
167
107
107
167
107
107
167
107
107
167
107
107
167
107
107
167
107
107
167
107
107
167
107
107
167
107
107
167
107
107
167
107
107
167
107
107
167
107
107
167
107
107
167
107
107
167
107
107
167
107
107
167
107
107
167
107
107
167
107
107
167
107
107
167
107
107
167
107
107
167
107
107
167
107
107
167
107
107
167
107
107
167
107
107
167
107
107
167
107
107
167
107
107
167
107
107
167
107
107
167
107
107
167
107
107
167
107
107
167
107
107
167
107
107
167
107
107
167
107
107
167
107
107
167
107
107
167
107
107
167
107
107
67
51
27
255
255
255
0
0
0
0
0
0
255
255
255
255
255
255
0
0
0
0
0
0
167
107
107
167
107
107
167
107
107
167
107
107
167
107
107
167
107
107
167
107
107
167
107
107
167
107
107
167
107
107
167
107
107
167
107
107
167
107
107
167
107
107
167
107
107
167
107
107
167
107
107
167
107
107
167
107
107
167
107
107
167
107
107
167
107
107
167
107
107
167
107
107
255
0
0
255
0
0
167
107
107
255
0
0
255
0
0
255
0
0
255
0
0
167
107
107
255
0
0
255
0
0
167
107
107
167
107
107
167
107
107
167
107
107
167
107
107
167
107
107
167
107
107
167
107
107
167
107
107
167
107
107
167
107
107
167
107
107
167
107
107
167
107
107
167
107
107
167
107
107
167
107
107
167
107
107
167
107
107
167
107
107
167
107
107
167
107
107
167
107
107
167
107
107
167
107
107
167
107
107
167
107
107
167
107
107
167
107
107
167
107
107
67
51
27
0
0
0
0
0
0
0
0
0
0
0
0
0
0
0
0
0
0
0
0
0
167
107
107
167
107
107
167
107
107
167
107
107
167
107
107
167
107
107
167
107
107
167
107
107
167
107
107
167
107
107
167
107
107
167
107
107
167
107
107
167
107
107
167
107
107
167
107
107
167
107
107
167
107
107
167
107
107
167
107
107
167
107
107
167
107
107
167
107
107
167
107
107
167
107
107
167
107
107
167
107
107
167
107
107
167
107
107
167
107
107
167
107
107
167
107
107
167
107
107
167
107
107
167
107
107
167
107
107
167
107
107
167
107
107
167
107
107
167
107
107
167
107
107
167
107
107
167
107
107
167
107
107
167
107
107
167
107
107
167
107
107
167
107
107
167
107
107
167
107
107
167
107
107
167
107
107
167
107
107
167
107
107
167
107
107
167
107
107
167
107
107
167
107
107
167
107
107
167
107
107
167
107
107
167
107
107
167
107
107
167
107
107
255
255
255
255
255
255
0
0
0
0
0
0
255
255
255
255
255
255
0
0
0
0
0
0
167
107
107
167
107
107
167
107
107
167
107
107
167
107
107
167
107
107
167
107
107
167
107
107
167
107
107
167
107
107
167
107
107
167
107
107
167
107
107
167
107
107
167
107
107
167
107
107
167
107
107
167
107
107
167
107
107
167
107
107
167
107
107
167
107
107
167
107
107
167
107
107
167
107
107
167
107
107
167
107
107
167
107
107
215
187
67
235
219
87
255
255
115
255
255
107
255
255
179
255
255
215
255
255
179
255
255
107
255
255
115
235
219
87
215
187
67
167
107
107
167
107
107
167
107
107
167
107
107
167
107
107
167
107
107
167
107
107
167
107
107
167
107
107
167
107
107
167
107
107
167
107
107
167
107
107
167
107
107
167
107
107
167
107
107
167
107
107
167
107
107
167
107
107
167
107
107
167
107
107
167
107
107
167
107
107
167
107
107
167
107
107
255
255
255
255
255
255
0
0
0
0
0
0
255
255
255
255
255
255
0
0
0
0
0
0
67
51
27
0
0
0
0
0
0
0
0
0
0
0
0
0
0
0
0
0
0
0
0
0
0
0
0
0
0
0
0
0
0
0
0
0
0
0
0
0
0
0
0
0
0
0
0
0
75
55
27
255
127
27
255
235
223
255
235
223
255
235
223
255
235
223
255
127
27
255
127
27
67
51
27
255
127
27
255
127
27
255
127
27
255
127
27
255
127
27
255
127
27
255
127
27
167
107
107
167
107
107
167
107
107
167
107
107
167
107
107
167
107
107
167
107
107
167
107
107
167
107
107
167
107
107
167
107
107
167
107
107
167
107
107
167
107
107
167
107
107
167
107
107
167
107
107
167
107
107
167
107
107
167
107
107
167
107
107
167
107
107
167
107
107
167
107
107
167
107
107
167
107
107
167
107
107
167
107
107
167
107
107
167
107
107
167
107
107
167
107
107
167
107
107
167
107
107
167
107
107
167
107
107
167
107
107
167
107
107
167
107
107
167
107
107
167
107
107
167
107
107
167
107
107
167
107
107
167
107
107
167
107
107
167
107
107
167
107
107
167
107
107
167
107
107
167
107
107
167
107
107
167
107
107
167
107
107
167
107
107
167
107
107
167
107
107
167
107
107
167
107
107
167
107
107
167
107
107
167
107
107
167
107
107
167
107
107
67
51
27
255
255
255
0
0
0
0
0
0
255
255
255
255
255
255
0
0
0
0
0
0
167
107
107
167
107
107
167
107
107
167
107
107
167
107
107
167
107
107
167
107
107
167
107
107
167
107
107
167
107
107
167
107
107
167
107
107
167
107
107
167
107
107
167
107
107
167
107
107
167
107
107
167
107
107
167
107
107
167
107
107
167
107
107
167
107
107
167
107
107
167
107
107
255
0
0
255
0
0
167
107
107
167
107
107
255
0
0
255
0
0
255
0
0
167
107
107
255
0
0
255
0
0
167
107
107
255
0
0
255
0
0
255
0
0
167
107
107
167
107
107
167
107
107
167
107
107
167
107
107
167
107
107
167
107
107
167
107
107
167
107
107
167
107
107
167
107
107
167
107
107
167
107
107
167
107
107
167
107
107
167
107
107
167
107
107
167
107
107
167
107
107
167
107
107
167
107
107
167
107
107
167
107
107
167
107
107
167
107
107
167
107
107
67
51
27
0
0
0
0
0
0
0
0
0
0
0
0
0
0
0
0
0
0
0
0
0
167
107
107
167
107
107
167
107
107
167
107
107
167
107
107
167
107
107
167
107
107
167
107
107
167
107
107
167
107
107
167
107
107
167
107
107
167
107
107
167
107
107
167
107
107
167
107
107
167
107
107
167
107
107
167
107
107
167
107
107
167
107
107
167
107
107
167
107
107
167
107
107
167
107
107
167
107
107
167
107
107
167
107
107
167
107
107
167
107
107
167
107
107
167
107
107
167
107
107
167
107
107
167
107
107
167
107
107
167
107
107
167
107
107
167
107
107
167
107
107
167
107
107
167
107
107
167
107
107
167
107
107
167
107
107
167
107
107
167
107
107
167
107
107
167
107
107
167
107
107
167
107
107
167
107
107
167
107
107
167
107
107
167
107
107
167
107
107
167
107
107
167
107
107
167
107
107
167
107
107
167
107
107
167
107
107
167
107
107
167
107
107
255
255
255
255
255
255
0
0
0
0
0
0
255
255
255
255
255
255
0
0
0
0
0
0
167
107
107
167
107
107
167
107
107
167
107
107
167
107
107
167
107
107
167
107
107
167
107
107
167
107
107
167
107
107
167
107
107
167
107
107
167
107
107
167
107
107
167
107
107
167
107
107
167
107
107
167
107
107
167
107
107
167
107
107
167
107
107
167
107
107
167
107
107
167
107
107
167
107
107
167
107
107
167
107
107
167
107
107
59
59
59
63
71
43
59
59
59
91
91
91
99
99
99
91
91
91
71
71
71
55
55
55
59
59
59
59
59
59
63
71
43
167
107
107
167
107
107
167
107
107
167
107
107
167
107
107
167
107
107
167
107
107
167
107
107
167
107
107
167
107
107
167
107
107
167
107
107
167
107
107
167
107
107
167
107
107
167
107
107
167
107
107
167
107
107
167
107
107
167
107
107
167
107
107
167
107
107
167
107
107
167
107
107
167
107
107
255
255
255
255
255
255
0
0
0
0
0
0
255
255
255
255
255
255
0
0
0
0
0
0
67
51
27
0
0
0
0
0
0
0
0
0
0
0
0
0
0
0
0
0
0
0
0
0
0
0
0
0
0
0
0
0
0
0
0
0
0
0
0
0
0
0
0
0
0
0
0
0
75
55
27
75
55
27
75
55
27
75
55
27
67
51
27
67
51
27
67
51
27
67
51
27
67
51
27
67
51
27
67
51
27
67
51
27
67
51
27
67
51
27
67
51
27
67
51
27
167
107
107
167
107
107
167
107
107
167
107
107
167
107
107
167
107
107
167
107
107
167
107
107
167
107
107
167
107
107
167
107
107
167
107
107
167
107
107
167
107
107
167
107
107
167
107
107
167
107
107
167
107
107
167
107
107
167
107
107
167
107
107
167
107
107
167
107
107
167
107
107
167
107
107
167
107
107
167
107
107
167
107
107
167
107
107
167
107
107
167
107
107
167
107
107
167
107
107
167
107
107
167
107
107
167
107
107
167
107
107
167
107
107
167
107
107
167
107
107
167
107
107
167
107
107
167
107
107
167
107
107
167
107
107
167
107
107
167
107
107
167
107
107
167
107
107
167
107
107
167
107
107
167
107
107
167
107
107
167
107
107
167
107
107
167
107
107
167
107
107
167
107
107
167
107
107
167
107
107
167
107
107
167
107
107
167
107
107
167
107
107
67
51
27
255
255
255
67
51
27
67
51
27
255
255
255
255
255
255
67
51
27
67
51
27
167
107
107
167
107
107
167
107
107
167
107
107
167
107
107
167
107
107
167
107
107
167
107
107
167
107
107
167
107
107
167
107
107
167
107
107
167
107
107
167
107
107
167
107
107
167
107
107
167
107
107
167
107
107
167
107
107
167
107
107
167
107
107
167
107
107
167
107
107
167
107
107
255
0
0
255
0
0
167
107
107
167
107
107
167
107
107
255
0
0
255
0
0
167
107
107
255
0
0
255
0
0
167
107
107
167
107
107
255
0
0
255
0
0
167
107
107
167
107
107
167
107
107
167
107
107
167
107
107
167
107
107
167
107
107
167
107
107
167
107
107
167
107
107
167
107
107
167
107
107
167
107
107
167
107
107
167
107
107
167
107
107
167
107
107
167
107
107
167
107
107
167
107
107
167
107
107
167
107
107
167
107
107
167
107
107
167
107
107
167
107
107
67
51
27
67
51
27
67
51
27
67
51
27
67
51
27
67
51
27
67
51
27
67
51
27
167
107
107
167
107
107
167
107
107
167
107
107
167
107
107
167
107
107
167
107
107
167
107
107
167
107
107
167
107
107
167
107
107
167
107
107
167
107
107
167
107
107
167
107
107
167
107
107
167
107
107
167
107
107
167
107
107
167
107
107
167
107
107
167
107
107
167
107
107
167
107
107
167
107
107
167
107
107
167
107
107
167
107
107
167
107
107
167
107
107
167
107
107
167
107
107
167
107
107
167
107
107
167
107
107
167
107
107
167
107
107
167
107
107
167
107
107
167
107
107
167
107
107
167
107
107
167
107
107
167
107
107
167
107
107
167
107
107
167
107
107
167
107
107
167
107
107
167
107
107
167
107
107
167
107
107
167
107
107
167
107
107
167
107
107
167
107
107
167
107
107
167
107
107
167
107
107
167
107
107
167
107
107
167
107
107
167
107
107
167
107
107
67
51
27
67
51
27
67
51
27
67
51
27
67
51
27
67
51
27
67
51
27
67
51
27
167
107
107
167
107
107
167
107
107
167
107
107
167
107
107
167
107
107
167
107
107
167
107
107
167
107
107
167
107
107
167
107
107
167
107
107
167
107
107
167
107
107
167
107
107
167
107
107
167
107
107
167
107
107
167
107
107
167
107
107
167
107
107
167
107
107
167
107
107
167
107
107
167
107
107
167
107
107
167
107
107
167
107
107
47
47
47
39
39
39
35
35
35
67
67
67
75
75
75
67
67
67
35
35
35
19
19
19
19
19
19
31
23
11
47
47
47
167
107
107
167
107
107
167
107
107
167
107
107
167
107
107
167
107
107
167
107
107
167
107
107
167
107
107
167
107
107
167
107
107
167
107
107
167
107
107
167
107
107
167
107
107
167
107
107
167
107
107
167
107
107
167
107
107
167
107
107
167
107
107
167
107
107
167
107
107
167
107
107
167
107
107
255
255
255
255
255
255
67
51
27
67
51
27
255
255
255
255
255
255
67
51
27
67
51
27
67
51
27
67
51
27
67
51
27
67
51
27
67
51
27
67
51
27
67
51
27
67
51
27
0
0
0
0
0
0
0
0
0
0
0
0
0
0
0
0
0
0
0
0
0
0
0
0
75
55
27
255
127
27
255
127
27
255
127
27
255
235
223
255
235
223
255
235
223
255
127
27
67
51
27
255
127
27
255
127
27
255
127
27
255
127
27
255
127
27
255
127
27
255
127
27
167
107
107
167
107
107
167
107
107
167
107
107
167
107
107
167
107
107
167
107
107
167
107
107
167
107
107
167
107
107
167
107
107
167
107
107
167
107
107
167
107
107
167
107
107
167
107
107
167
107
107
167
107
107
167
107
107
167
107
107
167
107
107
167
107
107
167
107
107
167
107
107
167
107
107
167
107
107
167
107
107
167
107
107
167
107
107
167
107
107
167
107
107
167
107
107
167
107
107
167
107
107
167
107
107
167
107
107
167
107
107
167
107
107
167
107
107
167
107
107
167
107
107
167
107
107
167
107
107
167
107
107
167
107
107
167
107
107
167
107
107
167
107
107
167
107
107
167
107
107
167
107
107
167
107
107
167
107
107
167
107
107
167
107
107
167
107
107
167
107
107
167
107
107
167
107
107
167
107
107
167
107
107
167
107
107
167
107
107
167
107
107
67
51
27
255
255
255
255
255
255
255
255
255
255
255
255
0
0
0
0
0
0
0
0
0
167
107
107
167
107
107
167
107
107
167
107
107
167
107
107
167
107
107
167
107
107
167
107
107
167
107
107
167
107
107
167
107
107
167
107
107
167
107
107
167
107
107
167
107
107
167
107
107
167
107
107
167
107
107
167
107
107
167
107
107
167
107
107
167
107
107
167
107
107
167
107
107
255
0
0
255
0
0
167
107
107
167
107
107
167
107
107
255
0
0
255
0
0
167
107
107
167
107
107
255
0
0
255
0
0
255
0
0
255
0
0
255
0
0
167
107
107
167
107
107
167
107
107
167
107
107
167
107
107
167
107
107
167
107
107
167
107
107
167
107
107
167
107
107
167
107
107
167
107
107
167
107
107
167
107
107
167
107
107
167
107
107
167
107
107
167
107
107
167
107
107
167
107
107
167
107
107
167
107
107
167
107
107
167
107
107
167
107
107
167
107
107
67
51
27
0
0
0
0
0
0
0
0
0
0
0
0
0
0
0
0
0
0
0
0
0
167
107
107
167
107
107
167
107
107
167
107
107
167
107
107
167
107
107
167
107
107
167
107
107
167
107
107
167
107
107
167
107
107
167
107
107
167
107
107
167
107
107
167
107
107
167
107
107
167
107
107
167
107
107
167
107
107
167
107
107
167
107
107
167
107
107
167
107
107
167
107
107
167
107
107
167
107
107
167
107
107
167
107
107
167
107
107
167
107
107
167
107
107
167
107
107
167
107
107
167
107
107
167
107
107
167
107
107
167
107
107
167
107
107
167
107
107
167
107
107
167
107
107
167
107
107
167
107
107
167
107
107
167
107
107
167
107
107
167
107
107
167
107
107
167
107
107
167
107
107
167
107
107
167
107
107
167
107
107
167
107
107
167
107
107
167
107
107
167
107
107
167
107
107
167
107
107
167
107
107
167
107
107
167
107
107
167
107
107
167
107
107
67
51
27
0
0
0
0
0
0
0
0
0
0
0
0
0
0
0
0
0
0
0
0
0
167
107
107
167
107
107
167
107
107
167
107
107
167
107
107
167
107
107
167
107
107
167
107
107
167
107
107
167
107
107
167
107
107
167
107
107
167
107
107
167
107
107
167
107
107
167
107
107
167
107
107
167
107
107
167
107
107
167
107
107
167
107
107
167
107
107
167
107
107
167
107
107
167
107
107
167
107
107
167
107
107
167
107
107
47
47
47
47
47
47
35
35
35
55
55
55
75
75
75
67
67
67
35
35
35
19
19
19
19
19
19
31
23
11
47
47
47
167
107
107
167
107
107
167
107
107
167
107
107
167
107
107
167
107
107
167
107
107
167
107
107
167
107
107
167
107
107
167
107
107
167
107
107
167
107
107
167
107
107
167
107
107
167
107
107
167
107
107
167
107
107
167
107
107
167
107
107
167
107
107
167
107
107
167
107
107
167
107
107
167
107
107
67
51
27
255
255
255
255
255
255
255
255
255
255
255
255
0
0
0
0
0
0
0
0
0
67
51
27
0
0
0
0
0
0
0
0
0
0
0
0
0
0
0
0
0
0
0
0
0
0
0
0
0
0
0
0
0
0
0
0
0
0
0
0
0
0
0
0
0
0
0
0
0
75
55
27
255
127
27
255
127
27
255
235
223
255
235
223
255
235
223
255
235
223
255
127
27
67
51
27
255
127
27
255
127
27
255
127
27
255
127
27
255
127
27
255
127
27
255
127
27
167
107
107
167
107
107
167
107
107
167
107
107
167
107
107
167
107
107
167
107
107
167
107
107
167
107
107
167
107
107
167
107
107
167
107
107
167
107
107
167
107
107
167
107
107
167
107
107
167
107
107
167
107
107
167
107
107
167
107
107
167
107
107
167
107
107
167
107
107
167
107
107
167
107
107
167
107
107
167
107
107
167
107
107
167
107
107
167
107
107
167
107
107
167
107
107
167
107
107
167
107
107
167
107
107
167
107
107
167
107
107
167
107
107
167
107
107
167
107
107
167
107
107
167
107
107
167
107
107
167
107
107
167
107
107
167
107
107
167
107
107
167
107
107
167
107
107
167
107
107
167
107
107
167
107
107
167
107
107
167
107
107
167
107
107
167
107
107
167
107
107
167
107
107
167
107
107
167
107
107
167
107
107
167
107
107
167
107
107
167
107
107
67
51
27
0
0
0
0
0
0
0
0
0
0
0
0
0
0
0
0
0
0
0
0
0
167
107
107
167
107
107
167
107
107
167
107
107
167
107
107
167
107
107
167
107
107
167
107
107
167
107
107
167
107
107
167
107
107
167
107
107
167
107
107
167
107
107
167
107
107
167
107
107
167
107
107
167
107
107
167
107
107
167
107
107
167
107
107
167
107
107
167
107
107
167
107
107
167
107
107
167
107
107
167
107
107
167
107
107
167
107
107
167
107
107
167
107
107
167
107
107
167
107
107
167
107
107
167
107
107
167
107
107
167
107
107
167
107
107
167
107
107
167
107
107
167
107
107
167
107
107
167
107
107
167
107
107
167
107
107
167
107
107
167
107
107
167
107
107
167
107
107
167
107
107
167
107
107
167
107
107
167
107
107
167
107
107
167
107
107
167
107
107
167
107
107
167
107
107
167
107
107
167
107
107
167
107
107
167
107
107
167
107
107
167
107
107
67
51
27
0
0
0
0
0
0
0
0
0
0
0
0
0
0
0
0
0
0
0
0
0
167
107
107
167
107
107
167
107
107
167
107
107
167
107
107
167
107
107
167
107
107
167
107
107
167
107
107
167
107
107
167
107
107
167
107
107
167
107
107
167
107
107
167
107
107
167
107
107
167
107
107
167
107
107
167
107
107
167
107
107
167
107
107
167
107
107
167
107
107
167
107
107
167
107
107
167
107
107
167
107
107
167
107
107
167
107
107
167
107
107
167
107
107
167
107
107
167
107
107
167
107
107
167
107
107
167
107
107
167
107
107
167
107
107
167
107
107
167
107
107
167
107
107
167
107
107
167
107
107
167
107
107
167
107
107
167
107
107
167
107
107
167
107
107
167
107
107
167
107
107
167
107
107
167
107
107
167
107
107
167
107
107
167
107
107
167
107
107
167
107
107
167
107
107
167
107
107
167
107
107
167
107
107
167
107
107
167
107
107
167
107
107
255
255
255
255
255
255
255
255
255
255
255
255
255
255
255
0
0
0
0
0
0
0
0
0
167
107
107
167
107
107
167
107
107
167
107
107
167
107
107
167
107
107
167
107
107
167
107
107
167
107
107
167
107
107
167
107
107
167
107
107
167
107
107
167
107
107
167
107
107
167
107
107
167
107
107
167
107
107
167
107
107
167
107
107
167
107
107
167
107
107
167
107
107
167
107
107
167
107
107
167
107
107
167
107
107
167
107
107
47
47
47
19
35
11
19
19
19
67
67
67
75
75
75
67
67
67
35
35
35
7
7
7
19
19
19
19
19
19
47
47
47
167
107
107
167
107
107
167
107
107
167
107
107
167
107
107
167
107
107
167
107
107
167
107
107
167
107
107
167
107
107
167
107
107
167
107
107
167
107
107
167
107
107
167
107
107
167
107
107
167
107
107
167
107
107
167
107
107
167
107
107
167
107
107
167
107
107
167
107
107
167
107
107
167
107
107
67
51
27
0
0
0
0
0
0
0
0
0
0
0
0
0
0
0
0
0
0
0
0
0
67
51
27
0
0
0
0
0
0
0
0
0
0
0
0
0
0
0
0
0
0
0
0
0
0
0
0
0
0
0
0
0
0
0
0
0
0
0
0
0
0
0
0
0
0
0
0
0
75
55
27
255
127
27
255
235
223
255
235
223
255
127
27
255
235
223
255
235
223
255
127
27
67
51
27
255
127
27
255
127
27
255
127
27
255
127
27
255
127
27
255
127
27
255
127
27
167
107
107
167
107
107
167
107
107
167
107
107
167
107
107
167
107
107
167
107
107
167
107
107
167
107
107
167
107
107
167
107
107
167
107
107
167
107
107
167
107
107
167
107
107
167
107
107
167
107
107
167
107
107
167
107
107
167
107
107
167
107
107
167
107
107
167
107
107
167
107
107
167
107
107
167
107
107
167
107
107
167
107
107
167
107
107
167
107
107
167
107
107
167
107
107
167
107
107
167
107
107
167
107
107
167
107
107
167
107
107
167
107
107
167
107
107
167
107
107
167
107
107
167
107
107
167
107
107
167
107
107
167
107
107
167
107
107
167
107
107
167
107
107
167
107
107
167
107
107
167
107
107
167
107
107
167
107
107
167
107
107
167
107
107
167
107
107
167
107
107
167
107
107
167
107
107
167
107
107
167
107
107
167
107
107
167
107
107
167
107
107
67
51
27
0
0
0
0
0
0
0
0
0
0
0
0
0
0
0
0
0
0
0
0
0
167
107
107
167
107
107
167
107
107
167
107
107
167
107
107
167
107
107
167
107
107
167
107
107
167
107
107
167
107
107
167
107
107
167
107
107
167
107
107
167
107
107
167
107
107
167
107
107
167
107
107
167
107
107
167
107
107
167
107
107
167
107
107
167
107
107
167
107
107
167
107
107
167
107
107
167
107
107
167
107
107
167
107
107
167
107
107
167
107
107
167
107
107
167
107
107
167
107
107
167
107
107
167
107
107
167
107
107
167
107
107
167
107
107
167
107
107
167
107
107
167
107
107
167
107
107
167
107
107
167
107
107
167
107
107
167
107
107
167
107
107
167
107
107
167
107
107
167
107
107
167
107
107
167
107
107
167
107
107
167
107
107
167
107
107
167
107
107
167
107
107
167
107
107
167
107
107
167
107
107
167
107
107
167
107
107
167
107
107
167
107
107
67
51
27
0
0
0
0
0
0
0
0
0
0
0
0
0
0
0
0
0
0
0
0
0
167
107
107
167
107
107
167
107
107
167
107
107
167
107
107
167
107
107
167
107
107
167
107
107
167
107
107
167
107
107
167
107
107
167
107
107
167
107
107
167
107
107
167
107
107
167
107
107
167
107
107
167
107
107
167
107
107
167
107
107
167
107
107
167
107
107
167
107
107
167
107
107
167
107
107
167
107
107
167
107
107
167
107
107
167
107
107
167
107
107
167
107
107
167
107
107
167
107
107
167
107
107
167
107
107
167
107
107
167
107
107
167
107
107
167
107
107
167
107
107
167
107
107
167
107
107
167
107
107
167
107
107
167
107
107
167
107
107
167
107
107
167
107
107
167
107
107
167
107
107
167
107
107
167
107
107
167
107
107
167
107
107
167
107
107
167
107
107
167
107
107
167
107
107
167
107
107
167
107
107
167
107
107
167
107
107
167
107
107
167
107
107
255
255
255
255
255
255
0
0
0
0
0
0
255
255
255
255
255
255
0
0
0
0
0
0
167
107
107
167
107
107
167
107
107
167
107
107
167
107
107
167
107
107
167
107
107
167
107
107
167
107
107
167
107
107
167
107
107
167
107
107
167
107
107
167
107
107
167
107
107
167
107
107
167
107
107
167
107
107
167
107
107
167
107
107
167
107
107
167
107
107
167
107
107
167
107
107
167
107
107
167
107
107
167
107
107
167
107
107
47
47
47
39
39
39
35
35
35
67
67
67
75
75
75
67
67
67
35
35
35
19
19
19
19
19
19
31
23
11
47
47
47
167
107
107
167
107
107
167
107
107
167
107
107
167
107
107
167
107
107
167
107
107
167
107
107
167
107
107
167
107
107
167
107
107
167
107
107
167
107
107
167
107
107
167
107
107
167
107
107
167
107
107
167
107
107
167
107
107
167
107
107
167
107
107
167
107
107
167
107
107
167
107
107
167
107
107
67
51
27
0
0
0
0
0
0
0
0
0
0
0
0
0
0
0
0
0
0
0
0
0
67
51
27
0
0
0
0
0
0
0
0
0
0
0
0
0
0
0
0
0
0
0
0
0
0
0
0
0
0
0
0
0
0
0
0
0
0
0
0
0
0
0
0
0
0
0
0
0
75
55
27
255
235
223
255
235
223
255
127
27
255
127
27
255
235
223
255
235
223
255
127
27
67
51
27
255
127
27
255
127
27
255
127
27
255
127
27
255
127
27
255
127
27
255
127
27
167
107
107
167
107
107
167
107
107
167
107
107
167
107
107
167
107
107
167
107
107
167
107
107
167
107
107
167
107
107
167
107
107
167
107
107
167
107
107
167
107
107
167
107
107
167
107
107
167
107
107
167
107
107
167
107
107
167
107
107
167
107
107
167
107
107
167
107
107
167
107
107
167
107
107
167
107
107
167
107
107
167
107
107
167
107
107
167
107
107
167
107
107
167
107
107
167
107
107
167
107
107
167
107
107
167
107
107
167
107
107
167
107
107
167
107
107
167
107
107
167
107
107
167
107
107
167
107
107
167
107
107
167
107
107
167
107
107
167
107
107
167
107
107
167
107
107
167
107
107
167
107
107
167
107
107
167
107
107
167
107
107
167
107
107
167
107
107
167
107
107
167
107
107
167
107
107
167
107
107
167
107
107
167
107
107
167
107
107
167
107
107
67
51
27
255
255
255
0
0
0
0
0
0
0
0
0
255
255
255
255
255
255
0
0
0
167
107
107
167
107
107
167
107
107
167
107
107
167
107
107
167
107
107
167
107
107
167
107
107
167
107
107
167
107
107
167
107
107
167
107
107
167
107
107
167
107
107
167
107
107
167
107
107
167
107
107
167
107
107
167
107
107
167
107
107
167
107
107
167
107
107
167
107
107
167
107
107
167
107
107
167
107
107
167
107
107
167
107
107
167
107
107
167
107
107
167
107
107
167
107
107
167
107
107
167
107
107
167
107
107
167
107
107
167
107
107
167
107
107
167
107
107
167
107
107
167
107
107
167
107
107
167
107
107
167
107
107
167
107
107
167
107
107
167
107
107
167
107
107
167
107
107
167
107
107
167
107
107
167
107
107
167
107
107
167
107
107
167
107
107
167
107
107
167
107
107
167
107
107
167
107
107
167
107
107
167
107
107
167
107
107
167
107
107
167
107
107
67
51
27
0
0
0
0
0
0
0
0
0
0
0
0
0
0
0
0
0
0
0
0
0
167
107
107
167
107
107
167
107
107
167
107
107
167
107
107
167
107
107
167
107
107
167
107
107
167
107
107
167
107
107
167
107
107
167
107
107
167
107
107
167
107
107
167
107
107
167
107
107
167
107
107
167
107
107
167
107
107
167
107
107
167
107
107
167
107
107
167
107
107
167
107
107
167
107
107
167
107
107
167
107
107
167
107
107
167
107
107
167
107
107
167
107
107
167
107
107
167
107
107
167
107
107
167
107
107
167
107
107
167
107
107
167
107
107
167
107
107
167
107
107
167
107
107
167
107
107
167
107
107
167
107
107
167
107
107
167
107
107
167
107
107
167
107
107
167
107
107
167
107
107
167
107
107
167
107
107
167
107
107
167
107
107
167
107
107
167
107
107
167
107
107
167
107
107
167
107
107
167
107
107
167
107
107
167
107
107
167
107
107
167
107
107
255
255
255
255
255
255
0
0
0
0
0
0
255
255
255
255
255
255
0
0
0
0
0
0
167
107
107
167
107
107
167
107
107
167
107
107
167
107
107
167
107
107
167
107
107
167
107
107
167
107
107
167
107
107
167
107
107
167
107
107
167
107
107
167
107
107
167
107
107
167
107
107
167
107
107
167
107
107
167
107
107
167
107
107
167
107
107
167
107
107
167
107
107
167
107
107
167
107
107
167
107
107
167
107
107
167
107
107
47
47
47
47
47
47
35
35
35
55
55
55
75
75
75
67
67
67
35
35
35
19
19
19
19
19
19
31
23
11
47
47
47
167
107
107
167
107
107
167
107
107
167
107
107
167
107
107
167
107
107
167
107
107
167
107
107
167
107
107
167
107
107
167
107
107
167
107
107
167
107
107
167
107
107
167
107
107
167
107
107
167
107
107
167
107
107
167
107
107
167
107
107
167
107
107
167
107
107
167
107
107
167
107
107
167
107
107
255
255
255
255
255
255
0
0
0
0
0
0
0
0
0
0
0
0
0
0
0
0
0
0
67
51
27
0
0
0
0
0
0
0
0
0
0
0
0
0
0
0
0
0
0
0
0
0
0
0
0
0
0
0
0
0
0
0
0
0
0
0
0
0
0
0
0
0
0
0
0
0
75
55
27
255
235
223
255
235
223
255
235
223
255
235
223
255
235
223
255
235
223
255
235
223
67
51
27
255
127
27
255
127
27
255
127
27
255
127
27
255
127
27
255
127
27
255
127
27
167
107
107
167
107
107
167
107
107
167
107
107
167
107
107
167
107
107
167
107
107
167
107
107
167
107
107
167
107
107
167
107
107
167
107
107
167
107
107
167
107
107
167
107
107
167
107
107
167
107
107
167
107
107
167
107
107
167
107
107
167
107
107
167
107
107
167
107
107
167
107
107
167
107
107
167
107
107
167
107
107
167
107
107
167
107
107
167
107
107
167
107
107
167
107
107
167
107
107
167
107
107
167
107
107
167
107
107
167
107
107
167
107
107
167
107
107
167
107
107
167
107
107
167
107
107
167
107
107
167
107
107
167
107
107
167
107
107
167
107
107
167
107
107
167
107
107
167
107
107
167
107
107
167
107
107
167
107
107
167
107
107
167
107
107
167
107
107
167
107
107
167
107
107
167
107
107
167
107
107
167
107
107
167
107
107
167
107
107
167
107
107
67
51
27
255
255
255
0
0
0
0
0
0
0
0
0
255
255
255
255
255
255
0
0
0
167
107
107
167
107
107
167
107
107
167
107
107
167
107
107
167
107
107
167
107
107
167
107
107
167
107
107
167
107
107
167
107
107
167
107
107
167
107
107
167
107
107
167
107
107
167
107
107
167
107
107
167
107
107
167
107
107
167
107
107
167
107
107
167
107
107
167
107
107
167
107
107
167
107
107
167
107
107
167
107
107
167
107
107
167
107
107
167
107
107
167
107
107
167
107
107
167
107
107
167
107
107
167
107
107
167
107
107
167
107
107
167
107
107
167
107
107
167
107
107
167
107
107
167
107
107
167
107
107
167
107
107
167
107
107
167
107
107
167
107
107
167
107
107
167
107
107
167
107
107
167
107
107
167
107
107
167
107
107
167
107
107
167
107
107
167
107
107
167
107
107
167
107
107
167
107
107
167
107
107
167
107
107
167
107
107
167
107
107
167
107
107
67
51
27
0
0
0
0
0
0
0
0
0
0
0
0
0
0
0
0
0
0
0
0
0
167
107
107
167
107
107
167
107
107
167
107
107
167
107
107
167
107
107
167
107
107
167
107
107
167
107
107
167
107
107
167
107
107
167
107
107
167
107
107
167
107
107
167
107
107
167
107
107
167
107
107
167
107
107
167
107
107
167
107
107
167
107
107
167
107
107
167
107
107
167
107
107
167
107
107
167
107
107
167
107
107
167
107
107
167
107
107
167
107
107
167
107
107
167
107
107
167
107
107
167
107
107
167
107
107
167
107
107
167
107
107
167
107
107
167
107
107
167
107
107
167
107
107
167
107
107
167
107
107
167
107
107
167
107
107
167
107
107
167
107
107
167
107
107
167
107
107
167
107
107
167
107
107
167
107
107
167
107
107
167
107
107
167
107
107
167
107
107
167
107
107
167
107
107
167
107
107
167
107
107
167
107
107
167
107
107
167
107
107
167
107
107
255
255
255
255
255
255
255
255
255
255
255
255
255
255
255
67
51
27
0
0
0
0
0
0
167
107
107
167
107
107
167
107
107
167
107
107
167
107
107
167
107
107
167
107
107
167
107
107
167
107
107
167
107
107
167
107
107
167
107
107
167
107
107
167
107
107
167
107
107
167
107
107
167
107
107
167
107
107
167
107
107
167
107
107
167
107
107
167
107
107
167
107
107
167
107
107
167
107
107
167
107
107
167
107
107
167
107
107
47
47
47
35
35
35
31
23
11
55
55
55
71
71
71
63
71
43
35
35
35
19
19
19
19
19
19
31
23
11
47
47
47
167
107
107
167
107
107
167
107
107
167
107
107
167
107
107
167
107
107
167
107
107
167
107
107
167
107
107
167
107
107
167
107
107
167
107
107
167
107
107
167
107
107
167
107
107
167
107
107
167
107
107
167
107
107
167
107
107
167
107
107
167
107
107
167
107
107
167
107
107
167
107
107
167
107
107
255
255
255
255
255
255
0
0
0
0
0
0
0
0
0
0
0
0
0
0
0
0
0
0
67
51
27
0
0
0
0
0
0
0
0
0
0
0
0
0
0
0
0
0
0
0
0
0
0
0
0
0
0
0
0
0
0
0
0
0
0
0
0
0
0
0
0
0
0
0
0
0
75
55
27
255
127
27
255
127
27
255
127
27
255
127
27
255
235
223
255
235
223
255
127
27
67
51
27
255
127
27
255
127
27
255
127
27
255
127
27
255
127
27
255
127
27
255
127
27
167
107
107
167
107
107
167
107
107
167
107
107
167
107
107
167
107
107
167
107
107
167
107
107
167
107
107
167
107
107
167
107
107
167
107
107
167
107
107
167
107
107
167
107
107
167
107
107
167
107
107
167
107
107
167
107
107
167
107
107
167
107
107
167
107
107
167
107
107
167
107
107
167
107
107
167
107
107
167
107
107
167
107
107
167
107
107
167
107
107
167
107
107
167
107
107
167
107
107
167
107
107
167
107
107
167
107
107
167
107
107
167
107
107
167
107
107
167
107
107
167
107
107
167
107
107
167
107
107
167
107
107
167
107
107
167
107
107
167
107
107
167
107
107
167
107
107
167
107
107
167
107
107
167
107
107
167
107
107
167
107
107
167
107
107
167
107
107
167
107
107
167
107
107
167
107
107
167
107
107
167
107
107
167
107
107
167
107
107
167
107
107
67
51
27
255
255
255
0
0
0
0
0
0
0
0
0
255
255
255
255
255
255
0
0
0
167
107
107
167
107
107
167
107
107
167
107
107
167
107
107
167
107
107
167
107
107
167
107
107
167
107
107
167
107
107
167
107
107
167
107
107
167
107
107
167
107
107
167
107
107
167
107
107
167
107
107
167
107
107
167
107
107
167
107
107
167
107
107
167
107
107
167
107
107
167
107
107
167
107
107
167
107
107
167
107
107
167
107
107
167
107
107
167
107
107
167
107
107
167
107
107
167
107
107
167
107
107
167
107
107
167
107
107
167
107
107
167
107
107
167
107
107
167
107
107
167
107
107
167
107
107
167
107
107
167
107
107
167
107
107
167
107
107
167
107
107
167
107
107
167
107
107
167
107
107
167
107
107
167
107
107
167
107
107
167
107
107
167
107
107
167
107
107
167
107
107
167
107
107
167
107
107
167
107
107
167
107
107
167
107
107
167
107
107
167
107
107
67
51
27
0
0
0
0
0
0
0
0
0
0
0
0
0
0
0
0
0
0
0
0
0
167
107
107
167
107
107
167
107
107
167
107
107
167
107
107
167
107
107
167
107
107
167
107
107
167
107
107
167
107
107
167
107
107
167
107
107
167
107
107
167
107
107
167
107
107
167
107
107
167
107
107
167
107
107
167
107
107
167
107
107
167
107
107
167
107
107
167
107
107
167
107
107
167
107
107
167
107
107
167
107
107
167
107
107
167
107
107
167
107
107
167
107
107
167
107
107
167
107
107
167
107
107
167
107
107
167
107
107
167
107
107
167
107
107
167
107
107
167
107
107
167
107
107
167
107
107
167
107
107
167
107
107
167
107
107
167
107
107
167
107
107
167
107
107
167
107
107
167
107
107
167
107
107
167
107
107
167
107
107
167
107
107
167
107
107
167
107
107
167
107
107
167
107
107
167
107
107
167
107
107
167
107
107
167
107
107
167
107
107
167
107
107
255
255
255
255
255
255
255
255
255
255
255
255
0
0
0
0
0
0
0
0
0
0
0
0
167
107
107
167
107
107
167
107
107
167
107
107
167
107
107
167
107
107
167
107
107
167
107
107
167
107
107
167
107
107
167
107
107
167
107
107
167
107
107
167
107
107
167
107
107
167
107
107
167
107
107
167
107
107
167
107
107
167
107
107
167
107
107
167
107
107
167
107
107
167
107
107
167
107
107
167
107
107
167
107
107
167
107
107
47
47
47
35
35
35
19
19
19
55
55
55
71
71
71
67
67
67
35
35
35
19
19
19
19
19
19
31
23
11
47
47
47
167
107
107
167
107
107
167
107
107
167
107
107
167
107
107
167
107
107
167
107
107
167
107
107
167
107
107
167
107
107
167
107
107
167
107
107
167
107
107
167
107
107
167
107
107
167
107
107
167
107
107
167
107
107
167
107
107
167
107
107
167
107
107
167
107
107
167
107
107
167
107
107
167
107
107
255
255
255
255
255
255
0
0
0
0
0
0
0
0
0
0
0
0
0
0
0
0
0
0
67
51
27
0
0
0
0
0
0
0
0
0
0
0
0
0
0
0
0
0
0
0
0
0
0
0
0
0
0
0
0
0
0
0
0
0
0
0
0
0
0
0
0
0
0
0
0
0
75
55
27
255
127
27
255
127
27
255
127
27
255
127
27
255
235
223
255
235
223
255
127
27
67
51
27
255
127
27
255
127
27
255
127
27
255
127
27
255
127
27
255
127
27
255
127
27
167
107
107
167
107
107
167
107
107
167
107
107
167
107
107
167
107
107
167
107
107
167
107
107
167
107
107
167
107
107
167
107
107
167
107
107
167
107
107
167
107
107
167
107
107
167
107
107
167
107
107
167
107
107
167
107
107
167
107
107
167
107
107
167
107
107
167
107
107
167
107
107
167
107
107
167
107
107
167
107
107
167
107
107
167
107
107
167
107
107
167
107
107
167
107
107
167
107
107
167
107
107
167
107
107
167
107
107
167
107
107
167
107
107
167
107
107
167
107
107
167
107
107
167
107
107
167
107
107
167
107
107
167
107
107
167
107
107
167
107
107
167
107
107
167
107
107
167
107
107
167
107
107
167
107
107
167
107
107
167
107
107
167
107
107
167
107
107
167
107
107
167
107
107
167
107
107
167
107
107
167
107
107
167
107
107
167
107
107
167
107
107
67
51
27
255
255
255
0
0
0
255
255
255
0
0
0
255
255
255
255
255
255
0
0
0
167
107
107
167
107
107
167
107
107
167
107
107
167
107
107
167
107
107
167
107
107
167
107
107
167
107
107
167
107
107
167
107
107
167
107
107
167
107
107
167
107
107
167
107
107
167
107
107
167
107
107
167
107
107
167
107
107
167
107
107
167
107
107
167
107
107
167
107
107
167
107
107
167
107
107
167
107
107
167
107
107
167
107
107
167
107
107
167
107
107
167
107
107
167
107
107
167
107
107
167
107
107
167
107
107
167
107
107
167
107
107
167
107
107
167
107
107
167
107
107
167
107
107
167
107
107
167
107
107
167
107
107
167
107
107
167
107
107
167
107
107
167
107
107
167
107
107
167
107
107
167
107
107
167
107
107
167
107
107
167
107
107
167
107
107
167
107
107
167
107
107
167
107
107
167
107
107
167
107
107
167
107
107
167
107
107
167
107
107
167
107
107
67
51
27
0
0
0
0
0
0
0
0
0
0
0
0
0
0
0
0
0
0
0
0
0
167
107
107
167
107
107
167
107
107
167
107
107
167
107
107
167
107
107
167
107
107
167
107
107
167
107
107
167
107
107
167
107
107
167
107
107
167
107
107
167
107
107
167
107
107
167
107
107
167
107
107
167
107
107
167
107
107
167
107
107
167
107
107
167
107
107
167
107
107
103
107
79
147
123
99
91
99
71
91
99
71
103
107
79
103
107
79
91
99
71
91
99
71
103
107
79
103
107
79
111
115
87
111
115
87
139
139
139
159
159
159
167
167
167
171
171
171
139
139
139
131
131
131
127
127
127
167
107
107
167
107
107
167
107
107
167
107
107
167
107
107
167
107
107
167
107
107
167
107
107
167
107
107
167
107
107
167
107
107
167
107
107
167
107
107
167
107
107
167
107
107
167
107
107
167
107
107
167
107
107
167
107
107
167
107
107
167
107
107
167
107
107
255
255
255
255
255
255
0
0
0
255
255
255
255
255
255
0
0
0
0
0
0
0
0
0
167
107
107
167
107
107
167
107
107
167
107
107
167
107
107
167
107
107
167
107
107
167
107
107
167
107
107
167
107
107
167
107
107
167
107
107
167
107
107
167
107
107
167
107
107
167
107
107
167
107
107
167
107
107
167
107
107
167
107
107
167
107
107
167
107
107
167
107
107
167
107
107
167
107
107
167
107
107
167
107
107
167
107
107
47
47
47
35
35
35
31
23
11
55
55
55
71
71
71
67
67
67
35
35
35
19
19
19
19
19
19
31
23
11
47
47
47
167
107
107
167
107
107
167
107
107
167
107
107
167
107
107
167
107
107
167
107
107
167
107
107
167
107
107
167
107
107
167
107
107
167
107
107
167
107
107
167
107
107
167
107
107
167
107
107
167
107
107
167
107
107
167
107
107
167
107
107
167
107
107
167
107
107
167
107
107
167
107
107
167
107
107
255
255
255
255
255
255
0
0
0
0
0
0
0
0
0
0
0
0
0
0
0
0
0
0
67
51
27
0
0
0
0
0
0
0
0
0
0
0
0
0
0
0
0
0
0
0
0
0
0
0
0
0
0
0
0
0
0
0
0
0
0
0
0
0
0
0
0
0
0
0
0
0
75
55
27
75
55
27
75
55
27
75
55
27
67
51
27
67
51
27
67
51
27
67
51
27
67
51
27
67
51
27
67
51
27
67
51
27
67
51
27
67
51
27
67
51
27
67
51
27
167
107
107
167
107
107
167
107
107
167
107
107
167
107
107
167
107
107
167
107
107
167
107
107
167
107
107
167
107
107
167
107
107
167
107
107
167
107
107
167
107
107
167
107
107
167
107
107
167
107
107
167
107
107
167
107
107
167
107
107
167
107
107
167
107
107
167
107
107
167
107
107
167
107
107
167
107
107
167
107
107
167
107
107
167
107
107
167
107
107
167
107
107
167
107
107
167
107
107
167
107
107
167
107
107
167
107
107
167
107
107
167
107
107
167
107
107
167
107
107
167
107
107
167
107
107
167
107
107
167
107
107
167
107
107
167
107
107
167
107
107
167
107
107
167
107
107
167
107
107
167
107
107
167
107
107
167
107
107
167
107
107
167
107
107
167
107
107
167
107
107
167
107
107
167
107
107
167
107
107
167
107
107
167
107
107
167
107
107
167
107
107
67
51
27
255
255
255
255
255
255
255
255
255
255
255
255
255
255
255
255
255
255
67
51
27
167
107
107
167
107
107
167
107
107
167
107
107
167
107
107
167
107
107
167
107
107
167
107
107
167
107
107
167
107
107
167
107
107
167
107
107
167
107
107
167
107
107
167
107
107
167
107
107
167
107
107
167
107
107
167
107
107
167
107
107
167
107
107
167
107
107
167
107
107
167
107
107
167
107
107
167
107
107
167
107
107
167
107
107
167
107
107
167
107
107
167
107
107
167
107
107
167
107
107
167
107
107
167
107
107
167
107
107
167
107
107
167
107
107
167
107
107
167
107
107
167
107
107
167
107
107
167
107
107
167
107
107
167
107
107
167
107
107
167
107
107
167
107
107
167
107
107
167
107
107
167
107
107
167
107
107
167
107
107
167
107
107
167
107
107
167
107
107
167
107
107
167
107
107
167
107
107
167
107
107
167
107
107
167
107
107
167
107
107
167
107
107
67
51
27
67
51
27
67
51
27
67
51
27
67
51
27
67
51
27
67
51
27
67
51
27
167
107
107
167
107
107
167
107
107
167
107
107
167
107
107
167
107
107
167
107
107
167
107
107
167
107
107
167
107
107
167
107
107
167
107
107
167
107
107
167
107
107
167
107
107
167
107
107
167
107
107
167
107
107
167
107
107
167
107
107
167
107
107
127
127
127
167
167
167
91
99
71
55
63
39
19
35
11
19
35
11
63
71
43
63
71
43
71
79
51
47
99
35
75
159
63
91
191
79
75
159
63
55
115
43
123
127
99
111
115
87
103
107
79
99
99
99
119
119
119
139
139
139
171
171
171
119
119
119
71
79
51
167
107
107
167
107
107
167
107
107
167
107
107
167
107
107
167
107
107
167
107
107
167
107
107
167
107
107
167
107
107
167
107
107
167
107
107
167
107
107
167
107
107
167
107
107
167
107
107
167
107
107
167
107
107
167
107
107
167
107
107
255
255
255
255
255
255
0
0
0
0
0
0
255
255
255
255
255
255
67
51
27
67
51
27
167
107
107
167
107
107
167
107
107
167
107
107
167
107
107
167
107
107
167
107
107
167
107
107
167
107
107
167
107
107
167
107
107
167
107
107
167
107
107
167
107
107
167
107
107
167
107
107
167
107
107
167
107
107
167
107
107
167
107
107
167
107
107
167
107
107
167
107
107
167
107
107
167
107
107
167
107
107
167
107
107
167
107
107
47
47
47
35
35
35
31
23
11
55
55
55
71
71
71
67
67
67
35
35
35
19
19
19
19
19
19
31
23
11
47
47
47
167
107
107
167
107
107
167
107
107
167
107
107
167
107
107
167
107
107
167
107
107
167
107
107
167
107
107
167
107
107
167
107
107
167
107
107
167
107
107
167
107
107
167
107
107
167
107
107
167
107
107
167
107
107
167
107
107
167
107
107
167
107
107
167
107
107
167
107
107
167
107
107
167
107
107
255
255
255
255
255
255
67
51
27
67
51
27
67
51
27
67
51
27
67
51
27
67
51
27
67
51
27
67
51
27
67
51
27
67
51
27
67
51
27
67
51
27
67
51
27
67
51
27
0
0
0
0
0
0
0
0
0
0
0
0
0
0
0
0
0
0
0
0
0
0
0
0
75
55
27
255
235
223
255
235
223
255
235
223
255
235
223
255
235
223
255
235
223
255
127
27
67
51
27
255
127
27
255
127
27
255
127
27
255
127
27
255
127
27
255
127
27
255
127
27
167
107
107
167
107
107
167
107
107
167
107
107
167
107
107
167
107
107
167
107
107
167
107
107
167
107
107
167
107
107
167
107
107
167
107
107
167
107
107
167
107
107
167
107
107
167
107
107
167
107
107
167
107
107
167
107
107
167
107
107
167
107
107
167
107
107
167
107
107
167
107
107
167
107
107
167
107
107
167
107
107
167
107
107
167
107
107
167
107
107
167
107
107
167
107
107
167
107
107
167
107
107
167
107
107
167
107
107
167
107
107
167
107
107
167
107
107
167
107
107
167
107
107
167
107
107
167
107
107
167
107
107
167
107
107
167
107
107
167
107
107
167
107
107
167
107
107
167
107
107
167
107
107
167
107
107
167
107
107
167
107
107
167
107
107
167
107
107
167
107
107
167
107
107
167
107
107
167
107
107
167
107
107
167
107
107
167
107
107
167
107
107
67
51
27
255
255
255
255
255
255
0
0
0
255
255
255
255
255
255
255
255
255
0
0
0
167
107
107
167
107
107
167
107
107
167
107
107
167
107
107
167
107
107
167
107
107
167
107
107
167
107
107
167
107
107
167
107
107
167
107
107
167
107
107
167
107
107
167
107
107
167
107
107
167
107
107
167
107
107
167
107
107
167
107
107
167
107
107
167
107
107
167
107
107
167
107
107
167
107
107
167
107
107
167
107
107
167
107
107
167
107
107
167
107
107
167
107
107
167
107
107
167
107
107
167
107
107
111
87
67
95
75
55
51
43
19
167
107
107
167
107
107
167
107
107
167
107
107
167
107
107
167
107
107
167
107
107
167
107
107
167
107
107
167
107
107
167
107
107
167
107
107
167
107
107
167
107
107
167
107
107
167
107
107
167
107
107
167
107
107
167
107
107
167
107
107
167
107
107
167
107
107
167
107
107
167
107
107
167
107
107
167
107
107
167
107
107
67
51
27
0
0
0
0
0
0
0
0
0
0
0
0
0
0
0
0
0
0
0
0
0
167
107
107
167
107
107
167
107
107
167
107
107
167
107
107
167
107
107
167
107
107
167
107
107
167
107
107
167
107
107
167
107
107
167
107
107
167
107
107
167
107
107
167
107
107
167
107
107
167
107
107
167
107
107
167
107
107
167
107
107
167
107
107
183
183
183
191
191
191
111
111
111
55
55
55
39
83
27
55
115
43
83
175
71
91
191
79
75
159
63
83
175
71
91
191
79
95
207
87
91
191
79
91
191
79
75
159
63
55
115
43
39
83
27
31
67
23
91
91
91
119
119
119
127
127
127
59
59
59
27
27
27
167
107
107
167
107
107
167
107
107
167
107
107
167
107
107
167
107
107
167
107
107
167
107
107
167
107
107
167
107
107
167
107
107
167
107
107
167
107
107
167
107
107
167
107
107
167
107
107
167
107
107
167
107
107
167
107
107
167
107
107
67
51
27
0
0
0
0
0
0
0
0
0
0
0
0
0
0
0
0
0
0
0
0
0
167
107
107
167
107
107
167
107
107
167
107
107
167
107
107
167
107
107
167
107
107
167
107
107
167
107
107
167
107
107
167
107
107
167
107
107
167
107
107
167
107
107
167
107
107
167
107
107
167
107
107
167
107
107
167
107
107
167
107
107
167
107
107
167
107
107
167
107
107
167
107
107
167
107
107
167
107
107
167
107
107
167
107
107
47
47
47
35
35
35
35
35
35
55
55
55
71
71
71
67
67
67
35
35
35
19
19
19
19
19
19
31
23
11
47
47
47
167
107
107
167
107
107
167
107
107
167
107
107
167
107
107
167
107
107
167
107
107
167
107
107
167
107
107
167
107
107
167
107
107
167
107
107
167
107
107
167
107
107
167
107
107
167
107
107
167
107
107
167
107
107
167
107
107
167
107
107
167
107
107
167
107
107
167
107
107
167
107
107
167
107
107
255
255
255
255
255
255
0
0
0
0
0
0
0
0
0
0
0
0
0
0
0
0
0
0
67
51
27
0
0
0
0
0
0
0
0
0
0
0
0
0
0
0
0
0
0
0
0
0
0
0
0
0
0
0
0
0
0
0
0
0
0
0
0
0
0
0
0
0
0
0
0
0
75
55
27
255
235
223
255
235
223
255
127
27
255
127
27
255
127
27
255
127
27
255
127
27
67
51
27
255
127
27
255
127
27
255
127
27
255
127
27
255
127
27
255
127
27
255
127
27
167
107
107
167
107
107
167
107
107
167
107
107
167
107
107
167
107
107
167
107
107
167
107
107
167
107
107
167
107
107
167
107
107
167
107
107
167
107
107
167
107
107
167
107
107
167
107
107
167
107
107
167
107
107
167
107
107
167
107
107
167
107
107
167
107
107
167
107
107
167
107
107
167
107
107
167
107
107
167
107
107
167
107
107
167
107
107
167
107
107
167
107
107
167
107
107
167
107
107
167
107
107
167
107
107
167
107
107
167
107
107
167
107
107
167
107
107
167
107
107
167
107
107
167
107
107
167
107
107
167
107
107
167
107
107
167
107
107
167
107
107
167
107
107
167
107
107
167
107
107
167
107
107
167
107
107
167
107
107
167
107
107
167
107
107
167
107
107
167
107
107
167
107
107
167
107
107
167
107
107
167
107
107
167
107
107
167
107
107
167
107
107
67
51
27
255
255
255
0
0
0
0
0
0
0
0
0
255
255
255
255
255
255
0
0
0
167
107
107
167
107
107
167
107
107
167
107
107
167
107
107
167
107
107
167
107
107
167
107
107
167
107
107
167
107
107
167
107
107
167
107
107
167
107
107
167
107
107
167
107
107
167
107
107
167
107
107
167
107
107
167
107
107
167
107
107
167
107
107
167
107
107
167
107
107
167
107
107
167
107
107
167
107
107
167
107
107
167
107
107
167
107
107
167
107
107
167
107
107
167
107
107
123
99
79
95
75
55
79
59
35
51
43
19
51
43
19
51
43
19
167
107
107
167
107
107
167
107
107
167
107
107
167
107
107
167
107
107
167
107
107
167
107
107
167
107
107
167
107
107
167
107
107
167
107
107
167
107
107
167
107
107
167
107
107
167
107
107
167
107
107
167
107
107
167
107
107
167
107
107
167
107
107
167
107
107
167
107
107
167
107
107
167
107
107
167
107
107
67
51
27
0
0
0
0
0
0
0
0
0
0
0
0
0
0
0
0
0
0
0
0
0
167
107
107
167
107
107
167
107
107
167
107
107
167
107
107
167
107
107
167
107
107
167
107
107
167
107
107
167
107
107
167
107
107
167
107
107
167
107
107
167
107
107
167
107
107
167
107
107
167
107
107
167
107
107
167
107
107
167
107
107
167
107
107
183
183
183
139
139
139
151
151
151
167
167
167
175
151
127
147
123
99
147
123
99
147
123
99
147
123
99
147
123
99
103
107
79
107
107
107
99
99
99
99
99
99
83
87
59
83
87
59
87
87
87
99
99
99
91
91
91
71
71
71
27
27
27
0
0
0
27
27
27
167
107
107
167
107
107
167
107
107
167
107
107
167
107
107
167
107
107
167
107
107
167
107
107
167
107
107
167
107
107
167
107
107
167
107
107
167
107
107
167
107
107
167
107
107
167
107
107
167
107
107
167
107
107
167
107
107
167
107
107
67
51
27
0
0
0
255
255
255
255
255
255
0
0
0
0
0
0
0
0
0
0
0
0
167
107
107
167
107
107
167
107
107
167
107
107
167
107
107
167
107
107
167
107
107
167
107
107
167
107
107
167
107
107
167
107
107
167
107
107
167
107
107
167
107
107
167
107
107
167
107
107
167
107
107
167
107
107
167
107
107
167
107
107
167
107
107
167
107
107
167
107
107
167
107
107
167
107
107
167
107
107
167
107
107
167
107
107
47
47
47
35
35
35
35
35
35
55
55
55
79
79
79
67
67
67
35
35
35
19
19
19
19
19
19
19
19
19
47
47
47
167
107
107
167
107
107
167
107
107
167
107
107
167
107
107
167
107
107
167
107
107
167
107
107
167
107
107
167
107
107
167
107
107
167
107
107
167
107
107
167
107
107
167
107
107
167
107
107
167
107
107
167
107
107
167
107
107
167
107
107
167
107
107
167
107
107
167
107
107
167
107
107
167
107
107
255
255
255
255
255
255
255
255
255
255
255
255
255
255
255
255
255
255
0
0
0
0
0
0
67
51
27
0
0
0
0
0
0
0
0
0
0
0
0
0
0
0
0
0
0
0
0
0
0
0
0
163
107
63
163
107
63
163
107
63
163
107
63
163
107
63
163
107
63
163
107
63
75
55
27
255
235
223
255
235
223
255
235
223
255
235
223
255
235
223
255
127
27
255
127
27
67
51
27
255
127
27
255
127
27
255
127
27
255
127
27
255
127
27
255
127
27
255
127
27
167
107
107
167
107
107
167
107
107
167
107
107
167
107
107
167
107
107
167
107
107
167
107
107
167
107
107
167
107
107
167
107
107
167
107
107
167
107
107
167
107
107
167
107
107
167
107
107
167
107
107
167
107
107
167
107
107
167
107
107
167
107
107
167
107
107
167
107
107
167
107
107
167
107
107
167
107
107
167
107
107
167
107
107
167
107
107
167
107
107
167
107
107
167
107
107
167
107
107
167
107
107
167
107
107
167
107
107
167
107
107
167
107
107
167
107
107
167
107
107
167
107
107
167
107
107
167
107
107
167
107
107
167
107
107
167
107
107
167
107
107
167
107
107
167
107
107
167
107
107
167
107
107
167
107
107
167
107
107
167
107
107
167
107
107
167
107
107
167
107
107
167
107
107
167
107
107
167
107
107
167
107
107
167
107
107
167
107
107
167
107
107
67
51
27
0
0
0
0
0
0
0
0
0
0
0
0
0
0
0
0
0
0
0
0
0
167
107
107
167
107
107
167
107
107
167
107
107
167
107
107
167
107
107
167
107
107
167
107
107
167
107
107
167
107
107
167
107
107
167
107
107
167
107
107
167
107
107
167
107
107
167
107
107
167
107
107
167
107
107
167
107
107
167
107
107
167
107
107
167
107
107
167
107
107
167
107
107
167
107
107
167
107
107
167
107
107
167
107
107
167
107
107
167
107
107
167
107
107
167
107
107
119
95
75
51
43
19
83
63
31
83
63
31
75
55
27
51
43
19
167
107
107
167
107
107
167
107
107
167
107
107
167
107
107
167
107
107
167
107
107
167
107
107
167
107
107
167
107
107
167
107
107
167
107
107
167
107
107
167
107
107
167
107
107
167
107
107
167
107
107
167
107
107
167
107
107
167
107
107
167
107
107
167
107
107
167
107
107
167
107
107
167
107
107
167
107
107
67
51
27
0
0
0
0
0
0
0
0
0
0
0
0
0
0
0
0
0
0
0
0
0
167
107
107
167
107
107
167
107
107
167
107
107
167
107
107
167
107
107
167
107
107
167
107
107
167
107
107
167
107
107
167
107
107
167
107
107
167
107
107
167
107
107
167
107
107
167
107
107
167
107
107
167
107
107
167
107
107
167
107
107
167
107
107
183
183
183
123
127
99
103
107
79
103
107
79
103
107
79
91
99
71
91
99
71
63
71
43
63
71
43
63
71
43
63
71
43
71
71
71
71
71
71
71
71
71
59
59
59
55
55
55
55
55
55
27
27
27
27
27
27
0
0
0
19
19
19
27
27
27
55
55
55
167
107
107
167
107
107
167
107
107
167
107
107
167
107
107
167
107
107
167
107
107
167
107
107
167
107
107
167
107
107
167
107
107
167
107
107
167
107
107
167
107
107
167
107
107
167
107
107
167
107
107
167
107
107
167
107
107
167
107
107
67
51
27
255
255
255
255
255
255
255
255
255
0
0
0
0
0
0
0
0
0
0
0
0
167
107
107
167
107
107
167
107
107
167
107
107
167
107
107
167
107
107
167
107
107
167
107
107
167
107
107
167
107
107
167
107
107
167
107
107
167
107
107
167
107
107
167
107
107
167
107
107
167
107
107
167
107
107
167
107
107
167
107
107
167
107
107
167
107
107
167
107
107
167
107
107
167
107
107
167
107
107
167
107
107
167
107
107
47
47
47
51
43
19
31
23
11
55
55
55
79
79
79
67
67
67
35
35
35
19
19
19
19
19
19
19
19
19
47
47
47
167
107
107
167
107
107
167
107
107
167
107
107
167
107
107
167
107
107
167
107
107
167
107
107
167
107
107
167
107
107
167
107
107
167
107
107
167
107
107
167
107
107
167
107
107
167
107
107
167
107
107
167
107
107
167
107
107
167
107
107
167
107
107
167
107
107
167
107
107
167
107
107
167
107
107
67
51
27
0
0
0
0
0
0
0
0
0
0
0
0
0
0
0
0
0
0
0
0
0
67
51
27
0
0
0
0
0
0
0
0
0
0
0
0
0
0
0
0
0
0
0
0
0
0
0
0
163
107
63
163
107
63
163
107
63
163
107
63
163
107
63
163
107
63
163
107
63
75
55
27
255
127
27
255
127
27
255
127
27
255
127
27
255
235
223
255
235
223
255
127
27
67
51
27
255
127
27
255
127
27
255
127
27
255
127
27
255
127
27
255
127
27
255
127
27
167
107
107
167
107
107
167
107
107
167
107
107
167
107
107
167
107
107
167
107
107
167
107
107
167
107
107
167
107
107
167
107
107
167
107
107
167
107
107
167
107
107
167
107
107
167
107
107
167
107
107
167
107
107
167
107
107
167
107
107
167
107
107
167
107
107
167
107
107
167
107
107
167
107
107
167
107
107
167
107
107
167
107
107
167
107
107
167
107
107
167
107
107
167
107
107
167
107
107
167
107
107
167
107
107
167
107
107
167
107
107
167
107
107
167
107
107
167
107
107
167
107
107
167
107
107
167
107
107
167
107
107
167
107
107
167
107
107
167
107
107
167
107
107
167
107
107
167
107
107
167
107
107
167
107
107
167
107
107
167
107
107
167
107
107
167
107
107
167
107
107
167
107
107
167
107
107
167
107
107
167
107
107
167
107
107
167
107
107
167
107
107
67
51
27
0
0
0
0
0
0
0
0
0
0
0
0
0
0
0
0
0
0
0
0
0
167
107
107
167
107
107
167
107
107
167
107
107
167
107
107
167
107
107
167
107
107
167
107
107
167
107
107
167
107
107
167
107
107
167
107
107
167
107
107
167
107
107
167
107
107
167
107
107
167
107
107
167
107
107
167
107
107
167
107
107
167
107
107
167
107
107
167
107
107
167
107
107
167
107
107
167
107
107
167
107
107
167
107
107
167
107
107
167
107
107
167
107
107
167
107
107
131
107
87
83
63
47
51
43
19
75
55
27
51
43
19
167
107
107
167
107
107
167
107
107
167
107
107
167
107
107
167
107
107
167
107
107
167
107
107
167
107
107
167
107
107
167
107
107
167
107
107
167
107
107
167
107
107
167
107
107
167
107
107
167
107
107
167
107
107
167
107
107
167
107
107
167
107
107
167
107
107
167
107
107
167
107
107
167
107
107
167
107
107
167
107
107
67
51
27
0
0
0
0
0
0
0
0
0
0
0
0
0
0
0
0
0
0
0
0
0
167
107
107
167
107
107
167
107
107
167
107
107
167
107
107
167
107
107
167
107
107
167
107
107
167
107
107
167
107
107
167
107
107
167
107
107
167
107
107
167
107
107
167
107
107
167
107
107
167
107
107
167
107
107
167
107
107
167
107
107
167
107
107
191
191
191
159
135
111
155
127
107
167
143
119
159
135
111
123
127
99
111
115
87
103
107
79
83
87
59
83
87
59
71
79
51
71
79
51
63
71
43
55
63
39
23
51
15
35
35
35
19
19
19
0
0
0
19
19
19
27
27
27
27
27
27
27
27
27
47
47
47
167
107
107
167
107
107
167
107
107
167
107
107
167
107
107
167
107
107
167
107
107
167
107
107
167
107
107
167
107
107
167
107
107
167
107
107
167
107
107
167
107
107
167
107
107
167
107
107
167
107
107
167
107
107
167
107
107
167
107
107
67
51
27
0
0
0
255
255
255
255
255
255
0
0
0
0
0
0
0
0
0
0
0
0
167
107
107
167
107
107
167
107
107
167
107
107
167
107
107
167
107
107
167
107
107
167
107
107
167
107
107
167
107
107
167
107
107
167
107
107
167
107
107
167
107
107
167
107
107
167
107
107
167
107
107
167
107
107
167
107
107
167
107
107
167
107
107
167
107
107
167
107
107
167
107
107
167
107
107
167
107
107
167
107
107
167
107
107
47
47
47
35
35
35
35
35
35
55
55
55
79
79
79
67
67
67
35
35
35
19
19
19
19
19
19
19
19
19
47
47
47
167
107
107
167
107
107
167
107
107
167
107
107
167
107
107
167
107
107
167
107
107
167
107
107
167
107
107
167
107
107
167
107
107
167
107
107
167
107
107
167
107
107
167
107
107
167
107
107
167
107
107
167
107
107
167
107
107
167
107
107
167
107
107
167
107
107
167
107
107
167
107
107
167
107
107
67
51
27
0
0
0
0
0
0
0
0
0
0
0
0
0
0
0
0
0
0
0
0
0
67
51
27
0
0
0
0
0
0
0
0
0
0
0
0
0
0
0
0
0
0
0
0
0
0
0
0
0
0
0
0
0
0
0
0
0
163
107
63
0
0
0
0
0
0
163
107
63
75
55
27
255
127
27
255
127
27
255
127
27
255
127
27
255
235
223
255
235
223
255
127
27
67
51
27
255
127
27
255
127
27
255
127
27
255
127
27
255
127
27
255
127
27
255
127
27
167
107
107
167
107
107
167
107
107
167
107
107
167
107
107
167
107
107
167
107
107
167
107
107
167
107
107
167
107
107
167
107
107
167
107
107
167
107
107
167
107
107
167
107
107
167
107
107
167
107
107
167
107
107
167
107
107
167
107
107
167
107
107
167
107
107
167
107
107
167
107
107
167
107
107
167
107
107
167
107
107
167
107
107
167
107
107
167
107
107
167
107
107
167
107
107
167
107
107
167
107
107
167
107
107
167
107
107
167
107
107
167
107
107
167
107
107
167
107
107
167
107
107
167
107
107
167
107
107
167
107
107
167
107
107
167
107
107
167
107
107
167
107
107
167
107
107
167
107
107
167
107
107
167
107
107
167
107
107
167
107
107
167
107
107
167
107
107
167
107
107
167
107
107
167
107
107
167
107
107
167
107
107
167
107
107
167
107
107
167
107
107
67
51
27
0
0
0
0
0
0
255
255
255
255
255
255
255
255
255
0
0
0
0
0
0
167
107
107
167
107
107
167
107
107
167
107
107
167
107
107
167
107
107
167
107
107
167
107
107
167
107
107
167
107
107
167
107
107
167
107
107
167
107
107
167
107
107
167
107
107
167
107
107
167
107
107
167
107
107
167
107
107
167
107
107
167
107
107
167
107
107
167
107
107
167
107
107
167
107
107
167
107
107
167
107
107
167
107
107
167
107
107
167
107
107
167
107
107
139
115
91
119
95
75
51
43
19
75
55
27
83
63
31
75
55
27
51
43
19
167
107
107
167
107
107
167
107
107
167
107
107
167
107
107
167
107
107
167
107
107
167
107
107
167
107
107
167
107
107
167
107
107
167
107
107
167
107
107
167
107
107
167
107
107
167
107
107
167
107
107
167
107
107
167
107
107
167
107
107
167
107
107
167
107
107
167
107
107
167
107
107
167
107
107
167
107
107
67
51
27
0
0
0
0
0
0
0
0
0
0
0
0
0
0
0
0
0
0
0
0
0
167
107
107
167
107
107
167
107
107
167
107
107
167
107
107
167
107
107
167
107
107
167
107
107
167
107
107
167
107
107
167
107
107
167
107
107
167
107
107
167
107
107
167
107
107
167
107
107
167
107
107
167
107
107
167
107
107
167
107
107
167
107
107
183
183
183
183
159
135
175
151
127
183
159
135
175
151
127
159
135
111
123
127
99
123
127
99
111
115
87
111
115
87
103
107
79
91
99
71
83
87
59
83
87
59
55
63
39
59
59
59
39
39
39
19
35
11
19
35
11
19
19
19
19
19
19
27
27
27
35
35
35
167
107
107
167
107
107
167
107
107
167
107
107
167
107
107
167
107
107
167
107
107
167
107
107
167
107
107
167
107
107
167
107
107
167
107
107
167
107
107
167
107
107
167
107
107
167
107
107
167
107
107
167
107
107
167
107
107
167
107
107
67
51
27
0
0
0
255
255
255
255
255
255
0
0
0
0
0
0
0
0
0
0
0
0
167
107
107
167
107
107
167
107
107
167
107
107
167
107
107
167
107
107
167
107
107
167
107
107
167
107
107
167
107
107
167
107
107
167
107
107
167
107
107
167
107
107
167
107
107
167
107
107
167
107
107
167
107
107
167
107
107
167
107
107
167
107
107
167
107
107
167
107
107
167
107
107
167
107
107
167
107
107
167
107
107
167
107
107
47
47
47
35
35
35
35
35
35
55
55
55
79
79
79
67
67
67
35
35
35
19
19
19
19
19
19
19
19
19
47
47
47
167
107
107
167
107
107
167
107
107
167
107
107
167
107
107
167
107
107
167
107
107
167
107
107
167
107
107
167
107
107
167
107
107
167
107
107
167
107
107
167
107
107
167
107
107
167
107
107
167
107
107
167
107
107
167
107
107
167
107
107
167
107
107
167
107
107
167
107
107
167
107
107
167
107
107
255
255
255
255
255
255
0
0
0
0
0
0
255
255
255
255
255
255
0
0
0
0
0
0
67
51
27
0
0
0
0
0
0
0
0
0
0
0
0
0
0
0
0
0
0
0
0
0
0
0
0
0
0
0
0
0
0
0
0
0
163
107
63
0
0
0
0
0
0
163
107
63
75
55
27
255
235
223
255
235
223
255
127
27
255
127
27
255
235
223
255
235
223
255
127
27
67
51
27
255
127
27
255
127
27
255
127
27
255
127
27
255
127
27
255
127
27
255
127
27
167
107
107
167
107
107
167
107
107
167
107
107
167
107
107
167
107
107
167
107
107
167
107
107
167
107
107
167
107
107
167
107
107
167
107
107
167
107
107
167
107
107
167
107
107
167
107
107
167
107
107
167
107
107
167
107
107
167
107
107
167
107
107
167
107
107
167
107
107
167
107
107
167
107
107
167
107
107
167
107
107
167
107
107
167
107
107
167
107
107
167
107
107
167
107
107
167
107
107
167
107
107
167
107
107
167
107
107
167
107
107
167
107
107
167
107
107
167
107
107
167
107
107
167
107
107
167
107
107
167
107
107
167
107
107
167
107
107
167
107
107
167
107
107
167
107
107
167
107
107
167
107
107
167
107
107
167
107
107
167
107
107
167
107
107
167
107
107
167
107
107
167
107
107
167
107
107
167
107
107
167
107
107
167
107
107
167
107
107
167
107
107
67
51
27
0
0
0
255
255
255
255
255
255
255
255
255
255
255
255
0
0
0
0
0
0
167
107
107
167
107
107
167
107
107
167
107
107
167
107
107
167
107
107
167
107
107
167
107
107
167
107
107
167
107
107
167
107
107
167
107
107
167
107
107
167
107
107
167
107
107
167
107
107
167
107
107
167
107
107
167
107
107
167
107
107
167
107
107
167
107
107
167
107
107
167
107
107
167
107
107
167
107
107
167
107
107
167
107
107
167
107
107
147
123
99
119
95
75
111
87
67
103
83
51
119
79
43
83
63
31
75
55
27
75
55
27
79
59
35
87
67
51
111
87
67
167
107
107
167
107
107
167
107
107
167
107
107
167
107
107
167
107
107
167
107
107
167
107
107
167
107
107
167
107
107
167
107
107
167
107
107
167
107
107
167
107
107
167
107
107
167
107
107
167
107
107
167
107
107
167
107
107
167
107
107
167
107
107
167
107
107
167
107
107
167
107
107
67
51
27
0
0
0
0
0
0
0
0
0
0
0
0
0
0
0
0
0
0
0
0
0
167
107
107
167
107
107
167
107
107
167
107
107
167
107
107
167
107
107
167
107
107
167
107
107
167
107
107
167
107
107
167
107
107
167
107
107
167
107
107
167
107
107
167
107
107
167
107
107
167
107
107
167
107
107
167
107
107
167
107
107
167
107
107
159
159
159
147
147
147
159
159
159
179
179
179
151
151
151
167
143
119
147
123
99
147
123
99
147
123
99
123
127
99
123
127
99
111
115
87
111
115
87
103
107
79
91
99
71
91
99
71
71
79
51
55
63
39
19
35
11
11
11
11
19
19
19
27
27
27
55
55
55
167
107
107
167
107
107
167
107
107
167
107
107
167
107
107
167
107
107
167
107
107
167
107
107
167
107
107
167
107
107
167
107
107
167
107
107
167
107
107
167
107
107
167
107
107
167
107
107
167
107
107
167
107
107
167
107
107
167
107
107
67
51
27
0
0
0
255
255
255
255
255
255
0
0
0
0
0
0
0
0
0
0
0
0
167
107
107
167
107
107
167
107
107
167
107
107
167
107
107
167
107
107
167
107
107
167
107
107
167
107
107
167
107
107
167
107
107
167
107
107
167
107
107
167
107
107
167
107
107
167
107
107
167
107
107
167
107
107
167
107
107
167
107
107
167
107
107
167
107
107
167
107
107
167
107
107
167
107
107
167
107
107
167
107
107
167
107
107
47
47
47
35
35
35
35
35
35
59
59
59
79
79
79
67
67
67
35
35
35
19
19
19
19
19
19
19
19
19
47
47
47
167
107
107
167
107
107
167
107
107
167
107
107
167
107
107
167
107
107
167
107
107
167
107
107
167
107
107
167
107
107
167
107
107
167
107
107
167
107
107
167
107
107
167
107
107
167
107
107
167
107
107
167
107
107
167
107
107
167
107
107
167
107
107
167
107
107
167
107
107
167
107
107
167
107
107
255
255
255
255
255
255
0
0
0
0
0
0
255
255
255
255
255
255
0
0
0
0
0
0
67
51
27
0
0
0
0
0
0
0
0
0
0
0
0
0
0
0
0
0
0
0
0
0
0
0
0
0
0
0
0
0
0
0
0
0
163
107
63
163
107
63
163
107
63
163
107
63
75
55
27
255
127
27
255
235
223
255
235
223
255
235
223
255
235
223
255
127
27
255
127
27
67
51
27
255
127
27
255
127
27
255
127
27
255
127
27
255
127
27
255
127
27
255
127
27
167
107
107
167
107
107
167
107
107
167
107
107
167
107
107
167
107
107
167
107
107
167
107
107
167
107
107
167
107
107
167
107
107
167
107
107
167
107
107
167
107
107
167
107
107
167
107
107
167
107
107
167
107
107
167
107
107
167
107
107
167
107
107
167
107
107
167
107
107
167
107
107
167
107
107
167
107
107
167
107
107
167
107
107
167
107
107
167
107
107
167
107
107
167
107
107
167
107
107
167
107
107
167
107
107
167
107
107
167
107
107
167
107
107
167
107
107
167
107
107
167
107
107
167
107
107
167
107
107
167
107
107
167
107
107
167
107
107
167
107
107
167
107
107
167
107
107
167
107
107
167
107
107
167
107
107
167
107
107
167
107
107
167
107
107
167
107
107
167
107
107
167
107
107
167
107
107
167
107
107
167
107
107
167
107
107
167
107
107
167
107
107
67
51
27
255
255
255
255
255
255
0
0
0
255
255
255
255
255
255
0
0
0
0
0
0
167
107
107
167
107
107
167
107
107
167
107
107
167
107
107
167
107
107
167
107
107
167
107
107
167
107
107
167
107
107
167
107
107
167
107
107
167
107
107
167
107
107
167
107
107
167
107
107
167
107
107
167
107
107
167
107
107
167
107
107
167
107
107
167
107
107
167
107
107
167
107
107
167
107
107
167
107
107
167
107
107
167
107
107
123
99
79
111
87
67
95
75
55
95
67
35
95
67
35
95
67
35
95
67
35
75
55
27
83
63
31
63
47
23
63
47
23
75
55
27
87
67
51
111
87
67
167
107
107
167
107
107
167
107
107
167
107
107
167
107
107
167
107
107
167
107
107
167
107
107
167
107
107
167
107
107
167
107
107
167
107
107
167
107
107
167
107
107
167
107
107
167
107
107
167
107
107
167
107
107
167
107
107
167
107
107
167
107
107
167
107
107
67
51
27
0
0
0
0
0
0
0
0
0
0
0
0
0
0
0
0
0
0
0
0
0
167
107
107
167
107
107
167
107
107
167
107
107
167
107
107
167
107
107
167
107
107
167
107
107
167
107
107
167
107
107
167
107
107
167
107
107
167
107
107
167
107
107
167
107
107
167
107
107
167
107
107
167
107
107
167
107
107
167
107
107
167
107
107
139
139
139
111
115
87
123
127
99
139
115
91
103
107
79
103
107
79
91
99
71
91
99
71
91
99
71
83
87
59
71
79
51
71
79
51
63
71
43
71
79
51
63
71
43
55
63
39
47
47
47
19
35
11
11
23
7
0
0
0
27
27
27
35
35
35
59
59
59
167
107
107
167
107
107
167
107
107
167
107
107
167
107
107
167
107
107
167
107
107
167
107
107
167
107
107
167
107
107
167
107
107
167
107
107
167
107
107
167
107
107
167
107
107
167
107
107
167
107
107
167
107
107
167
107
107
167
107
107
67
51
27
0
0
0
255
255
255
255
255
255
0
0
0
0
0
0
0
0
0
0
0
0
167
107
107
167
107
107
167
107
107
167
107
107
167
107
107
167
107
107
167
107
107
167
107
107
167
107
107
167
107
107
167
107
107
167
107
107
167
107
107
167
107
107
167
107
107
167
107
107
167
107
107
167
107
107
167
107
107
167
107
107
167
107
107
167
107
107
167
107
107
167
107
107
167
107
107
167
107
107
167
107
107
167
107
107
47
47
47
35
35
35
35
35
35
59
59
59
79
79
79
67
67
67
35
35
35
19
19
19
19
19
19
19
19
19
47
47
47
167
107
107
167
107
107
167
107
107
167
107
107
167
107
107
167
107
107
167
107
107
167
107
107
167
107
107
167
107
107
167
107
107
167
107
107
167
107
107
167
107
107
167
107
107
167
107
107
167
107
107
167
107
107
167
107
107
167
107
107
167
107
107
167
107
107
167
107
107
167
107
107
167
107
107
255
255
255
255
255
255
0
0
0
0
0
0
255
255
255
255
255
255
0
0
0
0
0
0
67
51
27
0
0
0
0
0
0
0
0
0
0
0
0
0
0
0
0
0
0
0
0
0
0
0
0
0
0
0
0
0
0
0
0
0
0
0
0
163
107
63
163
107
63
0
0
0
75
55
27
75
55
27
75
55
27
75
55
27
67
51
27
67
51
27
67
51
27
67
51
27
67
51
27
67
51
27
67
51
27
67
51
27
67
51
27
67
51
27
67
51
27
67
51
27
167
107
107
167
107
107
167
107
107
167
107
107
167
107
107
167
107
107
167
107
107
167
107
107
167
107
107
167
107
107
167
107
107
167
107
107
167
107
107
167
107
107
167
107
107
167
107
107
167
107
107
167
107
107
167
107
107
167
107
107
167
107
107
167
107
107
167
107
107
167
107
107
167
107
107
167
107
107
167
107
107
167
107
107
167
107
107
167
107
107
167
107
107
167
107
107
167
107
107
167
107
107
167
107
107
167
107
107
167
107
107
167
107
107
167
107
107
167
107
107
167
107
107
167
107
107
167
107
107
167
107
107
167
107
107
167
107
107
167
107
107
167
107
107
167
107
107
167
107
107
167
107
107
167
107
107
167
107
107
167
107
107
167
107
107
167
107
107
167
107
107
167
107
107
167
107
107
167
107
107
167
107
107
167
107
107
167
107
107
167
107
107
67
51
27
255
255
255
67
51
27
67
51
27
255
255
255
255
255
255
67
51
27
67
51
27
167
107
107
167
107
107
167
107
107
167
107
107
167
107
107
167
107
107
167
107
107
167
107
107
167
107
107
167
107
107
167
107
107
167
107
107
167
107
107
167
107
107
167
107
107
167
107
107
167
107
107
167
107
107
167
107
107
167
107
107
167
107
107
167
107
107
167
107
107
167
107
107
167
107
107
167
107
107
167
107
107
111
87
67
95
75
55
91
71
43
75
55
27
95
67
35
107
71
39
95
67
35
167
0
0
167
0
0
75
55
27
167
0
0
167
0
0
167
0
0
75
55
27
75
55
27
83
63
47
51
43
19
167
107
107
167
107
107
167
107
107
167
107
107
167
107
107
167
107
107
167
107
107
167
107
107
167
107
107
167
107
107
167
107
107
167
107
107
167
107
107
167
107
107
167
107
107
167
107
107
167
107
107
167
107
107
167
107
107
167
107
107
67
51
27
67
51
27
67
51
27
67
51
27
67
51
27
67
51
27
67
51
27
67
51
27
167
107
107
167
107
107
167
107
107
167
107
107
167
107
107
167
107
107
167
107
107
167
107
107
167
107
107
167
107
107
167
107
107
167
107
107
167
107
107
167
107
107
167
107
107
167
107
107
167
107
107
167
107
107
167
107
107
167
107
107
167
107
107
159
159
159
111
115
87
103
107
79
119
95
75
95
75
55
71
79
51
63
71
43
63
71
43
55
63
39
39
39
39
35
35
35
27
27
27
19
19
19
19
19
19
19
19
19
11
11
11
11
11
11
19
19
19
11
11
11
11
11
11
27
27
27
47
47
47
55
55
55
167
107
107
167
107
107
167
107
107
167
107
107
167
107
107
167
107
107
167
107
107
167
107
107
167
107
107
167
107
107
167
107
107
167
107
107
167
107
107
167
107
107
167
107
107
167
107
107
167
107
107
167
107
107
167
107
107
167
107
107
67
51
27
255
255
255
255
255
255
255
255
255
255
255
255
67
51
27
67
51
27
67
51
27
167
107
107
167
107
107
167
107
107
167
107
107
167
107
107
167
107
107
167
107
107
167
107
107
167
107
107
167
107
107
167
107
107
167
107
107
167
107
107
167
107
107
167
107
107
167
107
107
167
107
107
167
107
107
167
107
107
167
107
107
167
107
107
167
107
107
167
107
107
167
107
107
167
107
107
167
107
107
167
107
107
167
107
107
47
47
47
35
35
35
35
35
35
59
59
59
79
79
79
67
67
67
35
35
35
19
19
19
19
19
19
19
19
19
47
47
47
167
107
107
167
107
107
167
107
107
167
107
107
167
107
107
167
107
107
167
107
107
167
107
107
167
107
107
167
107
107
167
107
107
167
107
107
167
107
107
167
107
107
167
107
107
167
107
107
167
107
107
167
107
107
167
107
107
167
107
107
167
107
107
167
107
107
167
107
107
167
107
107
167
107
107
255
255
255
255
255
255
67
51
27
67
51
27
255
255
255
255
255
255
67
51
27
67
51
27
67
51
27
67
51
27
67
51
27
67
51
27
67
51
27
67
51
27
67
51
27
67
51
27
0
0
0
0
0
0
0
0
0
0
0
0
0
0
0
0
0
0
0
0
0
0
0
0
75
55
27
255
127
27
255
235
223
255
235
223
255
235
223
255
235
223
255
127
27
255
127
27
67
51
27
255
127
27
255
127
27
255
127
27
255
127
27
255
127
27
255
127
27
255
127
27
167
107
107
167
107
107
167
107
107
167
107
107
167
107
107
167
107
107
167
107
107
167
107
107
167
107
107
167
107
107
167
107
107
167
107
107
167
107
107
167
107
107
167
107
107
167
107
107
167
107
107
167
107
107
167
107
107
167
107
107
167
107
107
167
107
107
167
107
107
167
107
107
167
107
107
167
107
107
167
107
107
167
107
107
167
107
107
167
107
107
167
107
107
167
107
107
167
107
107
167
107
107
167
107
107
167
107
107
167
107
107
167
107
107
167
107
107
167
107
107
167
107
107
167
107
107
167
107
107
167
107
107
167
107
107
167
107
107
167
107
107
167
107
107
167
107
107
167
107
107
167
107
107
167
107
107
167
107
107
167
107
107
167
107
107
167
107
107
167
107
107
167
107
107
167
107
107
167
107
107
167
107
107
167
107
107
167
107
107
167
107
107
67
51
27
255
255
255
255
255
255
255
255
255
255
255
255
255
255
255
255
255
255
0
0
0
167
107
107
167
107
107
167
107
107
167
107
107
167
107
107
167
107
107
167
107
107
167
107
107
167
107
107
167
107
107
167
107
107
167
107
107
167
107
107
167
107
107
167
107
107
167
107
107
167
107
107
167
107
107
167
107
107
167
107
107
167
107
107
167
107
107
167
107
107
167
107
107
167
107
107
119
95
75
95
75
55
75
55
27
83
63
31
119
79
43
95
67
35
83
63
31
167
0
0
167
0
0
167
0
0
167
0
0
75
55
27
167
0
0
167
0
0
167
0
0
167
0
0
167
0
0
75
55
27
75
55
27
51
43
19
167
107
107
167
107
107
167
107
107
167
107
107
167
107
107
167
107
107
167
107
107
167
107
107
167
107
107
167
107
107
167
107
107
167
107
107
167
107
107
167
107
107
167
107
107
167
107
107
167
107
107
167
107
107
167
107
107
67
51
27
0
0
0
0
0
0
0
0
0
0
0
0
0
0
0
0
0
0
0
0
0
167
107
107
167
107
107
167
107
107
167
107
107
167
107
107
167
107
107
167
107
107
167
107
107
167
107
107
167
107
107
167
107
107
167
107
107
167
107
107
167
107
107
167
107
107
167
107
107
167
107
107
167
107
107
167
107
107
167
107
107
167
107
107
167
167
167
123
127
99
123
127
99
167
143
119
139
115
91
103
107
79
83
87
59
71
79
51
55
63
39
39
39
39
39
39
39
27
27
27
19
35
11
19
19
19
11
23
7
11
11
11
0
0
0
19
19
19
19
19
19
19
19
19
19
19
19
27
27
27
55
55
55
167
107
107
167
107
107
167
107
107
167
107
107
167
107
107
167
107
107
167
107
107
167
107
107
167
107
107
167
107
107
167
107
107
167
107
107
167
107
107
167
107
107
167
107
107
167
107
107
167
107
107
167
107
107
167
107
107
167
107
107
67
51
27
0
0
0
0
0
0
0
0
0
0
0
0
0
0
0
0
0
0
0
0
0
167
107
107
167
107
107
167
107
107
167
107
107
167
107
107
167
107
107
167
107
107
167
107
107
167
107
107
167
107
107
167
107
107
167
107
107
167
107
107
167
107
107
167
107
107
167
107
107
167
107
107
167
107
107
167
107
107
167
107
107
167
107
107
167
107
107
167
107
107
167
107
107
167
107
107
167
107
107
167
107
107
167
107
107
47
47
47
35
35
35
35
35
35
59
59
59
79
79
79
67
67
67
35
35
35
19
19
19
19
19
19
19
19
19
47
47
47
167
107
107
167
107
107
167
107
107
167
107
107
167
107
107
167
107
107
167
107
107
167
107
107
167
107
107
167
107
107
167
107
107
167
107
107
167
107
107
167
107
107
167
107
107
167
107
107
167
107
107
167
107
107
167
107
107
167
107
107
167
107
107
167
107
107
167
107
107
167
107
107
167
107
107
255
255
255
255
255
255
0
0
0
0
0
0
255
255
255
255
255
255
0
0
0
0
0
0
67
51
27
0
0
0
0
0
0
0
0
0
0
0
0
0
0
0
0
0
0
0
0
0
0
0
0
0
0
0
0
0
0
0
0
0
0
0
0
0
0
0
0
0
0
0
0
0
75
55
27
255
235
223
255
235
223
255
127
27
255
127
27
255
235
223
255
235
223
255
127
27
67
51
27
255
127
27
255
127
27
255
127
27
255
127
27
255
127
27
255
127
27
255
127
27
167
107
107
167
107
107
167
107
107
167
107
107
167
107
107
167
107
107
167
107
107
167
107
107
167
107
107
167
107
107
167
107
107
167
107
107
167
107
107
167
107
107
167
107
107
167
107
107
167
107
107
167
107
107
167
107
107
167
107
107
167
107
107
167
107
107
167
107
107
167
107
107
167
107
107
167
107
107
167
107
107
167
107
107
167
107
107
167
107
107
167
107
107
167
107
107
167
107
107
167
107
107
167
107
107
167
107
107
167
107
107
167
107
107
167
107
107
167
107
107
167
107
107
167
107
107
167
107
107
167
107
107
167
107
107
167
107
107
167
107
107
167
107
107
167
107
107
167
107
107
167
107
107
167
107
107
167
107
107
167
107
107
167
107
107
167
107
107
167
107
107
167
107
107
167
107
107
167
107
107
167
107
107
167
107
107
167
107
107
167
107
107
67
51
27
0
0
0
0
0
0
0
0
0
255
255
255
255
255
255
0
0
0
0
0
0
167
107
107
167
107
107
167
107
107
167
107
107
167
107
107
167
107
107
167
107
107
167
107
107
167
107
107
167
107
107
167
107
107
167
107
107
167
107
107
167
107
107
167
107
107
167
107
107
167
107
107
167
107
107
167
107
107
167
107
107
167
107
107
167
107
107
167
107
107
167
107
107
167
107
107
51
43
19
75
55
27
75
55
27
95
67
35
95
67
35
83
63
31
167
0
0
167
0
0
75
55
27
167
0
0
75
55
27
63
47
23
75
55
27
167
0
0
167
0
0
167
0
0
63
47
23
63
47
23
51
43
19
75
55
27
51
43
19
167
107
107
167
107
107
167
107
107
167
107
107
167
107
107
167
107
107
167
107
107
167
107
107
167
107
107
167
107
107
167
107
107
167
107
107
167
107
107
167
107
107
167
107
107
167
107
107
167
107
107
167
107
107
67
51
27
0
0
0
0
0
0
0
0
0
0
0
0
0
0
0
0
0
0
0
0
0
167
107
107
167
107
107
167
107
107
167
107
107
167
107
107
167
107
107
167
107
107
167
107
107
167
107
107
167
107
107
167
107
107
167
107
107
167
107
107
167
107
107
167
107
107
167
107
107
167
107
107
167
107
107
167
107
107
167
107
107
167
107
107
167
167
167
123
127
99
123
127
99
191
167
143
159
135
111
111
115
87
111
115
87
103
107
79
91
99
71
83
87
59
83
87
59
71
79
51
63
71
43
55
63
39
23
51
15
35
35
35
19
19
19
0
0
0
0
0
0
0
0
0
19
19
19
27
27
27
59
59
59
167
107
107
167
107
107
167
107
107
167
107
107
167
107
107
167
107
107
167
107
107
167
107
107
167
107
107
167
107
107
167
107
107
167
107
107
167
107
107
167
107
107
167
107
107
167
107
107
167
107
107
167
107
107
167
107
107
167
107
107
67
51
27
0
0
0
0
0
0
0
0
0
0
0
0
0
0
0
0
0
0
0
0
0
167
107
107
167
107
107
167
107
107
167
107
107
167
107
107
167
107
107
167
107
107
167
107
107
167
107
107
167
107
107
167
107
107
167
107
107
167
107
107
167
107
107
167
107
107
167
107
107
167
107
107
167
107
107
167
107
107
167
107
107
167
107
107
167
107
107
167
107
107
167
107
107
167
107
107
167
107
107
167
107
107
167
107
107
47
47
47
35
35
35
35
35
35
67
67
67
79
79
79
67
67
67
35
35
35
19
19
19
19
19
19
19
19
19
47
47
47
167
107
107
167
107
107
167
107
107
167
107
107
167
107
107
167
107
107
167
107
107
167
107
107
167
107
107
167
107
107
167
107
107
167
107
107
167
107
107
167
107
107
167
107
107
167
107
107
167
107
107
167
107
107
167
107
107
167
107
107
167
107
107
167
107
107
167
107
107
167
107
107
167
107
107
255
255
255
255
255
255
0
0
0
0
0
0
255
255
255
255
255
255
0
0
0
0
0
0
67
51
27
0
0
0
0
0
0
0
0
0
0
0
0
0
0
0
0
0
0
0
0
0
0
0
0
163
107
63
163
107
63
163
107
63
163
107
63
163
107
63
0
0
0
163
107
63
75
55
27
255
235
223
255
235
223
255
127
27
255
127
27
255
127
27
255
127
27
255
127
27
67
51
27
255
127
27
255
127
27
255
127
27
255
127
27
255
127
27
255
127
27
255
127
27
167
107
107
167
107
107
167
107
107
167
107
107
167
107
107
167
107
107
167
107
107
167
107
107
167
107
107
167
107
107
167
107
107
167
107
107
167
107
107
167
107
107
167
107
107
167
107
107
167
107
107
167
107
107
167
107
107
167
107
107
167
107
107
167
107
107
167
107
107
167
107
107
167
107
107
167
107
107
167
107
107
167
107
107
167
107
107
167
107
107
167
107
107
167
107
107
167
107
107
167
107
107
167
107
107
167
107
107
167
107
107
167
107
107
167
107
107
167
107
107
167
107
107
167
107
107
167
107
107
167
107
107
167
107
107
167
107
107
167
107
107
167
107
107
167
107
107
167
107
107
167
107
107
167
107
107
167
107
107
167
107
107
167
107
107
167
107
107
167
107
107
167
107
107
167
107
107
167
107
107
167
107
107
167
107
107
167
107
107
167
107
107
67
51
27
0
0
0
0
0
0
0
0
0
255
255
255
255
255
255
0
0
0
0
0
0
167
107
107
167
107
107
167
107
107
167
107
107
167
107
107
167
107
107
167
107
107
167
107
107
167
107
107
167
107
107
167
107
107
167
107
107
167
107
107
167
107
107
167
107
107
167
107
107
167
107
107
167
107
107
167
107
107
167
107
107
167
107
107
167
107
107
167
107
107
167
107
107
167
107
107
95
75
55
75
55
27
83
63
31
95
67
35
83
63
31
75
55
27
167
0
0
167
0
0
75
55
27
167
0
0
75
55
27
75
55
27
75
55
27
167
0
0
167
0
0
83
63
31
63
47
23
167
0
0
63
47
23
75
55
27
51
43
19
167
107
107
167
107
107
167
107
107
167
107
107
167
107
107
167
107
107
167
107
107
167
107
107
167
107
107
167
107
107
167
107
107
167
107
107
167
107
107
167
107
107
167
107
107
167
107
107
167
107
107
167
107
107
67
51
27
0
0
0
0
0
0
0
0
0
0
0
0
0
0
0
0
0
0
0
0
0
167
107
107
167
107
107
167
107
107
167
107
107
167
107
107
167
107
107
167
107
107
167
107
107
167
107
107
167
107
107
167
107
107
167
107
107
167
107
107
167
107
107
167
107
107
167
107
107
167
107
107
167
107
107
167
107
107
167
107
107
167
107
107
167
167
167
123
127
99
123
127
99
191
167
143
159
135
111
123
127
99
123
127
99
111
115
87
103
107
79
91
99
71
83
87
59
71
79
51
63
71
43
55
63
39
23
51
15
35
35
35
19
19
19
0
0
0
0
0
0
0
0
0
19
19
19
27
27
27
55
55
55
167
107
107
167
107
107
167
107
107
167
107
107
167
107
107
167
107
107
167
107
107
167
107
107
167
107
107
167
107
107
167
107
107
167
107
107
167
107
107
167
107
107
167
107
107
167
107
107
167
107
107
167
107
107
167
107
107
167
107
107
67
51
27
0
0
0
0
0
0
0
0
0
0
0
0
0
0
0
0
0
0
0
0
0
167
107
107
167
107
107
167
107
107
167
107
107
167
107
107
167
107
107
167
107
107
167
107
107
167
107
107
167
107
107
167
107
107
167
107
107
167
107
107
167
107
107
167
107
107
167
107
107
167
107
107
167
107
107
167
107
107
167
107
107
167
107
107
167
107
107
167
107
107
167
107
107
167
107
107
167
107
107
167
107
107
167
107
107
47
47
47
39
39
39
35
35
35
71
71
71
87
87
87
67
67
67
35
35
35
19
19
19
19
19
19
19
19
19
47
47
47
167
107
107
167
107
107
167
107
107
167
107
107
167
107
107
167
107
107
167
107
107
167
107
107
167
107
107
167
107
107
167
107
107
167
107
107
167
107
107
167
107
107
167
107
107
167
107
107
167
107
107
167
107
107
167
107
107
167
107
107
167
107
107
167
107
107
167
107
107
167
107
107
167
107
107
67
51
27
255
255
255
255
255
255
255
255
255
255
255
255
255
255
255
0
0
0
0
0
0
67
51
27
0
0
0
0
0
0
0
0
0
0
0
0
0
0
0
0
0
0
0
0
0
0
0
0
163
107
63
163
107
63
163
107
63
163
107
63
163
107
63
0
0
0
163
107
63
75
55
27
255
235
223
255
235
223
255
235
223
255
235
223
255
235
223
255
127
27
255
127
27
67
51
27
255
127
27
255
127
27
255
127
27
255
127
27
255
127
27
255
127
27
255
127
27
167
107
107
167
107
107
167
107
107
167
107
107
167
107
107
167
107
107
167
107
107
167
107
107
167
107
107
167
107
107
167
107
107
167
107
107
167
107
107
167
107
107
167
107
107
167
107
107
167
107
107
167
107
107
167
107
107
167
107
107
167
107
107
167
107
107
167
107
107
167
107
107
167
107
107
167
107
107
167
107
107
167
107
107
167
107
107
167
107
107
167
107
107
167
107
107
167
107
107
167
107
107
167
107
107
167
107
107
167
107
107
167
107
107
167
107
107
167
107
107
167
107
107
167
107
107
167
107
107
167
107
107
167
107
107
167
107
107
167
107
107
167
107
107
167
107
107
167
107
107
167
107
107
167
107
107
167
107
107
167
107
107
167
107
107
167
107
107
167
107
107
167
107
107
167
107
107
167
107
107
167
107
107
167
107
107
167
107
107
167
107
107
67
51
27
0
0
0
0
0
0
0
0
0
0
0
0
0
0
0
0
0
0
0
0
0
167
107
107
167
107
107
167
107
107
167
107
107
167
107
107
167
107
107
167
107
107
167
107
107
167
107
107
167
107
107
167
107
107
167
107
107
167
107
107
167
107
107
167
107
107
167
107
107
167
107
107
167
107
107
167
107
107
167
107
107
167
107
107
167
107
107
167
107
107
167
107
107
167
107
107
119
95
75
51
43
19
75
55
27
83
63
31
107
71
39
167
0
0
167
0
0
75
55
27
75
55
27
167
0
0
75
55
27
75
55
27
75
55
27
75
55
27
75
55
27
75
55
27
167
0
0
167
0
0
75
55
27
95
75
55
167
107
107
167
107
107
167
107
107
167
107
107
167
107
107
167
107
107
167
107
107
167
107
107
167
107
107
167
107
107
167
107
107
167
107
107
167
107
107
167
107
107
167
107
107
167
107
107
167
107
107
167
107
107
167
107
107
67
51
27
0
0
0
0
0
0
0
0
0
0
0
0
0
0
0
0
0
0
0
0
0
167
107
107
167
107
107
167
107
107
167
107
107
167
107
107
167
107
107
167
107
107
167
107
107
167
107
107
167
107
107
167
107
107
167
107
107
167
107
107
167
107
107
167
107
107
167
107
107
167
107
107
167
107
107
167
107
107
167
107
107
167
107
107
171
171
171
123
127
99
123
127
99
175
151
127
159
135
111
123
127
99
123
127
99
111
115
87
103
107
79
91
99
71
83
87
59
71
79
51
63
71
43
55
63
39
23
51
15
35
35
35
19
19
19
0
0
0
0
0
0
0
0
0
11
11
11
27
27
27
55
55
55
167
107
107
167
107
107
167
107
107
167
107
107
167
107
107
167
107
107
167
107
107
167
107
107
167
107
107
167
107
107
167
107
107
167
107
107
167
107
107
167
107
107
167
107
107
167
107
107
167
107
107
167
107
107
167
107
107
167
107
107
67
51
27
0
0
0
0
0
0
0
0
0
0
0
0
0
0
0
0
0
0
0
0
0
167
107
107
167
107
107
167
107
107
167
107
107
167
107
107
167
107
107
167
107
107
167
107
107
167
107
107
167
107
107
167
107
107
167
107
107
167
107
107
167
107
107
167
107
107
167
107
107
167
107
107
167
107
107
167
107
107
167
107
107
167
107
107
167
107
107
167
107
107
167
107
107
167
107
107
167
107
107
167
107
107
167
107
107
47
47
47
47
47
47
47
47
47
79
79
79
99
99
99
67
67
67
35
35
35
19
19
19
19
19
19
19
19
19
47
47
47
167
107
107
167
107
107
167
107
107
167
107
107
167
107
107
167
107
107
167
107
107
167
107
107
167
107
107
167
107
107
167
107
107
167
107
107
167
107
107
167
107
107
167
107
107
167
107
107
167
107
107
167
107
107
167
107
107
167
107
107
167
107
107
167
107
107
167
107
107
167
107
107
167
107
107
67
51
27
0
0
0
0
0
0
0
0
0
0
0
0
0
0
0
0
0
0
0
0
0
67
51
27
0
0
0
0
0
0
0
0
0
0
0
0
0
0
0
0
0
0
0
0
0
0
0
0
0
0
0
0
0
0
0
0
0
0
0
0
0
0
0
0
0
0
0
0
0
75
55
27
255
235
223
255
235
223
255
127
27
255
127
27
255
235
223
255
235
223
255
127
27
67
51
27
255
127
27
255
127
27
255
127
27
255
127
27
255
127
27
255
127
27
255
127
27
167
107
107
167
107
107
167
107
107
167
107
107
167
107
107
167
107
107
167
107
107
167
107
107
167
107
107
167
107
107
167
107
107
167
107
107
167
107
107
167
107
107
167
107
107
167
107
107
167
107
107
167
107
107
167
107
107
167
107
107
167
107
107
167
107
107
167
107
107
167
107
107
167
107
107
167
107
107
167
107
107
167
107
107
167
107
107
167
107
107
167
107
107
167
107
107
167
107
107
167
107
107
167
107
107
167
107
107
167
107
107
167
107
107
167
107
107
167
107
107
167
107
107
167
107
107
167
107
107
167
107
107
167
107
107
167
107
107
167
107
107
167
107
107
167
107
107
167
107
107
167
107
107
167
107
107
167
107
107
167
107
107
167
107
107
167
107
107
167
107
107
167
107
107
167
107
107
167
107
107
167
107
107
167
107
107
167
107
107
167
107
107
67
51
27
0
0
0
0
0
0
0
0
0
0
0
0
0
0
0
0
0
0
0
0
0
167
107
107
167
107
107
167
107
107
167
107
107
167
107
107
167
107
107
167
107
107
167
107
107
167
107
107
167
107
107
167
107
107
167
107
107
167
107
107
167
107
107
167
107
107
167
107
107
167
107
107
167
107
107
167
107
107
167
107
107
167
107
107
167
107
107
167
107
107
167
107
107
167
107
107
119
95
75
51
43
19
75
55
27
95
67
35
107
71
39
167
0
0
83
63
31
75
55
27
167
0
0
75
55
27
75
55
27
75
55
27
75
55
27
75
55
27
75
55
27
167
0
0
167
0
0
167
0
0
167
0
0
95
75
55
167
107
107
167
107
107
167
107
107
167
107
107
167
107
107
167
107
107
167
107
107
167
107
107
167
107
107
167
107
107
167
107
107
167
107
107
167
107
107
167
107
107
167
107
107
167
107
107
167
107
107
167
107
107
167
107
107
67
51
27
0
0
0
0
0
0
0
0
0
0
0
0
0
0
0
0
0
0
0
0
0
167
107
107
167
107
107
167
107
107
167
107
107
167
107
107
167
107
107
167
107
107
167
107
107
167
107
107
167
107
107
167
107
107
167
107
107
167
107
107
167
107
107
167
107
107
167
107
107
167
107
107
167
107
107
167
107
107
167
107
107
167
107
107
183
183
183
159
135
111
155
127
107
167
143
119
159
135
111
123
127
99
123
127
99
111
115
87
103
107
79
91
99
71
83
87
59
71
79
51
63
71
43
55
63
39
23
51
15
35
35
35
19
19
19
0
0
0
0
0
0
0
0
0
7
7
7
19
19
19
47
47
47
167
107
107
167
107
107
167
107
107
167
107
107
167
107
107
167
107
107
167
107
107
167
107
107
167
107
107
167
107
107
167
107
107
167
107
107
167
107
107
167
107
107
167
107
107
167
107
107
167
107
107
167
107
107
167
107
107
167
107
107
67
51
27
0
0
0
0
0
0
0
0
0
0
0
0
0
0
0
0
0
0
0
0
0
167
107
107
167
107
107
167
107
107
167
107
107
167
107
107
167
107
107
167
107
107
167
107
107
167
107
107
167
107
107
167
107
107
167
107
107
167
107
107
167
107
107
167
107
107
167
107
107
167
107
107
167
107
107
167
107
107
167
107
107
167
107
107
167
107
107
167
107
107
167
107
107
167
107
107
167
107
107
167
107
107
167
107
107
47
47
47
47
47
47
55
55
55
79
79
79
99
99
99
71
71
71
35
35
35
19
19
19
19
19
19
19
19
19
47
47
47
167
107
107
167
107
107
167
107
107
167
107
107
167
107
107
167
107
107
167
107
107
167
107
107
167
107
107
167
107
107
167
107
107
167
107
107
167
107
107
167
107
107
167
107
107
167
107
107
167
107
107
167
107
107
167
107
107
167
107
107
167
107
107
167
107
107
167
107
107
167
107
107
167
107
107
67
51
27
0
0
0
0
0
0
0
0
0
0
0
0
0
0
0
0
0
0
0
0
0
67
51
27
0
0
0
0
0
0
0
0
0
0
0
0
0
0
0
0
0
0
0
0
0
0
0
0
0
0
0
0
0
0
0
0
0
0
0
0
0
0
0
0
0
0
0
0
0
75
55
27
255
235
223
255
235
223
255
127
27
255
127
27
255
235
223
255
235
223
255
127
27
67
51
27
255
127
27
255
127
27
255
127
27
255
127
27
255
127
27
255
127
27
255
127
27
167
107
107
167
107
107
167
107
107
167
107
107
167
107
107
167
107
107
167
107
107
167
107
107
167
107
107
167
107
107
167
107
107
167
107
107
167
107
107
167
107
107
167
107
107
167
107
107
167
107
107
167
107
107
167
107
107
167
107
107
71
71
71
71
71
71
71
71
71
71
71
71
71
71
71
71
71
71
71
71
71
71
71
71
71
71
71
71
71
71
67
67
67
47
47
47
0
0
0
39
39
39
39
39
39
47
47
47
47
47
47
47
47
47
55
55
55
55
55
55
55
55
55
55
55
55
55
55
55
55
55
55
55
55
55
55
55
55
55
55
55
55
55
55
55
55
55
55
55
55
55
55
55
55
55
55
55
55
55
55
55
55
67
67
67
67
67
67
67
67
67
67
67
67
67
67
67
51
43
19
167
107
107
167
107
107
167
107
107
167
107
107
67
51
27
0
0
0
0
0
0
0
0
0
0
0
0
0
0
0
0
0
0
0
0
0
167
107
107
167
107
107
167
107
107
167
107
107
167
107
107
167
107
107
167
107
107
167
107
107
167
107
107
167
107
107
167
107
107
167
107
107
167
107
107
167
107
107
167
107
107
167
107
107
167
107
107
167
107
107
167
107
107
167
107
107
167
107
107
167
107
107
167
107
107
167
107
107
167
107
107
123
99
79
87
67
51
83
63
31
95
67
35
167
0
0
83
63
31
75
55
27
75
55
27
167
0
0
75
55
27
75
55
27
95
67
35
95
67
35
75
55
27
75
55
27
83
63
31
167
0
0
167
0
0
167
0
0
51
43
19
167
107
107
167
107
107
167
107
107
167
107
107
167
107
107
167
107
107
167
107
107
167
107
107
167
107
107
167
107
107
167
107
107
167
107
107
167
107
107
167
107
107
167
107
107
167
107
107
167
107
107
167
107
107
167
107
107
67
51
27
0
0
0
0
0
0
0
0
0
0
0
0
0
0
0
0
0
0
0
0
0
167
107
107
167
107
107
167
107
107
167
107
107
167
107
107
167
107
107
167
107
107
167
107
107
167
107
107
167
107
107
167
107
107
167
107
107
167
107
107
167
107
107
167
107
107
167
107
107
167
107
107
167
107
107
167
107
107
167
107
107
167
107
107
183
183
183
183
159
135
175
151
127
175
151
127
167
143
119
159
135
111
123
127
99
123
127
99
139
115
91
111
115
87
103
107
79
91
99
71
83
87
59
83
87
59
55
63
39
59
59
59
39
39
39
19
35
11
11
23
7
19
19
19
19
35
11
0
0
0
35
35
35
167
107
107
167
107
107
167
107
107
167
107
107
167
107
107
167
107
107
167
107
107
167
107
107
167
107
107
167
107
107
167
107
107
167
107
107
167
107
107
167
107
107
167
107
107
167
107
107
167
107
107
167
107
107
167
107
107
167
107
107
67
51
27
0
0
0
0
0
0
0
0
0
0
0
0
0
0
0
0
0
0
0
0
0
167
107
107
167
107
107
167
107
107
167
107
107
167
107
107
167
107
107
167
107
107
167
107
107
167
107
107
167
107
107
167
107
107
167
107
107
167
107
107
167
107
107
167
107
107
167
107
107
167
107
107
167
107
107
167
107
107
167
107
107
167
107
107
167
107
107
167
107
107
167
107
107
167
107
107
167
107
107
167
107
107
167
107
107
47
47
47
47
47
47
67
67
67
91
91
91
107
107
107
79
79
79
35
35
35
19
19
19
19
19
19
19
19
19
47
47
47
167
107
107
167
107
107
167
107
107
167
107
107
167
107
107
167
107
107
167
107
107
167
107
107
167
107
107
167
107
107
167
107
107
167
107
107
167
107
107
167
107
107
167
107
107
167
107
107
167
107
107
167
107
107
167
107
107
167
107
107
167
107
107
167
107
107
167
107
107
167
107
107
167
107
107
67
51
27
0
0
0
0
0
0
0
0
0
0
0
0
0
0
0
0
0
0
0
0
0
67
51
27
0
0
0
0
0
0
0
0
0
0
0
0
0
0
0
0
0
0
0
0
0
0
0
0
0
0
0
163
107
63
163
107
63
163
107
63
0
0
0
0
0
0
0
0
0
75
55
27
255
127
27
255
235
223
255
235
223
255
235
223
255
235
223
255
127
27
255
127
27
67
51
27
255
127
27
255
127
27
255
127
27
255
127
27
255
127
27
255
127
27
255
127
27
167
107
107
167
107
107
167
107
107
167
107
107
167
107
107
167
107
107
167
107
107
167
107
107
167
107
107
167
107
107
167
107
107
167
107
107
167
107
107
167
107
107
167
107
107
167
107
107
167
107
107
107
71
39
39
39
39
55
55
55
59
59
59
71
71
71
71
71
71
91
91
91
99
99
99
111
111
111
111
111
111
99
99
99
91
91
91
71
71
71
59
59
59
67
67
67
55
55
55
55
55
55
71
71
71
71
71
71
71
71
71
71
71
71
71
71
71
71
71
71
71
71
71
71
71
71
71
71
71
71
71
71
71
71
71
71
71
71
71
71
71
71
71
71
71
71
71
79
79
79
79
79
79
79
79
79
87
87
87
91
91
91
99
99
99
99
99
99
99
99
99
107
107
107
111
111
111
111
111
111
51
43
19
167
107
107
167
107
107
167
107
107
67
51
27
0
0
0
0
0
0
0
0
0
0
0
0
0
0
0
0
0
0
0
0
0
167
107
107
167
107
107
167
107
107
167
107
107
167
107
107
167
107
107
167
107
107
167
107
107
167
107
107
167
107
107
167
107
107
167
107
107
167
107
107
167
107
107
167
107
107
167
107
107
167
107
107
167
107
107
167
107
107
167
107
107
167
107
107
167
107
107
167
107
107
167
107
107
167
107
107
167
107
107
111
87
67
91
71
43
95
67
35
95
67
35
75
55
27
167
0
0
75
55
27
75
55
27
95
67
35
83
63
31
75
55
27
95
67
35
83
63
31
75
55
27
95
67
35
75
55
27
95
67
35
167
0
0
51
43
19
167
107
107
167
107
107
167
107
107
167
107
107
167
107
107
167
107
107
167
107
107
167
107
107
167
107
107
167
107
107
167
107
107
167
107
107
167
107
107
167
107
107
167
107
107
167
107
107
167
107
107
167
107
107
167
107
107
67
51
27
0
0
0
0
0
0
0
0
0
0
0
0
0
0
0
0
0
0
0
0
0
167
107
107
167
107
107
167
107
107
167
107
107
167
107
107
167
107
107
167
107
107
167
107
107
167
107
107
167
107
107
167
107
107
167
107
107
167
107
107
167
107
107
167
107
107
167
107
107
167
107
107
167
107
107
167
107
107
167
107
107
167
107
107
159
159
159
147
147
147
167
167
167
167
167
167
175
151
127
167
143
119
147
123
99
147
123
99
147
123
99
123
127
99
123
127
99
111
115
87
111
115
87
103
107
79
91
99
71
91
99
71
71
79
51
55
63
39
19
35
11
11
11
11
11
11
11
11
11
11
47
47
47
167
107
107
167
107
107
167
107
107
167
107
107
167
107
107
167
107
107
167
107
107
167
107
107
167
107
107
167
107
107
167
107
107
167
107
107
167
107
107
167
107
107
167
107
107
167
107
107
167
107
107
167
107
107
167
107
107
167
107
107
67
51
27
0
0
0
0
0
0
0
0
0
0
0
0
0
0
0
0
0
0
0
0
0
167
107
107
167
107
107
167
107
107
167
107
107
167
107
107
167
107
107
167
107
107
167
107
107
167
107
107
167
107
107
167
107
107
167
107
107
167
107
107
167
107
107
167
107
107
167
107
107
167
107
107
167
107
107
167
107
107
167
107
107
167
107
107
167
107
107
167
107
107
167
107
107
167
107
107
167
107
107
167
107
107
167
107
107
47
47
47
47
47
47
67
67
67
99
99
99
119
119
119
91
91
91
39
39
39
19
19
19
19
19
19
19
19
19
51
43
19
167
107
107
167
107
107
167
107
107
167
107
107
167
107
107
167
107
107
167
107
107
167
107
107
167
107
107
167
107
107
167
107
107
167
107
107
167
107
107
167
107
107
167
107
107
167
107
107
167
107
107
167
107
107
167
107
107
167
107
107
167
107
107
167
107
107
167
107
107
167
107
107
167
107
107
67
51
27
0
0
0
0
0
0
0
0
0
0
0
0
0
0
0
0
0
0
0
0
0
67
51
27
0
0
0
0
0
0
0
0
0
0
0
0
0
0
0
0
0
0
0
0
0
0
0
0
163
107
63
163
107
63
163
107
63
163
107
63
163
107
63
0
0
0
0
0
0
75
55
27
75
55
27
75
55
27
75
55
27
67
51
27
67
51
27
67
51
27
67
51
27
67
51
27
67
51
27
67
51
27
67
51
27
67
51
27
67
51
27
67
51
27
67
51
27
167
107
107
167
107
107
167
107
107
167
107
107
167
107
107
167
107
107
167
107
107
167
107
107
167
107
107
167
107
107
167
107
107
167
107
107
167
107
107
119
79
43
119
79
43
95
67
35
83
63
31
83
63
31
35
35
35
39
39
39
47
47
47
55
55
55
63
71
43
55
55
55
35
35
35
35
35
35
35
35
35
59
59
59
71
71
71
59
59
59
47
47
47
67
67
67
0
0
0
11
11
11
11
11
11
59
59
59
59
59
59
71
71
71
79
79
79
79
79
79
87
87
87
87
87
87
87
87
87
87
87
87
87
87
87
87
87
87
87
87
87
87
87
87
87
87
87
87
87
87
87
87
87
87
87
87
11
11
11
11
11
11
11
11
11
11
11
11
11
11
11
27
27
27
27
27
27
27
27
27
27
27
27
167
107
107
167
107
107
167
107
107
67
51
27
67
51
27
67
51
27
67
51
27
67
51
27
67
51
27
67
51
27
67
51
27
167
107
107
167
107
107
167
107
107
167
107
107
167
107
107
167
107
107
167
107
107
167
107
107
167
107
107
167
107
107
167
107
107
167
107
107
167
107
107
167
107
107
167
107
107
167
107
107
167
107
107
167
107
107
167
107
107
167
107
107
167
107
107
167
107
107
167
107
107
167
107
107
167
107
107
167
107
107
119
95
75
95
75
55
95
67
35
95
67
35
107
71
39
83
63
31
75
55
27
75
55
27
83
63
31
83
63
31
95
67
35
95
67
35
83
63
31
83
63
31
95
67
35
95
67
35
95
67
35
51
43
19
167
107
107
167
107
107
167
107
107
167
107
107
167
107
107
167
107
107
167
107
107
167
107
107
167
107
107
167
107
107
167
107
107
167
107
107
167
107
107
167
107
107
167
107
107
167
107
107
167
107
107
167
107
107
167
107
107
167
107
107
67
51
27
67
51
27
67
51
27
67
51
27
67
51
27
67
51
27
67
51
27
67
51
27
167
107
107
167
107
107
167
107
107
167
107
107
167
107
107
167
107
107
167
107
107
167
107
107
167
107
107
167
107
107
167
107
107
167
107
107
167
107
107
167
107
107
167
107
107
167
107
107
167
107
107
167
107
107
167
107
107
167
107
107
167
107
107
139
139
139
111
115
87
123
127
99
139
115
91
103
107
79
103
107
79
91
99
71
91
99
71
91
99
71
83
87
59
71
79
51
71
79
51
63
71
43
71
79
51
63
71
43
55
63
39
47
47
47
19
35
11
11
23
7
0
0
0
11
11
11
11
11
11
47
47
47
167
107
107
167
107
107
167
107
107
167
107
107
167
107
107
167
107
107
167
107
107
167
107
107
167
107
107
167
107
107
167
107
107
167
107
107
167
107
107
167
107
107
167
107
107
167
107
107
167
107
107
167
107
107
167
107
107
167
107
107
67
51
27
67
51
27
67
51
27
67
51
27
67
51
27
67
51
27
67
51
27
67
51
27
167
107
107
167
107
107
167
107
107
167
107
107
167
107
107
167
107
107
167
107
107
167
107
107
167
107
107
167
107
107
167
107
107
167
107
107
167
107
107
167
107
107
167
107
107
167
107
107
167
107
107
167
107
107
167
107
107
167
107
107
167
107
107
167
107
107
167
107
107
167
107
107
167
107
107
167
107
107
167
107
107
167
107
107
47
47
47
47
47
47
67
67
67
99
99
99
131
131
131
91
91
91
47
47
47
19
19
19
19
19
19
19
19
19
39
39
39
167
107
107
167
107
107
167
107
107
167
107
107
167
107
107
167
107
107
167
107
107
167
107
107
167
107
107
167
107
107
167
107
107
167
107
107
167
107
107
167
107
107
167
107
107
167
107
107
167
107
107
167
107
107
167
107
107
167
107
107
167
107
107
167
107
107
167
107
107
167
107
107
167
107
107
67
51
27
67
51
27
67
51
27
67
51
27
67
51
27
67
51
27
67
51
27
67
51
27
67
51
27
67
51
27
67
51
27
67
51
27
67
51
27
67
51
27
67
51
27
67
51
27
0
0
0
163
107
63
0
0
0
0
0
0
0
0
0
163
107
63
0
0
0
0
0
0
75
55
27
255
235
223
255
235
223
255
235
223
255
235
223
255
235
223
255
235
223
255
127
27
67
51
27
255
127
27
255
127
27
255
127
27
255
127
27
255
127
27
255
127
27
255
127
27
167
107
107
167
107
107
167
107
107
167
107
107
167
107
107
167
107
107
167
107
107
167
107
107
119
79
43
119
79
43
119
79
43
107
71
39
107
71
39
95
67
35
95
67
35
83
63
31
83
63
31
51
43
19
31
23
11
35
35
35
35
35
35
47
47
47
55
55
55
55
63
39
55
63
39
67
67
67
63
71
43
63
71
43
59
59
59
55
55
55
47
47
47
67
67
67
71
71
71
39
39
39
11
11
11
59
59
59
27
27
27
27
27
27
27
27
27
27
27
27
27
27
27
27
27
27
27
27
27
27
27
27
27
27
27
27
27
27
27
27
27
27
27
27
27
27
27
27
27
27
27
27
27
71
71
71
11
11
11
11
11
11
11
11
11
11
11
11
167
107
107
167
107
107
167
107
107
167
107
107
167
107
107
167
107
107
167
107
107
167
107
107
67
51
27
0
0
0
0
0
0
0
0
0
0
0
0
0
0
0
0
0
0
0
0
0
167
107
107
167
107
107
167
107
107
167
107
107
167
107
107
167
107
107
167
107
107
167
107
107
167
107
107
167
107
107
167
107
107
167
107
107
167
107
107
167
107
107
167
107
107
167
107
107
167
107
107
167
107
107
167
107
107
167
107
107
167
107
107
167
107
107
167
107
107
167
107
107
167
107
107
167
107
107
167
107
107
103
83
63
91
71
43
95
67
35
95
67
35
83
63
31
75
55
27
75
55
27
83
63
31
83
63
31
83
63
31
83
63
31
75
55
27
75
55
27
75
55
27
83
63
31
75
55
27
51
43
19
167
107
107
167
107
107
167
107
107
167
107
107
167
107
107
167
107
107
167
107
107
167
107
107
167
107
107
167
107
107
167
107
107
167
107
107
167
107
107
167
107
107
167
107
107
167
107
107
167
107
107
167
107
107
167
107
107
167
107
107
67
51
27
0
0
0
0
0
0
0
0
0
0
0
0
0
0
0
0
0
0
0
0
0
167
107
107
167
107
107
167
107
107
167
107
107
167
107
107
167
107
107
167
107
107
167
107
107
167
107
107
167
107
107
167
107
107
167
107
107
167
107
107
167
107
107
167
107
107
167
107
107
167
107
107
167
107
107
167
107
107
167
107
107
167
107
107
159
159
159
111
115
87
123
99
79
119
95
75
83
87
59
63
71
43
55
63
39
55
55
55
47
47
47
39
39
39
35
35
35
27
27
27
19
19
19
19
19
19
19
19
19
11
11
11
11
11
11
19
19
19
11
11
11
11
11
11
27
27
27
35
35
35
35
35
35
167
107
107
167
107
107
167
107
107
167
107
107
167
107
107
167
107
107
167
107
107
167
107
107
167
107
107
167
107
107
167
107
107
167
107
107
167
107
107
167
107
107
167
107
107
167
107
107
167
107
107
167
107
107
167
107
107
167
107
107
67
51
27
0
0
0
0
0
0
0
0
0
0
0
0
0
0
0
0
0
0
0
0
0
167
107
107
167
107
107
167
107
107
167
107
107
167
107
107
167
107
107
167
107
107
167
107
107
167
107
107
167
107
107
167
107
107
167
107
107
167
107
107
167
107
107
167
107
107
167
107
107
167
107
107
167
107
107
167
107
107
167
107
107
167
107
107
167
107
107
167
107
107
167
107
107
167
107
107
167
107
107
167
107
107
167
107
107
55
55
55
67
67
67
87
87
87
119
119
119
139
139
139
111
111
111
71
71
71
47
47
47
39
39
39
39
39
39
55
55
55
167
107
107
167
107
107
167
107
107
167
107
107
167
107
107
167
107
107
167
107
107
167
107
107
167
107
107
167
107
107
167
107
107
167
107
107
167
107
107
167
107
107
167
107
107
167
107
107
167
107
107
167
107
107
167
107
107
167
107
107
167
107
107
167
107
107
167
107
107
167
107
107
167
107
107
67
51
27
0
0
0
0
0
0
0
0
0
0
0
0
0
0
0
0
0
0
0
0
0
67
51
27
0
0
0
0
0
0
0
0
0
0
0
0
0
0
0
0
0
0
0
0
0
0
0
0
163
107
63
0
0
0
0
0
0
0
0
0
163
107
63
0
0
0
0
0
0
75
55
27
255
235
223
255
235
223
255
127
27
255
127
27
255
235
223
255
235
223
255
127
27
67
51
27
255
127
27
255
127
27
255
127
27
255
127
27
255
127
27
255
127
27
255
127
27
167
107
107
167
107
107
167
107
107
75
55
27
83
63
31
119
79
43
107
71
39
107
71
39
107
71
39
107
71
39
107
71
39
107
71
39
95
67
35
95
67
35
83
63
31
75
55
27
63
47
23
27
27
27
31
23
11
31
23
11
35
35
35
39
39
39
47
47
47
55
55
55
55
55
55
55
55
55
59
59
59
59
59
59
55
55
55
47
47
47
47
47
47
59
59
59
167
107
107
167
107
107
167
107
107
67
67
67
27
27
27
27
27
27
27
27
27
27
27
27
27
27
27
27
27
27
27
27
27
27
27
27
27
27
27
27
27
27
27
27
27
27
27
27
27
27
27
27
27
27
27
27
27
67
67
67
167
107
107
167
107
107
167
107
107
167
107
107
167
107
107
167
107
107
167
107
107
167
107
107
167
107
107
167
107
107
167
107
107
167
107
107
67
51
27
0
0
0
0
0
0
0
0
0
0
0
0
0
0
0
0
0
0
0
0
0
167
107
107
167
107
107
167
107
107
167
107
107
167
107
107
167
107
107
167
107
107
167
107
107
167
107
107
167
107
107
167
107
107
167
107
107
167
107
107
167
107
107
167
107
107
167
107
107
167
107
107
167
107
107
167
107
107
167
107
107
167
107
107
167
107
107
167
107
107
167
107
107
167
107
107
167
107
107
167
107
107
111
87
67
91
71
43
83
63
31
83
63
31
75
55
27
75
55
27
83
63
31
83
63
31
75
55
27
75
55
27
75
55
27
75
55
27
75
55
27
75
55
27
75
55
27
75
55
27
51
43
19
167
107
107
167
107
107
167
107
107
167
107
107
167
107
107
167
107
107
167
107
107
167
107
107
167
107
107
167
107
107
167
107
107
167
107
107
167
107
107
167
107
107
167
107
107
167
107
107
167
107
107
167
107
107
167
107
107
167
107
107
67
51
27
0
0
0
0
0
0
0
0
0
0
0
0
0
0
0
0
0
0
0
0
0
167
107
107
167
107
107
167
107
107
167
107
107
167
107
107
167
107
107
167
107
107
167
107
107
167
107
107
167
107
107
167
107
107
167
107
107
167
107
107
167
107
107
167
107
107
167
107
107
167
107
107
167
107
107
167
107
107
167
107
107
167
107
107
167
167
167
123
127
99
147
123
99
167
143
119
139
115
91
83
87
59
71
79
51
59
59
59
47
47
47
39
39
39
39
39
39
27
27
27
19
35
11
19
19
19
11
23
7
11
11
11
0
0
0
19
19
19
19
19
19
19
19
19
19
19
19
27
27
27
55
55
55
167
107
107
167
107
107
167
107
107
167
107
107
167
107
107
167
107
107
167
107
107
167
107
107
167
107
107
167
107
107
167
107
107
167
107
107
167
107
107
167
107
107
167
107
107
167
107
107
167
107
107
167
107
107
167
107
107
167
107
107
67
51
27
0
0
0
0
0
0
0
0
0
0
0
0
0
0
0
0
0
0
0
0
0
167
107
107
167
107
107
167
107
107
167
107
107
167
107
107
167
107
107
167
107
107
167
107
107
167
107
107
167
107
107
167
107
107
167
107
107
167
107
107
167
107
107
167
107
107
167
107
107
167
107
107
167
107
107
167
107
107
167
107
107
167
107
107
167
107
107
167
107
107
167
107
107
167
107
107
167
107
107
47
47
47
35
35
35
67
67
67
79
79
79
99
99
99
99
99
99
87
87
87
79
79
79
87
87
87
71
71
71
71
71
71
71
71
71
55
55
55
39
39
39
35
35
35
167
107
107
167
107
107
167
107
107
167
107
107
167
107
107
167
107
107
167
107
107
167
107
107
167
107
107
167
107
107
167
107
107
167
107
107
167
107
107
167
107
107
167
107
107
167
107
107
167
107
107
167
107
107
167
107
107
167
107
107
167
107
107
167
107
107
167
107
107
67
51
27
0
0
0
0
0
0
0
0
0
0
0
0
0
0
0
0
0
0
0
0
0
67
51
27
0
0
0
0
0
0
0
0
0
0
0
0
0
0
0
0
0
0
0
0
0
0
0
0
163
107
63
0
0
0
0
0
0
0
0
0
163
107
63
0
0
0
0
0
0
75
55
27
255
127
27
255
127
27
255
127
27
255
235
223
255
235
223
255
127
27
255
127
27
67
51
27
255
127
27
255
127
27
255
127
27
255
127
27
255
127
27
255
127
27
255
127
27
167
107
107
167
107
107
51
43
19
63
47
23
83
63
31
107
71
39
83
63
31
83
63
31
83
63
31
83
63
31
83
63
31
83
63
31
83
63
31
63
47
23
51
43
19
51
43
19
27
27
27
27
27
27
167
107
107
167
107
107
167
107
107
167
107
107
27
27
27
27
27
27
167
107
107
39
39
39
27
27
27
167
107
107
167
107
107
167
107
107
167
107
107
167
107
107
167
107
107
167
107
107
167
107
107
167
107
107
55
55
55
27
27
27
27
27
27
27
27
27
27
27
27
27
27
27
27
27
27
27
27
27
27
27
27
27
27
27
27
27
27
27
27
27
27
27
27
27
27
27
55
55
55
167
107
107
167
107
107
167
107
107
167
107
107
167
107
107
167
107
107
167
107
107
167
107
107
167
107
107
167
107
107
167
107
107
167
107
107
167
107
107
67
51
27
0
0
0
0
0
0
0
0
0
0
0
0
0
0
0
0
0
0
0
0
0
167
107
107
167
107
107
167
107
107
167
107
107
167
107
107
167
107
107
167
107
107
167
107
107
167
107
107
167
107
107
167
107
107
167
107
107
167
107
107
167
107
107
167
107
107
167
107
107
167
107
107
167
107
107
167
107
107
167
107
107
167
107
107
167
107
107
167
107
107
167
107
107
167
107
107
167
107
107
167
107
107
119
95
75
95
75
55
75
55
27
75
55
27
75
55
27
75
55
27
75
55
27
75
55
27
75
55
27
75
55
27
75
55
27
75
55
27
75
55
27
75
55
27
75
55
27
51
43
19
167
107
107
167
107
107
167
107
107
167
107
107
167
107
107
167
107
107
167
107
107
167
107
107
167
107
107
167
107
107
167
107
107
167
107
107
167
107
107
167
107
107
167
107
107
167
107
107
167
107
107
167
107
107
167
107
107
167
107
107
167
107
107
67
51
27
0
0
0
0
0
0
0
0
0
0
0
0
0
0
0
0
0
0
0
0
0
167
107
107
167
107
107
167
107
107
167
107
107
167
107
107
167
107
107
167
107
107
167
107
107
167
107
107
167
107
107
167
107
107
167
107
107
167
107
107
167
107
107
167
107
107
167
107
107
167
107
107
167
107
107
167
107
107
167
107
107
167
107
107
167
167
167
123
127
99
147
123
99
191
167
143
159
135
111
111
115
87
111
115
87
103
107
79
91
99
71
83
87
59
83
87
59
71
79
51
63
71
43
55
63
39
23
51
15
35
35
35
19
19
19
0
0
0
0
0
0
0
0
0
19
19
19
27
27
27
55
55
55
167
107
107
167
107
107
167
107
107
167
107
107
167
107
107
167
107
107
167
107
107
167
107
107
167
107
107
167
107
107
167
107
107
167
107
107
167
107
107
167
107
107
167
107
107
167
107
107
167
107
107
167
107
107
167
107
107
167
107
107
67
51
27
0
0
0
0
0
0
0
0
0
0
0
0
0
0
0
0
0
0
0
0
0
167
107
107
167
107
107
167
107
107
167
107
107
167
107
107
167
107
107
167
107
107
167
107
107
167
107
107
167
107
107
167
107
107
167
107
107
167
107
107
167
107
107
167
107
107
167
107
107
167
107
107
167
107
107
167
107
107
167
107
107
167
107
107
167
107
107
167
107
107
167
107
107
167
107
107
167
107
107
167
107
107
47
47
47
27
27
27
27
27
27
55
55
55
99
99
99
119
119
119
79
79
79
35
35
35
0
0
0
0
0
0
0
0
0
11
11
11
47
47
47
167
107
107
167
107
107
167
107
107
167
107
107
167
107
107
167
107
107
167
107
107
167
107
107
167
107
107
167
107
107
167
107
107
167
107
107
167
107
107
167
107
107
167
107
107
167
107
107
167
107
107
167
107
107
167
107
107
167
107
107
167
107
107
167
107
107
167
107
107
167
107
107
67
51
27
0
0
0
0
0
0
0
0
0
0
0
0
0
0
0
0
0
0
0
0
0
67
51
27
0
0
0
0
0
0
0
0
0
0
0
0
0
0
0
0
0
0
0
0
0
0
0
0
163
107
63
0
0
0
0
0
0
0
0
0
163
107
63
0
0
0
0
0
0
75
55
27
255
127
27
255
127
27
255
235
223
255
235
223
255
127
27
255
127
27
255
127
27
67
51
27
255
127
27
255
127
27
255
127
27
255
127
27
255
127
27
255
127
27
255
127
27
167
107
107
167
107
107
51
43
19
51
43
19
75
55
27
83
63
31
75
55
27
75
55
27
75
55
27
75
55
27
63
47
23
51
43
19
43
35
15
27
27
27
0
0
0
167
107
107
167
107
107
167
107
107
167
107
107
167
107
107
167
107
107
167
107
107
167
107
107
55
55
55
27
27
27
35
35
35
167
107
107
167
107
107
167
107
107
167
107
107
167
107
107
167
107
107
167
107
107
167
107
107
167
107
107
167
107
107
167
107
107
167
107
107
167
107
107
167
107
107
167
107
107
167
107
107
167
107
107
167
107
107
167
107
107
167
107
107
167
107
107
167
107
107
167
107
107
167
107
107
167
107
107
167
107
107
167
107
107
167
107
107
167
107
107
167
107
107
167
107
107
167
107
107
167
107
107
167
107
107
167
107
107
167
107
107
167
107
107
167
107
107
67
51
27
0
0
0
0
0
0
0
0
0
0
0
0
0
0
0
0
0
0
0
0
0
167
107
107
167
107
107
167
107
107
167
107
107
167
107
107
167
107
107
167
107
107
167
107
107
167
107
107
167
107
107
167
107
107
167
107
107
167
107
107
167
107
107
167
107
107
167
107
107
167
107
107
167
107
107
167
107
107
167
107
107
167
107
107
167
107
107
167
107
107
167
107
107
167
107
107
167
107
107
167
107
107
167
107
107
95
75
55
83
63
31
75
55
27
75
55
27
75
55
27
75
55
27
75
55
27
75
55
27
75
55
27
83
63
31
83
63
31
83
63
31
75
55
27
75
55
27
51
43
19
167
107
107
167
107
107
167
107
107
167
107
107
167
107
107
167
107
107
167
107
107
167
107
107
167
107
107
167
107
107
167
107
107
167
107
107
167
107
107
167
107
107
167
107
107
167
107
107
167
107
107
167
107
107
167
107
107
167
107
107
167
107
107
67
51
27
0
0
0
0
0
0
0
0
0
0
0
0
0
0
0
0
0
0
0
0
0
167
107
107
167
107
107
167
107
107
167
107
107
167
107
107
167
107
107
167
107
107
167
107
107
167
107
107
167
107
107
167
107
107
167
107
107
167
107
107
167
107
107
167
107
107
167
107
107
167
107
107
167
107
107
167
107
107
167
107
107
167
107
107
167
167
167
123
127
99
147
123
99
191
167
143
159
135
111
123
127
99
111
115
87
111
115
87
103
107
79
91
99
71
83
87
59
71
79
51
63
71
43
55
63
39
23
51
15
35
35
35
19
19
19
0
0
0
0
0
0
0
0
0
19
19
19
27
27
27
55
55
55
167
107
107
167
107
107
167
107
107
167
107
107
167
107
107
167
107
107
167
107
107
167
107
107
167
107
107
167
107
107
167
107
107
167
107
107
167
107
107
167
107
107
167
107
107
167
107
107
167
107
107
167
107
107
167
107
107
167
107
107
67
51
27
0
0
0
0
0
0
0
0
0
0
0
0
0
0
0
0
0
0
0
0
0
167
107
107
167
107
107
167
107
107
167
107
107
167
107
107
167
107
107
167
107
107
167
107
107
167
107
107
167
107
107
167
107
107
167
107
107
167
107
107
167
107
107
167
107
107
167
107
107
167
107
107
167
107
107
167
107
107
167
107
107
167
107
107
167
107
107
167
107
107
167
107
107
167
107
107
167
107
107
167
107
107
47
47
47
35
35
35
67
67
67
119
119
119
127
127
127
151
151
151
139
139
139
99
99
99
55
55
55
47
47
47
47
47
47
47
47
47
47
47
47
167
107
107
167
107
107
167
107
107
167
107
107
167
107
107
167
107
107
167
107
107
167
107
107
167
107
107
167
107
107
167
107
107
167
107
107
167
107
107
167
107
107
167
107
107
167
107
107
167
107
107
167
107
107
167
107
107
167
107
107
167
107
107
167
107
107
167
107
107
167
107
107
67
51
27
0
0
0
0
0
0
0
0
0
0
0
0
0
0
0
0
0
0
0
0
0
67
51
27
0
0
0
0
0
0
0
0
0
0
0
0
0
0
0
0
0
0
0
0
0
0
0
0
0
0
0
0
0
0
0
0
0
0
0
0
0
0
0
0
0
0
0
0
0
75
55
27
255
127
27
255
127
27
255
235
223
255
235
223
255
127
27
255
127
27
255
127
27
67
51
27
255
127
27
255
127
27
255
127
27
255
127
27
255
127
27
255
127
27
255
127
27
167
107
107
167
107
107
167
107
107
43
35
15
63
47
23
75
55
27
75
55
27
63
47
23
51
43
19
43
35
15
43
35
15
27
27
27
0
0
0
167
107
107
167
107
107
167
107
107
167
107
107
167
107
107
167
107
107
167
107
107
167
107
107
167
107
107
167
107
107
167
107
107
167
107
107
167
107
107
167
107
107
167
107
107
167
107
107
167
107
107
167
107
107
167
107
107
167
107
107
167
107
107
167
107
107
167
107
107
167
107
107
167
107
107
167
107
107
167
107
107
167
107
107
167
107
107
167
107
107
167
107
107
167
107
107
167
107
107
167
107
107
167
107
107
167
107
107
167
107
107
167
107
107
167
107
107
167
107
107
167
107
107
167
107
107
167
107
107
167
107
107
167
107
107
167
107
107
167
107
107
167
107
107
167
107
107
167
107
107
167
107
107
67
51
27
0
0
0
0
0
0
0
0
0
0
0
0
0
0
0
0
0
0
0
0
0
167
107
107
167
107
107
167
107
107
167
107
107
167
107
107
167
107
107
167
107
107
167
107
107
167
107
107
167
107
107
167
107
107
167
107
107
167
107
107
167
107
107
167
107
107
167
107
107
167
107
107
167
107
107
167
107
107
167
107
107
167
107
107
167
107
107
167
107
107
167
107
107
167
107
107
167
107
107
167
107
107
167
107
107
111
87
67
79
59
35
75
55
27
75
55
27
75
55
27
75
55
27
75
55
27
75
55
27
95
67
35
51
43
19
51
43
19
95
67
35
75
55
27
75
55
27
51
43
19
167
107
107
167
107
107
167
107
107
167
107
107
167
107
107
167
107
107
167
107
107
167
107
107
167
107
107
167
107
107
167
107
107
167
107
107
167
107
107
167
107
107
167
107
107
167
107
107
167
107
107
167
107
107
167
107
107
167
107
107
167
107
107
67
51
27
0
0
0
0
0
0
0
0
0
0
0
0
0
0
0
0
0
0
0
0
0
167
107
107
167
107
107
167
107
107
167
107
107
167
107
107
167
107
107
167
107
107
167
107
107
167
107
107
167
107
107
167
107
107
167
107
107
167
107
107
167
107
107
167
107
107
167
107
107
167
107
107
167
107
107
167
107
107
167
107
107
167
107
107
183
183
183
155
127
107
159
131
99
175
151
127
159
135
111
123
127
99
123
127
99
111
115
87
103
107
79
91
99
71
83
87
59
71
79
51
63
71
43
55
63
39
23
51
15
35
35
35
19
19
19
0
0
0
0
0
0
0
0
0
19
19
19
27
27
27
47
47
47
167
107
107
167
107
107
167
107
107
167
107
107
167
107
107
167
107
107
167
107
107
167
107
107
167
107
107
167
107
107
167
107
107
167
107
107
167
107
107
167
107
107
167
107
107
167
107
107
167
107
107
167
107
107
167
107
107
167
107
107
67
51
27
0
0
0
0
0
0
0
0
0
0
0
0
0
0
0
0
0
0
0
0
0
167
107
107
167
107
107
167
107
107
167
107
107
167
107
107
167
107
107
167
107
107
167
107
107
167
107
107
167
107
107
167
107
107
167
107
107
167
107
107
167
107
107
167
107
107
167
107
107
167
107
107
167
107
107
167
107
107
167
107
107
167
107
107
167
107
107
167
107
107
167
107
107
167
107
107
167
107
107
47
47
47
35
35
35
71
71
71
119
119
119
107
107
107
99
99
99
91
91
91
91
91
91
87
87
87
75
75
75
67
67
67
59
59
59
55
55
55
51
43
19
39
39
39
167
107
107
167
107
107
167
107
107
167
107
107
167
107
107
167
107
107
167
107
107
167
107
107
167
107
107
167
107
107
167
107
107
167
107
107
167
107
107
167
107
107
167
107
107
167
107
107
167
107
107
167
107
107
167
107
107
167
107
107
167
107
107
167
107
107
167
107
107
67
51
27
0
0
0
0
0
0
0
0
0
0
0
0
0
0
0
0
0
0
0
0
0
67
51
27
0
0
0
0
0
0
0
0
0
0
0
0
0
0
0
0
0
0
0
0
0
0
0
0
0
0
0
0
0
0
0
0
0
0
0
0
0
0
0
0
0
0
0
0
0
75
55
27
255
127
27
255
127
27
255
235
223
255
235
223
255
127
27
255
127
27
255
127
27
67
51
27
255
127
27
255
127
27
255
127
27
255
127
27
255
127
27
255
127
27
255
127
27
167
107
107
167
107
107
167
107
107
27
27
27
43
35
15
63
47
23
51
43
19
43
35
15
43
35
15
0
0
0
0
0
0
167
107
107
167
107
107
167
107
107
167
107
107
167
107
107
167
107
107
167
107
107
167
107
107
167
107
107
167
107
107
167
107
107
167
107
107
167
107
107
167
107
107
167
107
107
167
107
107
167
107
107
167
107
107
167
107
107
167
107
107
167
107
107
167
107
107
167
107
107
167
107
107
167
107
107
167
107
107
167
107
107
167
107
107
167
107
107
167
107
107
167
107
107
167
107
107
167
107
107
167
107
107
167
107
107
167
107
107
167
107
107
167
107
107
167
107
107
167
107
107
167
107
107
167
107
107
167
107
107
167
107
107
167
107
107
167
107
107
167
107
107
167
107
107
167
107
107
167
107
107
167
107
107
167
107
107
167
107
107
67
51
27
0
0
0
0
0
0
0
0
0
0
0
0
0
0
0
0
0
0
0
0
0
167
107
107
167
107
107
167
107
107
167
107
107
167
107
107
167
107
107
167
107
107
167
107
107
167
107
107
167
107
107
167
107
107
167
107
107
167
107
107
167
107
107
167
107
107
167
107
107
167
107
107
167
107
107
167
107
107
167
107
107
167
107
107
167
107
107
167
107
107
167
107
107
167
107
107
167
107
107
167
107
107
167
107
107
123
99
79
91
71
43
75
55
27
83
63
31
75
55
27
75
55
27
75
55
27
95
67
35
51
43
19
51
43
19
51
43
19
83
63
31
75
55
27
51
43
19
167
107
107
167
107
107
167
107
107
167
107
107
167
107
107
167
107
107
167
107
107
167
107
107
167
107
107
167
107
107
167
107
107
167
107
107
167
107
107
167
107
107
167
107
107
167
107
107
167
107
107
167
107
107
167
107
107
167
107
107
167
107
107
167
107
107
67
51
27
0
0
0
0
0
0
0
0
0
0
0
0
0
0
0
0
0
0
0
0
0
167
107
107
167
107
107
167
107
107
167
107
107
167
107
107
167
107
107
167
107
107
167
107
107
167
107
107
167
107
107
167
107
107
167
107
107
167
107
107
167
107
107
167
107
107
167
107
107
167
107
107
167
107
107
167
107
107
167
107
107
167
107
107
183
183
183
175
151
127
167
143
119
183
159
135
167
143
119
123
127
99
123
127
99
123
127
99
139
115
91
111
115
87
103
107
79
91
99
71
83
87
59
83
87
59
55
63
39
59
59
59
39
39
39
19
35
11
11
23
7
19
19
19
19
19
19
19
35
11
35
35
35
167
107
107
167
107
107
167
107
107
167
107
107
167
107
107
167
107
107
167
107
107
167
107
107
167
107
107
167
107
107
167
107
107
167
107
107
167
107
107
167
107
107
167
107
107
167
107
107
167
107
107
167
107
107
167
107
107
167
107
107
67
51
27
0
0
0
0
0
0
0
0
0
0
0
0
0
0
0
0
0
0
0
0
0
167
107
107
167
107
107
167
107
107
167
107
107
167
107
107
167
107
107
167
107
107
167
107
107
167
107
107
167
107
107
167
107
107
167
107
107
167
107
107
167
107
107
167
107
107
167
107
107
167
107
107
167
107
107
167
107
107
167
107
107
167
107
107
167
107
107
167
107
107
167
107
107
167
107
107
167
107
107
167
107
107
47
47
47
35
35
35
0
0
0
47
47
47
99
99
99
127
127
127
99
99
99
35
35
35
0
0
0
0
0
0
0
0
0
0
0
0
47
47
47
167
107
107
167
107
107
167
107
107
167
107
107
167
107
107
167
107
107
167
107
107
167
107
107
167
107
107
167
107
107
167
107
107
167
107
107
167
107
107
167
107
107
167
107
107
167
107
107
167
107
107
167
107
107
167
107
107
167
107
107
167
107
107
167
107
107
167
107
107
167
107
107
67
51
27
0
0
0
0
0
0
0
0
0
0
0
0
0
0
0
0
0
0
0
0
0
67
51
27
0
0
0
0
0
0
0
0
0
0
0
0
0
0
0
0
0
0
0
0
0
0
0
0
163
107
63
0
0
0
0
0
0
163
107
63
0
0
0
0
0
0
0
0
0
75
55
27
255
127
27
255
127
27
255
235
223
255
235
223
255
127
27
255
127
27
255
127
27
67
51
27
255
127
27
255
127
27
255
127
27
255
127
27
255
127
27
255
127
27
255
127
27
167
107
107
167
107
107
167
107
107
19
19
19
27
27
27
43
35
15
43
35
15
0
0
0
0
0
0
167
107
107
167
107
107
167
107
107
167
107
107
167
107
107
167
107
107
167
107
107
167
107
107
167
107
107
167
107
107
167
107
107
167
107
107
167
107
107
167
107
107
167
107
107
167
107
107
167
107
107
167
107
107
167
107
107
167
107
107
167
107
107
167
107
107
167
107
107
167
107
107
167
107
107
167
107
107
167
107
107
167
107
107
167
107
107
167
107
107
167
107
107
167
107
107
167
107
107
167
107
107
167
107
107
167
107
107
167
107
107
167
107
107
167
107
107
167
107
107
167
107
107
167
107
107
167
107
107
167
107
107
167
107
107
167
107
107
167
107
107
167
107
107
167
107
107
167
107
107
167
107
107
167
107
107
167
107
107
167
107
107
167
107
107
67
51
27
0
0
0
0
0
0
0
0
0
0
0
0
0
0
0
0
0
0
0
0
0
167
107
107
167
107
107
167
107
107
167
107
107
167
107
107
167
107
107
167
107
107
167
107
107
167
107
107
167
107
107
167
107
107
167
107
107
167
107
107
167
107
107
167
107
107
167
107
107
167
107
107
167
107
107
167
107
107
167
107
107
167
107
107
167
107
107
167
107
107
167
107
107
167
107
107
167
107
107
167
107
107
167
107
107
119
95
75
95
75
55
75
55
27
95
67
35
83
63
31
75
55
27
75
55
27
95
67
35
51
43
19
51
43
19
95
67
35
83
63
31
75
55
27
51
43
19
167
107
107
167
107
107
167
107
107
167
107
107
167
107
107
167
107
107
167
107
107
167
107
107
167
107
107
167
107
107
167
107
107
167
107
107
167
107
107
167
107
107
167
107
107
167
107
107
167
107
107
167
107
107
167
107
107
167
107
107
167
107
107
167
107
107
67
51
27
0
0
0
0
0
0
0
0
0
0
0
0
0
0
0
0
0
0
0
0
0
167
107
107
167
107
107
167
107
107
167
107
107
167
107
107
167
107
107
167
107
107
167
107
107
167
107
107
167
107
107
167
107
107
167
107
107
167
107
107
167
107
107
167
107
107
167
107
107
167
107
107
167
107
107
167
107
107
167
107
107
167
107
107
159
159
159
167
143
119
175
151
127
167
167
167
167
143
119
155
127
107
147
123
99
147
123
99
147
123
99
123
127
99
123
127
99
111
115
87
111
115
87
103
107
79
91
99
71
91
99
71
71
79
51
55
63
39
19
35
11
11
11
11
19
19
19
27
27
27
47
47
47
167
107
107
167
107
107
167
107
107
167
107
107
167
107
107
167
107
107
167
107
107
167
107
107
167
107
107
167
107
107
167
107
107
167
107
107
167
107
107
167
107
107
167
107
107
167
107
107
167
107
107
167
107
107
167
107
107
167
107
107
67
51
27
0
0
0
0
0
0
0
0
0
0
0
0
0
0
0
0
0
0
0
0
0
167
107
107
167
107
107
167
107
107
167
107
107
167
107
107
167
107
107
167
107
107
167
107
107
167
107
107
167
107
107
167
107
107
167
107
107
167
107
107
167
107
107
167
107
107
167
107
107
167
107
107
167
107
107
167
107
107
167
107
107
167
107
107
167
107
107
167
107
107
167
107
107
167
107
107
167
107
107
167
107
107
47
47
47
35
35
35
67
67
67
119
119
119
139
139
139
151
151
151
147
147
147
99
99
99
71
71
71
47
47
47
47
47
47
47
47
47
35
35
35
167
107
107
167
107
107
167
107
107
167
107
107
167
107
107
167
107
107
167
107
107
167
107
107
167
107
107
167
107
107
167
107
107
167
107
107
167
107
107
167
107
107
167
107
107
167
107
107
167
107
107
167
107
107
167
107
107
167
107
107
167
107
107
167
107
107
167
107
107
167
107
107
67
51
27
0
0
0
0
0
0
0
0
0
0
0
0
0
0
0
0
0
0
0
0
0
67
51
27
0
0
0
0
0
0
0
0
0
0
0
0
0
0
0
0
0
0
0
0
0
0
0
0
163
107
63
0
0
0
163
107
63
163
107
63
163
107
63
0
0
0
0
0
0
75
55
27
75
55
27
75
55
27
75
55
27
67
51
27
67
51
27
67
51
27
67
51
27
67
51
27
67
51
27
67
51
27
67
51
27
67
51
27
67
51
27
67
51
27
67
51
27
167
107
107
167
107
107
167
107
107
167
107
107
0
0
0
0
0
0
0
0
0
167
107
107
167
107
107
167
107
107
167
107
107
167
107
107
167
107
107
167
107
107
167
107
107
167
107
107
167
107
107
167
107
107
167
107
107
167
107
107
167
107
107
167
107
107
167
107
107
167
107
107
167
107
107
167
107
107
167
107
107
167
107
107
167
107
107
167
107
107
167
107
107
167
107
107
167
107
107
167
107
107
167
107
107
167
107
107
167
107
107
167
107
107
167
107
107
167
107
107
167
107
107
167
107
107
167
107
107
167
107
107
167
107
107
167
107
107
167
107
107
167
107
107
167
107
107
167
107
107
167
107
107
167
107
107
167
107
107
167
107
107
167
107
107
167
107
107
167
107
107
167
107
107
167
107
107
167
107
107
167
107
107
167
107
107
167
107
107
167
107
107
67
51
27
67
51
27
67
51
27
67
51
27
67
51
27
67
51
27
67
51
27
67
51
27
167
107
107
167
107
107
167
107
107
167
107
107
167
107
107
167
107
107
167
107
107
167
107
107
167
107
107
167
107
107
167
107
107
167
107
107
167
107
107
167
107
107
167
107
107
167
107
107
167
107
107
167
107
107
167
107
107
167
107
107
167
107
107
167
107
107
167
107
107
167
107
107
167
107
107
167
107
107
167
107
107
167
107
107
167
107
107
95
75
55
83
63
31
95
67
35
83
63
31
83
63
31
95
67
35
75
55
27
75
55
27
75
55
27
83
63
31
75
55
27
75
55
27
51
43
19
167
107
107
167
107
107
167
107
107
167
107
107
167
107
107
167
107
107
167
107
107
167
107
107
167
107
107
167
107
107
167
107
107
167
107
107
167
107
107
167
107
107
167
107
107
167
107
107
167
107
107
167
107
107
167
107
107
167
107
107
167
107
107
167
107
107
67
51
27
67
51
27
67
51
27
67
51
27
67
51
27
67
51
27
67
51
27
67
51
27
167
107
107
167
107
107
167
107
107
167
107
107
167
107
107
167
107
107
167
107
107
167
107
107
167
107
107
167
107
107
167
107
107
167
107
107
167
107
107
167
107
107
167
107
107
167
107
107
167
107
107
167
107
107
167
107
107
167
107
107
167
107
107
139
139
139
111
115
87
123
127
99
139
115
91
103
107
79
103
107
79
91
99
71
91
99
71
91
99
71
83
87
59
71
79
51
71
79
51
63
71
43
71
79
51
63
71
43
55
63
39
47
47
47
19
35
11
11
23
7
0
0
0
19
19
19
35
35
35
55
55
55
167
107
107
167
107
107
167
107
107
167
107
107
167
107
107
167
107
107
167
107
107
167
107
107
167
107
107
167
107
107
167
107
107
167
107
107
167
107
107
167
107
107
167
107
107
167
107
107
167
107
107
167
107
107
167
107
107
167
107
107
67
51
27
67
51
27
67
51
27
67
51
27
67
51
27
67
51
27
67
51
27
67
51
27
167
107
107
167
107
107
167
107
107
167
107
107
167
107
107
167
107
107
167
107
107
167
107
107
167
107
107
167
107
107
167
107
107
167
107
107
167
107
107
167
107
107
167
107
107
167
107
107
167
107
107
167
107
107
167
107
107
167
107
107
167
107
107
167
107
107
167
107
107
167
107
107
167
107
107
167
107
107
47
47
47
35
35
35
71
71
71
119
119
119
99
99
99
99
99
99
91
91
91
87
87
87
87
87
87
71
71
71
71
71
71
67
67
67
55
55
55
47
47
47
35
35
35
167
107
107
167
107
107
167
107
107
167
107
107
167
107
107
167
107
107
167
107
107
167
107
107
167
107
107
167
107
107
167
107
107
167
107
107
167
107
107
167
107
107
167
107
107
167
107
107
167
107
107
167
107
107
167
107
107
167
107
107
167
107
107
167
107
107
167
107
107
67
51
27
67
51
27
67
51
27
67
51
27
67
51
27
67
51
27
67
51
27
67
51
27
67
51
27
67
51
27
67
51
27
67
51
27
67
51
27
67
51
27
67
51
27
67
51
27
0
0
0
163
107
63
0
0
0
163
107
63
0
0
0
163
107
63
0
0
0
0
0
0
75
55
27
255
127
27
255
235
223
255
235
223
255
235
223
255
235
223
255
127
27
255
127
27
67
51
27
255
127
27
255
127
27
255
127
27
255
127
27
255
127
27
255
127
27
255
127
27
167
107
107
167
107
107
167
107
107
167
107
107
167
107
107
167
107
107
167
107
107
167
107
107
167
107
107
167
107
107
167
107
107
167
107
107
167
107
107
167
107
107
167
107
107
167
107
107
167
107
107
167
107
107
167
107
107
167
107
107
167
107
107
167
107
107
167
107
107
167
107
107
167
107
107
167
107
107
167
107
107
167
107
107
167
107
107
167
107
107
167
107
107
167
107
107
167
107
107
167
107
107
167
107
107
167
107
107
167
107
107
167
107
107
167
107
107
167
107
107
167
107
107
167
107
107
167
107
107
167
107
107
167
107
107
167
107
107
167
107
107
167
107
107
167
107
107
167
107
107
167
107
107
167
107
107
167
107
107
167
107
107
167
107
107
167
107
107
167
107
107
167
107
107
167
107
107
167
107
107
167
107
107
167
107
107
167
107
107
167
107
107
67
51
27
0
0
0
0
0
0
0
0
0
0
0
0
0
0
0
0
0
0
0
0
0
167
107
107
167
107
107
167
107
107
167
107
107
167
107
107
167
107
107
167
107
107
167
107
107
167
107
107
167
107
107
167
107
107
167
107
107
167
107
107
167
107
107
167
107
107
167
107
107
167
107
107
167
107
107
167
107
107
167
107
107
167
107
107
167
107
107
167
107
107
167
107
107
167
107
107
167
107
107
167
107
107
167
107
107
167
107
107
95
75
55
83
63
31
83
63
31
95
67
35
83
63
31
83
63
31
95
67
35
95
67
35
83
63
31
75
55
27
75
55
27
75
55
27
51
43
19
167
107
107
167
107
107
167
107
107
167
107
107
167
107
107
167
107
107
167
107
107
167
107
107
167
107
107
167
107
107
167
107
107
167
107
107
167
107
107
167
107
107
167
107
107
167
107
107
167
107
107
167
107
107
167
107
107
167
107
107
167
107
107
167
107
107
67
51
27
0
0
0
0
0
0
0
0
0
0
0
0
0
0
0
0
0
0
0
0
0
167
107
107
167
107
107
167
107
107
167
107
107
167
107
107
167
107
107
167
107
107
167
107
107
167
107
107
167
107
107
167
107
107
167
107
107
167
107
107
167
107
107
167
107
107
167
107
107
167
107
107
167
107
107
167
107
107
167
107
107
167
107
107
159
159
159
111
115
87
103
107
79
119
95
75
95
75
55
71
79
51
63
71
43
55
63
39
47
47
47
39
39
39
35
35
35
27
27
27
19
19
19
19
19
19
19
19
19
11
11
11
11
11
11
19
19
19
11
11
11
0
0
0
19
19
19
35
35
35
47
47
47
167
107
107
167
107
107
167
107
107
167
107
107
167
107
107
167
107
107
167
107
107
167
107
107
167
107
107
167
107
107
167
107
107
167
107
107
167
107
107
167
107
107
167
107
107
167
107
107
167
107
107
167
107
107
167
107
107
167
107
107
67
51
27
0
0
0
0
0
0
0
0
0
0
0
0
0
0
0
0
0
0
0
0
0
167
107
107
167
107
107
167
107
107
167
107
107
167
107
107
167
107
107
167
107
107
167
107
107
167
107
107
167
107
107
167
107
107
167
107
107
167
107
107
167
107
107
167
107
107
167
107
107
167
107
107
167
107
107
167
107
107
167
107
107
167
107
107
167
107
107
167
107
107
167
107
107
167
107
107
167
107
107
167
107
107
47
47
47
35
35
35
0
0
0
47
47
47
87
87
87
119
119
119
87
87
87
39
39
39
11
11
11
0
0
0
0
0
0
0
0
0
47
47
47
167
107
107
167
107
107
167
107
107
167
107
107
167
107
107
167
107
107
167
107
107
167
107
107
167
107
107
167
107
107
167
107
107
167
107
107
167
107
107
167
107
107
167
107
107
167
107
107
167
107
107
167
107
107
167
107
107
167
107
107
167
107
107
167
107
107
167
107
107
167
107
107
67
51
27
0
0
0
0
0
0
0
0
0
0
0
0
0
0
0
0
0
0
0
0
0
67
51
27
0
0
0
0
0
0
0
0
0
0
0
0
0
0
0
0
0
0
0
0
0
0
0
0
163
107
63
0
0
0
163
107
63
0
0
0
163
107
63
0
0
0
0
0
0
75
55
27
255
235
223
255
235
223
255
127
27
255
127
27
255
235
223
255
235
223
255
127
27
67
51
27
255
127
27
255
127
27
255
127
27
255
127
27
255
127
27
255
127
27
255
127
27
167
107
107
167
107
107
167
107
107
167
107
107
167
107
107
167
107
107
167
107
107
167
107
107
167
107
107
167
107
107
167
107
107
167
107
107
167
107
107
167
107
107
167
107
107
167
107
107
167
107
107
167
107
107
167
107
107
167
107
107
167
107
107
167
107
107
167
107
107
167
107
107
167
107
107
167
107
107
167
107
107
167
107
107
167
107
107
167
107
107
167
107
107
167
107
107
167
107
107
167
107
107
167
107
107
167
107
107
167
107
107
167
107
107
167
107
107
167
107
107
167
107
107
167
107
107
167
107
107
167
107
107
167
107
107
167
107
107
167
107
107
167
107
107
167
107
107
167
107
107
167
107
107
167
107
107
167
107
107
167
107
107
167
107
107
167
107
107
167
107
107
167
107
107
167
107
107
167
107
107
167
107
107
167
107
107
167
107
107
167
107
107
67
51
27
0
0
0
0
0
0
0
0
0
0
0
0
0
0
0
0
0
0
0
0
0
167
107
107
167
107
107
167
107
107
167
107
107
167
107
107
167
107
107
167
107
107
167
107
107
167
107
107
167
107
107
167
107
107
167
107
107
167
107
107
167
107
107
167
107
107
167
107
107
167
107
107
167
107
107
167
107
107
167
107
107
167
107
107
167
107
107
167
107
107
167
107
107
167
107
107
167
107
107
167
107
107
167
107
107
167
107
107
119
95
75
51
43
19
83
63
31
95
67
35
83
63
31
75
55
27
75
55
27
83
63
31
75
55
27
75
55
27
75
55
27
51
43
19
167
107
107
167
107
107
167
107
107
167
107
107
167
107
107
167
107
107
167
107
107
167
107
107
167
107
107
167
107
107
167
107
107
167
107
107
167
107
107
167
107
107
167
107
107
167
107
107
167
107
107
167
107
107
167
107
107
167
107
107
167
107
107
167
107
107
167
107
107
67
51
27
0
0
0
0
0
0
0
0
0
0
0
0
0
0
0
0
0
0
0
0
0
167
107
107
167
107
107
167
107
107
167
107
107
167
107
107
167
107
107
167
107
107
167
107
107
167
107
107
167
107
107
167
107
107
167
107
107
167
107
107
167
107
107
167
107
107
167
107
107
167
107
107
167
107
107
167
107
107
167
107
107
167
107
107
167
167
167
123
127
99
123
127
99
167
143
119
147
123
99
91
99
71
83
87
59
67
67
67
47
47
47
47
47
47
39
39
39
27
27
27
19
35
11
19
19
19
11
23
7
11
11
11
0
0
0
19
19
19
19
19
19
0
0
0
19
19
19
27
27
27
47
47
47
167
107
107
167
107
107
167
107
107
167
107
107
167
107
107
167
107
107
167
107
107
167
107
107
167
107
107
167
107
107
167
107
107
167
107
107
167
107
107
167
107
107
167
107
107
167
107
107
167
107
107
167
107
107
167
107
107
167
107
107
67
51
27
0
0
0
0
0
0
0
0
0
0
0
0
0
0
0
0
0
0
0
0
0
167
107
107
167
107
107
167
107
107
167
107
107
167
107
107
167
107
107
167
107
107
167
107
107
167
107
107
167
107
107
167
107
107
167
107
107
167
107
107
167
107
107
167
107
107
167
107
107
167
107
107
167
107
107
167
107
107
167
107
107
167
107
107
167
107
107
167
107
107
167
107
107
167
107
107
55
55
55
59
59
59
67
67
67
67
67
67
67
67
67
119
119
119
139
139
139
151
151
151
139
139
139
99
99
99
75
75
75
47
47
47
47
47
47
47
47
47
47
47
47
55
55
55
55
55
55
167
107
107
167
107
107
167
107
107
167
107
107
167
107
107
167
107
107
167
107
107
167
107
107
167
107
107
167
107
107
167
107
107
167
107
107
167
107
107
167
107
107
167
107
107
167
107
107
167
107
107
167
107
107
167
107
107
167
107
107
167
107
107
167
107
107
67
51
27
0
0
0
0
0
0
0
0
0
0
0
0
0
0
0
0
0
0
0
0
0
67
51
27
0
0
0
0
0
0
0
0
0
0
0
0
0
0
0
0
0
0
0
0
0
0
0
0
163
107
63
163
107
63
163
107
63
0
0
0
163
107
63
0
0
0
0
0
0
75
55
27
255
235
223
255
235
223
255
127
27
255
127
27
255
235
223
255
235
223
255
127
27
67
51
27
255
127
27
255
127
27
255
127
27
255
127
27
255
127
27
255
127
27
255
127
27
167
107
107
167
107
107
167
107
107
167
107
107
167
107
107
167
107
107
167
107
107
167
107
107
167
107
107
167
107
107
167
107
107
167
107
107
167
107
107
167
107
107
167
107
107
167
107
107
167
107
107
167
107
107
167
107
107
167
107
107
167
107
107
167
107
107
167
107
107
167
107
107
167
107
107
167
107
107
167
107
107
167
107
107
167
107
107
167
107
107
167
107
107
167
107
107
167
107
107
167
107
107
167
107
107
167
107
107
167
107
107
167
107
107
167
107
107
167
107
107
167
107
107
167
107
107
167
107
107
167
107
107
167
107
107
167
107
107
167
107
107
167
107
107
167
107
107
167
107
107
167
107
107
167
107
107
167
107
107
167
107
107
167
107
107
167
107
107
167
107
107
167
107
107
167
107
107
167
107
107
167
107
107
167
107
107
167
107
107
167
107
107
67
51
27
0
0
0
0
0
0
0
0
0
0
0
0
0
0
0
0
0
0
0
0
0
167
107
107
167
107
107
167
107
107
167
107
107
167
107
107
167
107
107
167
107
107
167
107
107
167
107
107
167
107
107
167
107
107
167
107
107
167
107
107
167
107
107
167
107
107
167
107
107
167
107
107
167
107
107
167
107
107
167
107
107
167
107
107
167
107
107
167
107
107
167
107
107
167
107
107
167
107
107
167
107
107
167
107
107
167
107
107
167
107
107
51
43
19
91
71
43
95
67
35
83
63
31
75
55
27
75
55
27
75
55
27
75
55
27
75
55
27
75
55
27
51
43
19
167
107
107
167
107
107
167
107
107
167
107
107
167
107
107
167
107
107
167
107
107
167
107
107
167
107
107
167
107
107
167
107
107
167
107
107
167
107
107
167
107
107
167
107
107
167
107
107
167
107
107
167
107
107
167
107
107
167
107
107
167
107
107
167
107
107
167
107
107
67
51
27
0
0
0
0
0
0
0
0
0
0
0
0
0
0
0
0
0
0
0
0
0
167
107
107
167
107
107
167
107
107
167
107
107
167
107
107
167
107
107
167
107
107
167
107
107
167
107
107
167
107
107
167
107
107
167
107
107
167
107
107
167
107
107
167
107
107
167
107
107
167
107
107
167
107
107
167
107
107
167
107
107
167
107
107
167
167
167
155
127
107
123
127
99
175
151
127
159
135
111
123
127
99
111
115
87
103
107
79
91
99
71
91
99
71
83
87
59
71
79
51
63
71
43
55
63
39
23
51
15
35
35
35
19
19
19
0
0
0
0
0
0
0
0
0
19
19
19
27
27
27
55
55
55
167
107
107
167
107
107
167
107
107
167
107
107
167
107
107
167
107
107
167
107
107
167
107
107
167
107
107
167
107
107
167
107
107
167
107
107
167
107
107
167
107
107
167
107
107
167
107
107
167
107
107
167
107
107
167
107
107
167
107
107
67
51
27
0
0
0
0
0
0
0
0
0
0
0
0
0
0
0
0
0
0
0
0
0
167
107
107
167
107
107
167
107
107
167
107
107
167
107
107
167
107
107
167
107
107
167
107
107
167
107
107
167
107
107
167
107
107
167
107
107
167
107
107
167
107
107
167
107
107
167
107
107
167
107
107
167
107
107
167
107
107
167
107
107
167
107
107
167
107
107
167
107
107
59
59
59
59
59
59
59
59
59
67
67
67
75
75
75
79
79
79
91
91
91
107
107
107
119
119
119
139
139
139
147
147
147
139
139
139
119
119
119
107
107
107
87
87
87
71
71
71
67
67
67
59
59
59
59
59
59
59
59
59
59
59
59
167
107
107
167
107
107
167
107
107
167
107
107
167
107
107
167
107
107
167
107
107
167
107
107
167
107
107
167
107
107
167
107
107
167
107
107
167
107
107
167
107
107
167
107
107
167
107
107
167
107
107
167
107
107
167
107
107
167
107
107
67
51
27
0
0
0
0
0
0
0
0
0
0
0
0
0
0
0
0
0
0
0
0
0
67
51
27
0
0
0
0
0
0
0
0
0
0
0
0
0
0
0
0
0
0
0
0
0
0
0
0
0
0
0
163
107
63
0
0
0
0
0
0
163
107
63
0
0
0
0
0
0
75
55
27
255
127
27
255
235
223
255
235
223
255
235
223
255
235
223
255
127
27
255
127
27
67
51
27
255
127
27
255
127
27
255
127
27
255
127
27
255
127
27
255
127
27
255
127
27
167
107
107
167
107
107
167
107
107
167
107
107
167
107
107
167
107
107
167
107
107
167
107
107
167
107
107
167
107
107
167
107
107
167
107
107
167
107
107
167
107
107
167
107
107
167
107
107
167
107
107
167
107
107
167
107
107
167
107
107
167
107
107
167
107
107
167
107
107
167
107
107
167
107
107
167
107
107
167
107
107
167
107
107
167
107
107
167
107
107
167
107
107
167
107
107
167
107
107
167
107
107
167
107
107
167
107
107
167
107
107
167
107
107
167
107
107
167
107
107
167
107
107
167
107
107
167
107
107
167
107
107
167
107
107
167
107
107
167
107
107
167
107
107
167
107
107
167
107
107
167
107
107
167
107
107
167
107
107
167
107
107
167
107
107
167
107
107
167
107
107
167
107
107
167
107
107
167
107
107
167
107
107
167
107
107
167
107
107
167
107
107
67
51
27
0
0
0
0
0
0
0
0
0
0
0
0
0
0
0
0
0
0
0
0
0
167
107
107
167
107
107
167
107
107
167
107
107
167
107
107
167
107
107
167
107
107
167
107
107
167
107
107
167
107
107
167
107
107
167
107
107
167
107
107
167
107
107
167
107
107
167
107
107
167
107
107
167
107
107
167
107
107
167
107
107
167
107
107
167
107
107
167
107
107
167
107
107
167
107
107
167
107
107
167
107
107
167
107
107
167
107
107
167
107
107
167
107
107
119
95
75
95
75
55
51
43
19
51
43
19
51
43
19
51
43
19
51
43
19
51
43
19
51
43
19
167
107
107
167
107
107
167
107
107
167
107
107
167
107
107
167
107
107
167
107
107
167
107
107
167
107
107
167
107
107
167
107
107
167
107
107
167
107
107
167
107
107
167
107
107
167
107
107
167
107
107
167
107
107
167
107
107
167
107
107
167
107
107
167
107
107
167
107
107
167
107
107
67
51
27
0
0
0
0
0
0
0
0
0
0
0
0
0
0
0
0
0
0
0
0
0
167
107
107
167
107
107
167
107
107
167
107
107
167
107
107
167
107
107
167
107
107
167
107
107
167
107
107
167
107
107
167
107
107
167
107
107
167
107
107
167
107
107
167
107
107
167
107
107
167
107
107
167
107
107
167
107
107
167
107
107
167
107
107
147
147
147
159
135
111
123
127
99
167
143
119
167
143
119
123
127
99
123
127
99
139
115
91
103
107
79
103
107
79
91
99
71
83
87
59
71
79
51
71
79
51
55
63
39
47
47
47
35
35
35
0
0
0
0
0
0
0
0
0
19
19
19
11
11
11
47
47
47
167
107
107
167
107
107
167
107
107
167
107
107
167
107
107
167
107
107
167
107
107
167
107
107
167
107
107
167
107
107
167
107
107
167
107
107
167
107
107
167
107
107
167
107
107
167
107
107
167
107
107
167
107
107
167
107
107
167
107
107
67
51
27
0
0
0
0
0
0
0
0
0
0
0
0
0
0
0
0
0
0
0
0
0
167
107
107
167
107
107
167
107
107
167
107
107
167
107
107
167
107
107
167
107
107
167
107
107
167
107
107
167
107
107
167
107
107
167
107
107
167
107
107
167
107
107
167
107
107
167
107
107
167
107
107
167
107
107
167
107
107
167
107
107
167
107
107
167
107
107
59
59
59
67
67
67
67
67
67
67
67
67
75
75
75
79
79
79
87
87
87
91
91
91
99
99
99
99
99
99
107
107
107
111
111
111
107
107
107
99
99
99
99
99
99
91
91
91
87
87
87
79
79
79
75
75
75
67
67
67
67
67
67
59
59
59
59
59
59
167
107
107
167
107
107
167
107
107
167
107
107
167
107
107
167
107
107
167
107
107
167
107
107
167
107
107
167
107
107
167
107
107
167
107
107
167
107
107
167
107
107
167
107
107
167
107
107
167
107
107
167
107
107
167
107
107
67
51
27
0
0
0
0
0
0
0
0
0
0
0
0
0
0
0
0
0
0
0
0
0
67
51
27
0
0
0
0
0
0
0
0
0
0
0
0
0
0
0
0
0
0
0
0
0
0
0
0
0
0
0
0
0
0
0
0
0
0
0
0
0
0
0
0
0
0
0
0
0
75
55
27
255
235
223
255
235
223
255
127
27
255
127
27
255
235
223
255
235
223
255
127
27
67
51
27
255
127
27
255
127
27
255
127
27
255
127
27
255
127
27
255
127
27
255
127
27
167
107
107
167
107
107
167
107
107
167
107
107
167
107
107
167
107
107
167
107
107
167
107
107
167
107
107
167
107
107
167
107
107
167
107
107
167
107
107
167
107
107
167
107
107
167
107
107
167
107
107
167
107
107
167
107
107
167
107
107
167
107
107
167
107
107
167
107
107
167
107
107
167
107
107
167
107
107
167
107
107
167
107
107
167
107
107
167
107
107
167
107
107
167
107
107
167
107
107
167
107
107
167
107
107
167
107
107
167
107
107
167
107
107
167
107
107
167
107
107
167
107
107
167
107
107
167
107
107
167
107
107
167
107
107
167
107
107
167
107
107
167
107
107
167
107
107
167
107
107
167
107
107
167
107
107
167
107
107
167
107
107
167
107
107
167
107
107
167
107
107
167
107
107
167
107
107
167
107
107
167
107
107
167
107
107
167
107
107
167
107
107
67
51
27
0
0
0
0
0
0
0
0
0
0
0
0
0
0
0
0
0
0
0
0
0
167
107
107
167
107
107
167
107
107
167
107
107
167
107
107
167
107
107
167
107
107
167
107
107
167
107
107
167
107
107
167
107
107
167
107
107
167
107
107
167
107
107
167
107
107
167
107
107
167
107
107
167
107
107
167
107
107
167
107
107
167
107
107
167
107
107
167
107
107
167
107
107
167
107
107
167
107
107
167
107
107
167
107
107
167
107
107
167
107
107
167
107
107
167
107
107
167
107
107
167
107
107
167
107
107
167
107
107
167
107
107
167
107
107
167
107
107
167
107
107
167
107
107
167
107
107
167
107
107
167
107
107
167
107
107
167
107
107
167
107
107
167
107
107
167
107
107
167
107
107
167
107
107
167
107
107
167
107
107
167
107
107
167
107
107
167
107
107
167
107
107
167
107
107
167
107
107
167
107
107
167
107
107
167
107
107
167
107
107
167
107
107
67
51
27
0
0
0
0
0
0
0
0
0
0
0
0
0
0
0
0
0
0
0
0
0
167
107
107
167
107
107
167
107
107
167
107
107
167
107
107
167
107
107
167
107
107
167
107
107
167
107
107
167
107
107
167
107
107
167
107
107
167
107
107
167
107
107
167
107
107
167
107
107
167
107
107
167
107
107
167
107
107
167
107
107
167
107
107
111
115
87
123
127
99
139
115
91
139
115
91
123
127
99
139
115
91
123
99
79
123
99
79
87
87
87
83
87
59
71
79
51
71
79
51
63
71
43
63
71
43
55
63
39
39
39
39
35
35
35
11
11
11
11
11
11
11
11
11
27
27
27
0
0
0
35
35
35
167
107
107
167
107
107
167
107
107
167
107
107
167
107
107
167
107
107
167
107
107
167
107
107
167
107
107
167
107
107
167
107
107
167
107
107
167
107
107
167
107
107
167
107
107
167
107
107
167
107
107
167
107
107
167
107
107
167
107
107
67
51
27
0
0
0
0
0
0
0
0
0
0
0
0
0
0
0
0
0
0
0
0
0
167
107
107
167
107
107
167
107
107
167
107
107
167
107
107
167
107
107
167
107
107
167
107
107
167
107
107
167
107
107
167
107
107
167
107
107
167
107
107
167
107
107
167
107
107
167
107
107
167
107
107
167
107
107
167
107
107
167
107
107
167
107
107
167
107
107
67
67
67
71
71
71
71
71
71
75
75
75
75
75
75
87
87
87
91
91
91
99
99
99
99
99
99
107
107
107
111
111
111
119
119
119
111
111
111
107
107
107
99
99
99
99
99
99
91
91
91
87
87
87
75
75
75
75
75
75
71
71
71
75
75
75
71
71
71
167
107
107
167
107
107
167
107
107
167
107
107
167
107
107
167
107
107
167
107
107
167
107
107
167
107
107
167
107
107
167
107
107
167
107
107
167
107
107
167
107
107
167
107
107
167
107
107
167
107
107
167
107
107
167
107
107
67
51
27
0
0
0
0
0
0
0
0
0
0
0
0
0
0
0
0
0
0
0
0
0
67
51
27
0
0
0
0
0
0
0
0
0
0
0
0
0
0
0
0
0
0
0
0
0
0
0
0
0
0
0
0
0
0
0
0
0
0
0
0
0
0
0
0
0
0
0
0
0
75
55
27
255
235
223
255
235
223
255
127
27
255
127
27
255
235
223
255
235
223
255
127
27
67
51
27
255
127
27
255
127
27
255
127
27
255
127
27
255
127
27
255
127
27
255
127
27
167
107
107
167
107
107
167
107
107
167
107
107
167
107
107
167
107
107
167
107
107
167
107
107
167
107
107
167
107
107
167
107
107
167
107
107
167
107
107
167
107
107
167
107
107
167
107
107
167
107
107
167
107
107
167
107
107
167
107
107
167
107
107
167
107
107
167
107
107
167
107
107
167
107
107
167
107
107
167
107
107
167
107
107
167
107
107
167
107
107
167
107
107
167
107
107
167
107
107
167
107
107
167
107
107
167
107
107
167
107
107
167
107
107
167
107
107
167
107
107
167
107
107
167
107
107
167
107
107
167
107
107
167
107
107
167
107
107
167
107
107
167
107
107
167
107
107
167
107
107
167
107
107
167
107
107
167
107
107
167
107
107
167
107
107
167
107
107
167
107
107
167
107
107
167
107
107
167
107
107
167
107
107
167
107
107
167
107
107
167
107
107
67
51
27
0
0
0
0
0
0
0
0
0
0
0
0
0
0
0
0
0
0
0
0
0
167
107
107
167
107
107
167
107
107
167
107
107
167
107
107
167
107
107
167
107
107
167
107
107
167
107
107
167
107
107
167
107
107
167
107
107
167
107
107
167
107
107
167
107
107
167
107
107
167
107
107
167
107
107
167
107
107
167
107
107
167
107
107
167
107
107
167
107
107
167
107
107
167
107
107
167
107
107
167
107
107
167
107
107
167
107
107
167
107
107
167
107
107
167
107
107
167
107
107
167
107
107
167
107
107
167
107
107
167
107
107
167
107
107
167
107
107
167
107
107
167
107
107
167
107
107
167
107
107
167
107
107
167
107
107
167
107
107
167
107
107
167
107
107
167
107
107
167
107
107
167
107
107
167
107
107
167
107
107
167
107
107
167
107
107
167
107
107
167
107
107
167
107
107
167
107
107
167
107
107
167
107
107
167
107
107
167
107
107
167
107
107
67
51
27
0
0
0
0
0
0
0
0
0
0
0
0
0
0
0
0
0
0
0
0
0
167
107
107
167
107
107
167
107
107
167
107
107
167
107
107
167
107
107
167
107
107
167
107
107
167
107
107
167
107
107
167
107
107
167
107
107
167
107
107
167
107
107
167
107
107
167
107
107
167
107
107
167
107
107
167
107
107
167
107
107
167
107
107
167
107
107
167
107
107
83
87
59
83
87
59
83
87
59
83
87
59
47
47
47
35
35
35
35
35
35
35
35
35
19
19
19
19
19
19
19
19
19
19
19
19
0
0
0
0
0
0
0
0
0
0
0
0
0
0
0
0
0
0
35
35
35
167
107
107
167
107
107
167
107
107
167
107
107
167
107
107
167
107
107
167
107
107
167
107
107
167
107
107
167
107
107
167
107
107
167
107
107
167
107
107
167
107
107
167
107
107
167
107
107
167
107
107
167
107
107
167
107
107
167
107
107
167
107
107
167
107
107
67
51
27
0
0
0
0
0
0
0
0
0
0
0
0
0
0
0
0
0
0
0
0
0
167
107
107
167
107
107
167
107
107
167
107
107
167
107
107
167
107
107
167
107
107
167
107
107
167
107
107
167
107
107
167
107
107
167
107
107
167
107
107
167
107
107
167
107
107
167
107
107
167
107
107
167
107
107
167
107
107
167
107
107
167
107
107
167
107
107
167
107
107
167
107
107
75
75
75
75
75
75
79
79
79
91
91
91
99
99
99
99
99
99
107
107
107
111
111
111
119
119
119
127
127
127
119
119
119
111
111
111
107
107
107
99
99
99
99
99
99
91
91
91
79
79
79
75
75
75
75
75
75
167
107
107
167
107
107
167
107
107
167
107
107
167
107
107
167
107
107
167
107
107
167
107
107
167
107
107
167
107
107
167
107
107
167
107
107
167
107
107
167
107
107
167
107
107
167
107
107
167
107
107
167
107
107
167
107
107
167
107
107
167
107
107
67
51
27
0
0
0
0
0
0
0
0
0
0
0
0
0
0
0
0
0
0
0
0
0
67
51
27
0
0
0
0
0
0
0
0
0
0
0
0
0
0
0
0
0
0
0
0
0
0
0
0
0
0
0
0
0
0
0
0
0
0
0
0
0
0
0
0
0
0
0
0
0
75
55
27
255
127
27
255
235
223
255
235
223
255
235
223
255
235
223
255
127
27
255
127
27
67
51
27
255
127
27
255
127
27
255
127
27
255
127
27
255
127
27
255
127
27
255
127
27
167
107
107
167
107
107
167
107
107
167
107
107
167
107
107
167
107
107
167
107
107
167
107
107
167
107
107
167
107
107
167
107
107
167
107
107
167
107
107
167
107
107
167
107
107
167
107
107
167
107
107
167
107
107
167
107
107
167
107
107
167
107
107
167
107
107
167
107
107
167
107
107
167
107
107
167
107
107
167
107
107
167
107
107
167
107
107
167
107
107
167
107
107
167
107
107
167
107
107
167
107
107
167
107
107
167
107
107
167
107
107
167
107
107
167
107
107
167
107
107
167
107
107
167
107
107
167
107
107
167
107
107
167
107
107
167
107
107
167
107
107
167
107
107
167
107
107
167
107
107
167
107
107
167
107
107
167
107
107
167
107
107
167
107
107
167
107
107
167
107
107
167
107
107
167
107
107
167
107
107
167
107
107
167
107
107
167
107
107
167
107
107
67
51
27
0
0
0
0
0
0
0
0
0
0
0
0
0
0
0
0
0
0
0
0
0
167
107
107
167
107
107
167
107
107
167
107
107
167
107
107
167
107
107
167
107
107
167
107
107
167
107
107
167
107
107
167
107
107
167
107
107
167
107
107
167
107
107
167
107
107
167
107
107
167
107
107
167
107
107
167
107
107
167
107
107
167
107
107
167
107
107
167
107
107
167
107
107
167
107
107
167
107
107
167
107
107
167
107
107
167
107
107
167
107
107
167
107
107
167
107
107
167
107
107
167
107
107
167
107
107
167
107
107
167
107
107
167
107
107
167
107
107
167
107
107
167
107
107
167
107
107
167
107
107
167
107
107
167
107
107
167
107
107
167
107
107
167
107
107
167
107
107
167
107
107
167
107
107
167
107
107
167
107
107
167
107
107
167
107
107
167
107
107
167
107
107
167
107
107
167
107
107
167
107
107
167
107
107
167
107
107
167
107
107
167
107
107
67
51
27
0
0
0
0
0
0
0
0
0
0
0
0
0
0
0
0
0
0
0
0
0
167
107
107
167
107
107
167
107
107
167
107
107
167
107
107
167
107
107
167
107
107
167
107
107
167
107
107
167
107
107
167
107
107
167
107
107
167
107
107
167
107
107
167
107
107
167
107
107
167
107
107
167
107
107
167
107
107
167
107
107
167
107
107
167
107
107
167
107
107
167
107
107
167
107
107
167
107
107
167
107
107
167
107
107
167
107
107
167
107
107
167
107
107
167
107
107
167
107
107
167
107
107
167
107
107
167
107
107
167
107
107
167
107
107
167
107
107
167
107
107
167
107
107
167
107
107
167
107
107
167
107
107
167
107
107
167
107
107
167
107
107
167
107
107
167
107
107
167
107
107
167
107
107
167
107
107
167
107
107
167
107
107
167
107
107
167
107
107
167
107
107
167
107
107
167
107
107
167
107
107
167
107
107
167
107
107
167
107
107
167
107
107
67
51
27
0
0
0
0
0
0
0
0
0
0
0
0
0
0
0
0
0
0
0
0
0
167
107
107
167
107
107
167
107
107
167
107
107
167
107
107
167
107
107
167
107
107
167
107
107
167
107
107
167
107
107
167
107
107
167
107
107
167
107
107
167
107
107
167
107
107
167
107
107
167
107
107
167
107
107
167
107
107
167
107
107
167
107
107
167
107
107
167
107
107
167
107
107
167
107
107
167
107
107
167
107
107
167
107
107
99
99
99
111
111
111
111
111
111
111
111
111
119
119
119
127
127
127
119
119
119
111
111
111
111
111
111
111
111
111
99
99
99
167
107
107
167
107
107
167
107
107
167
107
107
167
107
107
167
107
107
167
107
107
167
107
107
167
107
107
167
107
107
167
107
107
167
107
107
167
107
107
167
107
107
167
107
107
167
107
107
167
107
107
167
107
107
167
107
107
167
107
107
167
107
107
167
107
107
167
107
107
167
107
107
167
107
107
67
51
27
0
0
0
0
0
0
0
0
0
0
0
0
0
0
0
0
0
0
0
0
0
67
51
27
0
0
0
0
0
0
0
0
0
0
0
0
0
0
0
0
0
0
0
0
0
0
0
0
0
0
0
0
0
0
0
0
0
0
0
0
0
0
0
0
0
0
0
0
0
75
55
27
75
55
27
75
55
27
75
55
27
67
51
27
67
51
27
67
51
27
67
51
27
67
51
27
67
51
27
67
51
27
67
51
27
67
51
27
67
51
27
67
51
27
67
51
27
67
51
27
67
51
27
67
51
27
67
51
27
67
51
27
67
51
27
67
51
27
67
51
27
67
51
27
67
51
27
67
51
27
67
51
27
67
51
27
67
51
27
67
51
27
67
51
27
67
51
27
67
51
27
67
51
27
67
51
27
67
51
27
67
51
27
67
51
27
67
51
27
67
51
27
67
51
27
67
51
27
67
51
27
67
51
27
67
51
27
67
51
27
67
51
27
67
51
27
67
51
27
67
51
27
67
51
27
67
51
27
67
51
27
67
51
27
67
51
27
67
51
27
67
51
27
67
51
27
67
51
27
67
51
27
67
51
27
67
51
27
67
51
27
67
51
27
67
51
27
67
51
27
67
51
27
67
51
27
67
51
27
67
51
27
67
51
27
67
51
27
67
51
27
67
51
27
67
51
27
67
51
27
67
51
27
67
51
27
67
51
27
67
51
27
67
51
27
67
51
27
67
51
27
67
51
27
67
51
27
67
51
27
67
51
27
67
51
27
67
51
27
67
51
27
67
51
27
67
51
27
67
51
27
67
51
27
67
51
27
67
51
27
67
51
27
67
51
27
67
51
27
67
51
27
67
51
27
67
51
27
67
51
27
67
51
27
67
51
27
67
51
27
67
51
27
67
51
27
67
51
27
67
51
27
67
51
27
67
51
27
67
51
27
67
51
27
67
51
27
67
51
27
67
51
27
67
51
27
67
51
27
67
51
27
67
51
27
67
51
27
67
51
27
67
51
27
67
51
27
67
51
27
67
51
27
67
51
27
67
51
27
67
51
27
67
51
27
67
51
27
67
51
27
67
51
27
67
51
27
67
51
27
67
51
27
67
51
27
67
51
27
67
51
27
67
51
27
67
51
27
67
51
27
67
51
27
67
51
27
67
51
27
67
51
27
67
51
27
67
51
27
67
51
27
67
51
27
67
51
27
67
51
27
67
51
27
67
51
27
67
51
27
67
51
27
67
51
27
67
51
27
167
107
107
67
51
27
67
51
27
67
51
27
67
51
27
67
51
27
67
51
27
67
51
27
67
51
27
67
51
27
67
51
27
67
51
27
67
51
27
67
51
27
67
51
27
67
51
27
67
51
27
67
51
27
67
51
27
67
51
27
67
51
27
67
51
27
67
51
27
67
51
27
67
51
27
67
51
27
67
51
27
67
51
27
67
51
27
67
51
27
67
51
27
67
51
27
67
51
27
67
51
27
67
51
27
67
51
27
67
51
27
67
51
27
67
51
27
67
51
27
67
51
27
67
51
27
67
51
27
67
51
27
67
51
27
67
51
27
67
51
27
67
51
27
67
51
27
67
51
27
67
51
27
67
51
27
67
51
27
67
51
27
67
51
27
67
51
27
67
51
27
67
51
27
67
51
27
67
51
27
67
51
27
67
51
27
67
51
27
67
51
27
67
51
27
67
51
27
67
51
27
67
51
27
67
51
27
67
51
27
67
51
27
67
51
27
67
51
27
67
51
27
67
51
27
67
51
27
67
51
27
67
51
27
67
51
27
67
51
27
67
51
27
67
51
27
67
51
27
67
51
27
67
51
27
67
51
27
67
51
27
67
51
27
67
51
27
67
51
27
67
51
27
67
51
27
67
51
27
67
51
27
67
51
27
67
51
27
67
51
27
67
51
27
67
51
27
67
51
27
67
51
27
67
51
27
67
51
27
67
51
27
67
51
27
67
51
27
67
51
27
67
51
27
67
51
27
67
51
27
67
51
27
67
51
27
67
51
27
67
51
27
67
51
27
67
51
27
67
51
27
67
51
27
67
51
27
67
51
27
67
51
27
67
51
27
67
51
27
67
51
27
67
51
27
67
51
27
67
51
27
67
51
27
67
51
27
67
51
27
67
51
27
67
51
27
67
51
27
67
51
27
67
51
27
67
51
27
67
51
27
67
51
27
67
51
27
67
51
27
67
51
27
67
51
27
67
51
27
67
51
27
67
51
27
67
51
27
67
51
27
67
51
27
67
51
27
67
51
27
67
51
27
67
51
27
0
0
0
0
0
0
0
0
0
0
0
0
0
0
0
0
0
0
0
0
0
0
0
0
75
55
27
255
127
27
255
235
223
255
235
223
255
235
223
255
235
223
255
127
27
255
127
27
67
51
27
255
127
27
255
127
27
255
127
27
255
127
27
255
127
27
255
127
27
255
127
27
67
51
27
0
0
0
0
0
0
0
0
0
0
0
0
0
0
0
0
0
0
0
0
0
67
51
27
0
0
0
0
0
0
0
0
0
0
0
0
0
0
0
0
0
0
0
0
0
67
51
27
0
0
0
0
0
0
0
0
0
0
0
0
0
0
0
0
0
0
0
0
0
67
51
27
0
0
0
0
0
0
0
0
0
0
0
0
0
0
0
0
0
0
0
0
0
67
51
27
0
0
0
0
0
0
0
0
0
0
0
0
0
0
0
0
0
0
0
0
0
67
51
27
0
0
0
0
0
0
0
0
0
0
0
0
0
0
0
0
0
0
0
0
0
67
51
27
0
0
0
0
0
0
0
0
0
0
0
0
0
0
0
0
0
0
0
0
0
67
51
27
0
0
0
0
0
0
0
0
0
0
0
0
0
0
0
0
0
0
0
0
0
67
51
27
0
0
0
0
0
0
0
0
0
0
0
0
0
0
0
0
0
0
0
0
0
67
51
27
0
0
0
0
0
0
0
0
0
0
0
0
0
0
0
0
0
0
0
0
0
67
51
27
0
0
0
0
0
0
0
0
0
0
0
0
0
0
0
0
0
0
0
0
0
67
51
27
0
0
0
0
0
0
0
0
0
0
0
0
0
0
0
0
0
0
0
0
0
67
51
27
0
0
0
0
0
0
0
0
0
0
0
0
0
0
0
0
0
0
0
0
0
67
51
27
0
0
0
0
0
0
0
0
0
0
0
0
0
0
0
0
0
0
0
0
0
67
51
27
0
0
0
0
0
0
0
0
0
0
0
0
0
0
0
0
0
0
0
0
0
67
51
27
0
0
0
0
0
0
0
0
0
0
0
0
0
0
0
0
0
0
0
0
0
67
51
27
0
0
0
0
0
0
0
0
0
0
0
0
0
0
0
0
0
0
0
0
0
67
51
27
0
0
0
0
0
0
0
0
0
0
0
0
0
0
0
0
0
0
0
0
0
67
51
27
0
0
0
0
0
0
0
0
0
0
0
0
0
0
0
0
0
0
0
0
0
67
51
27
0
0
0
0
0
0
0
0
0
0
0
0
0
0
0
0
0
0
0
0
0
67
51
27
0
0
0
0
0
0
0
0
0
0
0
0
0
0
0
0
0
0
0
0
0
67
51
27
0
0
0
0
0
0
0
0
0
0
0
0
0
0
0
0
0
0
0
0
0
67
51
27
0
0
0
0
0
0
0
0
0
0
0
0
0
0
0
0
0
0
0
0
0
67
51
27
0
0
0
0
0
0
0
0
0
0
0
0
0
0
0
0
0
0
0
0
0
67
51
27
0
0
0
0
0
0
0
0
0
0
0
0
0
0
0
0
0
0
0
0
0
67
51
27
0
0
0
0
0
0
0
0
0
0
0
0
0
0
0
0
0
0
0
0
0
67
51
27
0
0
0
0
0
0
0
0
0
0
0
0
0
0
0
0
0
0
0
0
0
67
51
27
0
0
0
0
0
0
0
0
0
0
0
0
0
0
0
0
0
0
0
0
0
67
51
27
0
0
0
0
0
0
0
0
0
0
0
0
0
0
0
0
0
0
0
0
0
67
51
27
0
0
0
0
0
0
0
0
0
0
0
0
0
0
0
0
0
0
0
0
0
67
51
27
0
0
0
0
0
0
0
0
0
0
0
0
0
0
0
0
0
0
0
0
0
67
51
27
0
0
0
0
0
0
0
0
0
0
0
0
0
0
0
0
0
0
0
0
0
67
51
27
0
0
0
0
0
0
0
0
0
0
0
0
0
0
0
0
0
0
0
0
0
67
51
27
0
0
0
0
0
0
0
0
0
0
0
0
0
0
0
0
0
0
0
0
0
67
51
27
0
0
0
0
0
0
0
0
0
0
0
0
0
0
0
0
0
0
0
0
0
67
51
27
0
0
0
0
0
0
0
0
0
0
0
0
0
0
0
0
0
0
0
0
0
67
51
27
0
0
0
0
0
0
0
0
0
0
0
0
0
0
0
0
0
0
0
0
0
0
0
0
0
0
0
0
0
0
0
0
0
0
0
0
0
0
0
0
0
0
0
0
0
75
55
27
255
235
223
255
235
223
255
127
27
255
127
27
255
235
223
255
235
223
255
127
27
67
51
27
255
127
27
255
127
27
255
127
27
255
127
27
255
127
27
255
127
27
255
127
27
67
51
27
0
0
0
0
0
0
0
0
0
0
0
0
0
0
0
0
0
0
0
0
0
67
51
27
0
0
0
0
0
0
0
0
0
0
0
0
0
0
0
0
0
0
0
0
0
67
51
27
0
0
0
0
0
0
0
0
0
0
0
0
0
0
0
0
0
0
0
0
0
67
51
27
0
0
0
0
0
0
0
0
0
0
0
0
0
0
0
0
0
0
0
0
0
67
51
27
0
0
0
0
0
0
0
0
0
0
0
0
0
0
0
0
0
0
0
0
0
67
51
27
0
0
0
0
0
0
0
0
0
0
0
0
0
0
0
0
0
0
0
0
0
67
51
27
0
0
0
0
0
0
0
0
0
0
0
0
0
0
0
0
0
0
0
0
0
67
51
27
0
0
0
0
0
0
0
0
0
0
0
0
0
0
0
0
0
0
0
0
0
67
51
27
0
0
0
0
0
0
0
0
0
0
0
0
0
0
0
0
0
0
0
0
0
67
51
27
0
0
0
0
0
0
0
0
0
0
0
0
0
0
0
0
0
0
0
0
0
67
51
27
0
0
0
0
0
0
0
0
0
0
0
0
0
0
0
0
0
0
0
0
0
67
51
27
0
0
0
0
0
0
0
0
0
0
0
0
0
0
0
0
0
0
0
0
0
67
51
27
0
0
0
0
0
0
0
0
0
0
0
0
0
0
0
0
0
0
0
0
0
67
51
27
0
0
0
0
0
0
0
0
0
0
0
0
0
0
0
0
0
0
0
0
0
67
51
27
0
0
0
0
0
0
0
0
0
0
0
0
0
0
0
0
0
0
0
0
0
67
51
27
0
0
0
0
0
0
0
0
0
0
0
0
0
0
0
0
0
0
0
0
0
67
51
27
0
0
0
0
0
0
0
0
0
0
0
0
0
0
0
0
0
0
0
0
0
67
51
27
0
0
0
0
0
0
0
0
0
0
0
0
0
0
0
0
0
0
0
0
0
67
51
27
0
0
0
0
0
0
0
0
0
0
0
0
0
0
0
0
0
0
0
0
0
67
51
27
0
0
0
0
0
0
0
0
0
0
0
0
0
0
0
0
0
0
0
0
0
67
51
27
0
0
0
0
0
0
0
0
0
0
0
0
0
0
0
0
0
0
0
0
0
67
51
27
0
0
0
0
0
0
0
0
0
0
0
0
0
0
0
0
0
0
0
0
0
67
51
27
0
0
0
0
0
0
0
0
0
0
0
0
0
0
0
0
0
0
0
0
0
67
51
27
0
0
0
0
0
0
0
0
0
0
0
0
0
0
0
0
0
0
0
0
0
67
51
27
0
0
0
0
0
0
0
0
0
0
0
0
0
0
0
0
0
0
0
0
0
67
51
27
0
0
0
0
0
0
0
0
0
0
0
0
0
0
0
0
0
0
0
0
0
67
51
27
0
0
0
0
0
0
0
0
0
0
0
0
0
0
0
0
0
0
0
0
0
67
51
27
0
0
0
0
0
0
0
0
0
0
0
0
0
0
0
0
0
0
0
0
0
67
51
27
0
0
0
0
0
0
0
0
0
0
0
0
0
0
0
0
0
0
0
0
0
67
51
27
0
0
0
0
0
0
0
0
0
0
0
0
0
0
0
0
0
0
0
0
0
67
51
27
0
0
0
0
0
0
0
0
0
0
0
0
0
0
0
0
0
0
0
0
0
67
51
27
0
0
0
0
0
0
0
0
0
0
0
0
0
0
0
0
0
0
0
0
0
67
51
27
0
0
0
0
0
0
0
0
0
0
0
0
0
0
0
0
0
0
0
0
0
67
51
27
0
0
0
0
0
0
0
0
0
0
0
0
0
0
0
0
0
0
0
0
0
67
51
27
0
0
0
0
0
0
0
0
0
0
0
0
0
0
0
0
0
0
0
0
0
67
51
27
0
0
0
0
0
0
0
0
0
0
0
0
0
0
0
0
0
0
0
0
0
67
51
27
0
0
0
0
0
0
0
0
0
0
0
0
0
0
0
0
0
0
0
0
0
0
0
0
0
0
0
0
0
0
0
0
0
0
0
0
0
0
0
0
0
0
0
0
0
75
55
27
255
235
223
255
235
223
255
127
27
255
127
27
255
235
223
255
235
223
255
127
27
67
51
27
255
127
27
255
127
27
255
127
27
255
127
27
255
127
27
255
127
27
255
127
27
67
51
27
0
0
0
0
0
0
0
0
0
0
0
0
0
0
0
0
0
0
0
0
0
67
51
27
0
0
0
0
0
0
0
0
0
0
0
0
0
0
0
0
0
0
0
0
0
67
51
27
0
0
0
0
0
0
0
0
0
0
0
0
0
0
0
0
0
0
0
0
0
67
51
27
0
0
0
0
0
0
0
0
0
0
0
0
0
0
0
0
0
0
0
0
0
67
51
27
0
0
0
0
0
0
0
0
0
0
0
0
0
0
0
0
0
0
0
0
0
67
51
27
0
0
0
0
0
0
0
0
0
0
0
0
0
0
0
0
0
0
0
0
0
67
51
27
0
0
0
0
0
0
0
0
0
0
0
0
0
0
0
0
0
0
0
0
0
67
51
27
0
0
0
0
0
0
0
0
0
0
0
0
0
0
0
0
0
0
0
0
0
67
51
27
0
0
0
0
0
0
0
0
0
0
0
0
0
0
0
0
0
0
0
0
0
67
51
27
0
0
0
0
0
0
0
0
0
0
0
0
0
0
0
0
0
0
0
0
0
67
51
27
0
0
0
0
0
0
0
0
0
0
0
0
0
0
0
0
0
0
0
0
0
67
51
27
0
0
0
0
0
0
0
0
0
0
0
0
0
0
0
0
0
0
0
0
0
67
51
27
0
0
0
0
0
0
0
0
0
0
0
0
0
0
0
0
0
0
0
0
0
67
51
27
0
0
0
0
0
0
0
0
0
0
0
0
0
0
0
0
0
0
0
0
0
67
51
27
0
0
0
0
0
0
0
0
0
0
0
0
0
0
0
0
0
0
0
0
0
67
51
27
0
0
0
0
0
0
0
0
0
0
0
0
0
0
0
0
0
0
0
0
0
67
51
27
0
0
0
0
0
0
0
0
0
0
0
0
0
0
0
0
0
0
0
0
0
67
51
27
0
0
0
0
0
0
0
0
0
0
0
0
0
0
0
0
0
0
0
0
0
67
51
27
0
0
0
0
0
0
0
0
0
0
0
0
0
0
0
0
0
0
0
0
0
67
51
27
0
0
0
0
0
0
0
0
0
0
0
0
0
0
0
0
0
0
0
0
0
67
51
27
0
0
0
0
0
0
0
0
0
0
0
0
0
0
0
0
0
0
0
0
0
67
51
27
0
0
0
0
0
0
0
0
0
0
0
0
0
0
0
0
0
0
0
0
0
67
51
27
0
0
0
0
0
0
0
0
0
0
0
0
0
0
0
0
0
0
0
0
0
67
51
27
0
0
0
0
0
0
0
0
0
0
0
0
0
0
0
0
0
0
0
0
0
67
51
27
0
0
0
0
0
0
0
0
0
0
0
0
0
0
0
0
0
0
0
0
0
67
51
27
0
0
0
0
0
0
0
0
0
0
0
0
0
0
0
0
0
0
0
0
0
67
51
27
0
0
0
0
0
0
0
0
0
0
0
0
0
0
0
0
0
0
0
0
0
67
51
27
0
0
0
0
0
0
0
0
0
0
0
0
0
0
0
0
0
0
0
0
0
67
51
27
0
0
0
0
0
0
0
0
0
0
0
0
0
0
0
0
0
0
0
0
0
67
51
27
0
0
0
0
0
0
0
0
0
0
0
0
0
0
0
0
0
0
0
0
0
67
51
27
0
0
0
0
0
0
0
0
0
0
0
0
0
0
0
0
0
0
0
0
0
67
51
27
0
0
0
0
0
0
0
0
0
0
0
0
0
0
0
0
0
0
0
0
0
67
51
27
0
0
0
0
0
0
0
0
0
0
0
0
0
0
0
0
0
0
0
0
0
67
51
27
0
0
0
0
0
0
0
0
0
0
0
0
0
0
0
0
0
0
0
0
0
67
51
27
0
0
0
0
0
0
0
0
0
0
0
0
0
0
0
0
0
0
0
0
0
67
51
27
0
0
0
0
0
0
0
0
0
0
0
0
0
0
0
0
0
0
0
0
0
67
51
27
0
0
0
0
0
0
0
0
0
0
0
0
0
0
0
0
0
0
0
0
0
0
0
0
0
0
0
0
0
0
0
0
0
0
0
0
0
0
0
0
0
0
0
0
0
75
55
27
255
127
27
255
235
223
255
235
223
255
235
223
255
235
223
255
235
223
255
127
27
67
51
27
255
127
27
255
127
27
255
127
27
255
127
27
255
127
27
255
127
27
255
127
27
67
51
27
0
0
0
0
0
0
0
0
0
0
0
0
0
0
0
0
0
0
0
0
0
67
51
27
0
0
0
0
0
0
0
0
0
0
0
0
0
0
0
0
0
0
0
0
0
67
51
27
0
0
0
0
0
0
0
0
0
0
0
0
0
0
0
0
0
0
0
0
0
67
51
27
0
0
0
0
0
0
0
0
0
0
0
0
0
0
0
0
0
0
0
0
0
67
51
27
0
0
0
0
0
0
0
0
0
0
0
0
0
0
0
0
0
0
0
0
0
67
51
27
0
0
0
0
0
0
0
0
0
0
0
0
0
0
0
0
0
0
0
0
0
67
51
27
0
0
0
0
0
0
0
0
0
0
0
0
0
0
0
0
0
0
0
0
0
67
51
27
0
0
0
0
0
0
0
0
0
0
0
0
0
0
0
0
0
0
0
0
0
67
51
27
0
0
0
0
0
0
0
0
0
0
0
0
0
0
0
0
0
0
0
0
0
67
51
27
0
0
0
0
0
0
0
0
0
0
0
0
0
0
0
0
0
0
0
0
0
67
51
27
0
0
0
0
0
0
0
0
0
0
0
0
0
0
0
0
0
0
0
0
0
67
51
27
0
0
0
0
0
0
0
0
0
0
0
0
0
0
0
0
0
0
0
0
0
67
51
27
0
0
0
0
0
0
0
0
0
0
0
0
0
0
0
0
0
0
0
0
0
67
51
27
0
0
0
0
0
0
0
0
0
0
0
0
0
0
0
0
0
0
0
0
0
67
51
27
0
0
0
0
0
0
0
0
0
0
0
0
0
0
0
0
0
0
0
0
0
67
51
27
0
0
0
0
0
0
0
0
0
0
0
0
0
0
0
0
0
0
0
0
0
67
51
27
0
0
0
0
0
0
0
0
0
0
0
0
0
0
0
0
0
0
0
0
0
67
51
27
0
0
0
0
0
0
0
0
0
0
0
0
0
0
0
0
0
0
0
0
0
67
51
27
0
0
0
0
0
0
0
0
0
0
0
0
0
0
0
0
0
0
0
0
0
67
51
27
0
0
0
0
0
0
0
0
0
0
0
0
0
0
0
0
0
0
0
0
0
67
51
27
0
0
0
0
0
0
0
0
0
0
0
0
0
0
0
0
0
0
0
0
0
67
51
27
0
0
0
0
0
0
0
0
0
0
0
0
0
0
0
0
0
0
0
0
0
67
51
27
0
0
0
0
0
0
0
0
0
0
0
0
0
0
0
0
0
0
0
0
0
67
51
27
0
0
0
0
0
0
0
0
0
0
0
0
0
0
0
0
0
0
0
0
0
67
51
27
0
0
0
0
0
0
0
0
0
0
0
0
0
0
0
0
0
0
0
0
0
67
51
27
0
0
0
0
0
0
0
0
0
0
0
0
0
0
0
0
0
0
0
0
0
67
51
27
0
0
0
0
0
0
0
0
0
0
0
0
0
0
0
0
0
0
0
0
0
67
51
27
0
0
0
0
0
0
0
0
0
0
0
0
0
0
0
0
0
0
0
0
0
67
51
27
0
0
0
0
0
0
0
0
0
0
0
0
0
0
0
0
0
0
0
0
0
67
51
27
0
0
0
0
0
0
0
0
0
0
0
0
0
0
0
0
0
0
0
0
0
67
51
27
0
0
0
0
0
0
0
0
0
0
0
0
0
0
0
0
0
0
0
0
0
67
51
27
0
0
0
0
0
0
0
0
0
0
0
0
0
0
0
0
0
0
0
0
0
67
51
27
0
0
0
0
0
0
0
0
0
0
0
0
0
0
0
0
0
0
0
0
0
67
51
27
0
0
0
0
0
0
0
0
0
0
0
0
0
0
0
0
0
0
0
0
0
67
51
27
0
0
0
0
0
0
0
0
0
0
0
0
0
0
0
0
0
0
0
0
0
67
51
27
0
0
0
0
0
0
0
0
0
0
0
0
0
0
0
0
0
0
0
0
0
67
51
27
0
0
0
0
0
0
0
0
0
0
0
0
0
0
0
0
0
0
0
0
0
0
0
0
0
0
0
0
0
0
0
0
0
0
0
0
0
0
0
0
0
0
0
0
0
75
55
27
255
127
27
255
127
27
255
127
27
255
127
27
255
235
223
255
235
223
255
127
27
67
51
27
255
127
27
255
127
27
255
127
27
255
127
27
255
127
27
255
127
27
255
127
27
67
51
27
0
0
0
0
0
0
0
0
0
0
0
0
0
0
0
0
0
0
0
0
0
67
51
27
0
0
0
0
0
0
0
0
0
0
0
0
0
0
0
0
0
0
0
0
0
67
51
27
0
0
0
0
0
0
0
0
0
0
0
0
0
0
0
0
0
0
0
0
0
67
51
27
0
0
0
0
0
0
0
0
0
0
0
0
0
0
0
0
0
0
0
0
0
67
51
27
0
0
0
0
0
0
0
0
0
0
0
0
0
0
0
0
0
0
0
0
0
67
51
27
0
0
0
0
0
0
0
0
0
0
0
0
0
0
0
0
0
0
0
0
0
67
51
27
0
0
0
0
0
0
0
0
0
0
0
0
0
0
0
0
0
0
0
0
0
67
51
27
0
0
0
0
0
0
0
0
0
0
0
0
0
0
0
0
0
0
0
0
0
67
51
27
0
0
0
0
0
0
0
0
0
0
0
0
0
0
0
0
0
0
0
0
0
67
51
27
0
0
0
0
0
0
0
0
0
0
0
0
0
0
0
0
0
0
0
0
0
67
51
27
0
0
0
0
0
0
0
0
0
0
0
0
0
0
0
0
0
0
0
0
0
67
51
27
0
0
0
0
0
0
0
0
0
0
0
0
0
0
0
0
0
0
0
0
0
67
51
27
0
0
0
0
0
0
0
0
0
0
0
0
0
0
0
0
0
0
0
0
0
67
51
27
0
0
0
0
0
0
0
0
0
0
0
0
0
0
0
0
0
0
0
0
0
67
51
27
0
0
0
0
0
0
0
0
0
0
0
0
0
0
0
0
0
0
0
0
0
67
51
27
0
0
0
0
0
0
0
0
0
0
0
0
0
0
0
0
0
0
0
0
0
67
51
27
0
0
0
0
0
0
0
0
0
0
0
0
0
0
0
0
0
0
0
0
0
67
51
27
0
0
0
0
0
0
0
0
0
0
0
0
0
0
0
0
0
0
0
0
0
67
51
27
0
0
0
0
0
0
0
0
0
0
0
0
0
0
0
0
0
0
0
0
0
67
51
27
0
0
0
0
0
0
0
0
0
0
0
0
0
0
0
0
0
0
0
0
0
67
51
27
0
0
0
0
0
0
0
0
0
0
0
0
0
0
0
0
0
0
0
0
0
67
51
27
0
0
0
0
0
0
0
0
0
0
0
0
0
0
0
0
0
0
0
0
0
67
51
27
0
0
0
0
0
0
0
0
0
0
0
0
0
0
0
0
0
0
0
0
0
67
51
27
0
0
0
0
0
0
0
0
0
0
0
0
0
0
0
0
0
0
0
0
0
67
51
27
0
0
0
0
0
0
0
0
0
0
0
0
0
0
0
0
0
0
0
0
0
67
51
27
0
0
0
0
0
0
0
0
0
0
0
0
0
0
0
0
0
0
0
0
0
67
51
27
0
0
0
0
0
0
0
0
0
0
0
0
0
0
0
0
0
0
0
0
0
67
51
27
0
0
0
0
0
0
0
0
0
0
0
0
0
0
0
0
0
0
0
0
0
67
51
27
0
0
0
0
0
0
0
0
0
0
0
0
0
0
0
0
0
0
0
0
0
67
51
27
0
0
0
0
0
0
0
0
0
0
0
0
0
0
0
0
0
0
0
0
0
67
51
27
0
0
0
0
0
0
0
0
0
0
0
0
0
0
0
0
0
0
0
0
0
67
51
27
0
0
0
0
0
0
0
0
0
0
0
0
0
0
0
0
0
0
0
0
0
67
51
27
0
0
0
0
0
0
0
0
0
0
0
0
0
0
0
0
0
0
0
0
0
67
51
27
0
0
0
0
0
0
0
0
0
0
0
0
0
0
0
0
0
0
0
0
0
67
51
27
0
0
0
0
0
0
0
0
0
0
0
0
0
0
0
0
0
0
0
0
0
67
51
27
0
0
0
0
0
0
0
0
0
0
0
0
0
0
0
0
0
0
0
0
0
67
51
27
0
0
0
0
0
0
0
0
0
0
0
0
0
0
0
0
0
0
0
0
0
0
0
0
0
0
0
0
0
0
0
0
0
0
0
0
0
0
0
0
0
0
0
0
0
75
55
27
255
127
27
255
127
27
255
127
27
255
235
223
255
235
223
255
127
27
255
127
27
67
51
27
255
127
27
255
127
27
255
127
27
255
127
27
255
127
27
255
127
27
255
127
27
67
51
27
0
0
0
0
0
0
0
0
0
0
0
0
0
0
0
0
0
0
0
0
0
67
51
27
0
0
0
0
0
0
0
0
0
0
0
0
0
0
0
0
0
0
0
0
0
67
51
27
0
0
0
0
0
0
0
0
0
0
0
0
0
0
0
0
0
0
0
0
0
67
51
27
0
0
0
0
0
0
0
0
0
0
0
0
0
0
0
0
0
0
0
0
0
67
51
27
0
0
0
0
0
0
0
0
0
0
0
0
0
0
0
0
0
0
0
0
0
67
51
27
0
0
0
0
0
0
0
0
0
0
0
0
0
0
0
0
0
0
0
0
0
67
51
27
0
0
0
0
0
0
0
0
0
0
0
0
0
0
0
0
0
0
0
0
0
67
51
27
0
0
0
0
0
0
0
0
0
0
0
0
0
0
0
0
0
0
0
0
0
67
51
27
0
0
0
0
0
0
0
0
0
0
0
0
0
0
0
0
0
0
0
0
0
67
51
27
0
0
0
0
0
0
0
0
0
0
0
0
0
0
0
0
0
0
0
0
0
67
51
27
0
0
0
0
0
0
0
0
0
0
0
0
0
0
0
0
0
0
0
0
0
67
51
27
0
0
0
0
0
0
0
0
0
0
0
0
0
0
0
0
0
0
0
0
0
67
51
27
0
0
0
0
0
0
0
0
0
0
0
0
0
0
0
0
0
0
0
0
0
67
51
27
0
0
0
0
0
0
0
0
0
0
0
0
0
0
0
0
0
0
0
0
0
67
51
27
0
0
0
0
0
0
0
0
0
0
0
0
0
0
0
0
0
0
0
0
0
67
51
27
0
0
0
0
0
0
0
0
0
0
0
0
0
0
0
0
0
0
0
0
0
67
51
27
0
0
0
0
0
0
0
0
0
0
0
0
0
0
0
0
0
0
0
0
0
67
51
27
0
0
0
0
0
0
0
0
0
0
0
0
0
0
0
0
0
0
0
0
0
67
51
27
0
0
0
0
0
0
0
0
0
0
0
0
0
0
0
0
0
0
0
0
0
67
51
27
0
0
0
0
0
0
0
0
0
0
0
0
0
0
0
0
0
0
0
0
0
67
51
27
0
0
0
0
0
0
0
0
0
0
0
0
0
0
0
0
0
0
0
0
0
67
51
27
0
0
0
0
0
0
0
0
0
0
0
0
0
0
0
0
0
0
0
0
0
67
51
27
0
0
0
0
0
0
0
0
0
0
0
0
0
0
0
0
0
0
0
0
0
67
51
27
0
0
0
0
0
0
0
0
0
0
0
0
0
0
0
0
0
0
0
0
0
67
51
27
0
0
0
0
0
0
0
0
0
0
0
0
0
0
0
0
0
0
0
0
0
67
51
27
0
0
0
0
0
0
0
0
0
0
0
0
0
0
0
0
0
0
0
0
0
67
51
27
0
0
0
0
0
0
0
0
0
0
0
0
0
0
0
0
0
0
0
0
0
67
51
27
0
0
0
0
0
0
0
0
0
0
0
0
0
0
0
0
0
0
0
0
0
67
51
27
0
0
0
0
0
0
0
0
0
0
0
0
0
0
0
0
0
0
0
0
0
67
51
27
0
0
0
0
0
0
0
0
0
0
0
0
0
0
0
0
0
0
0
0
0
67
51
27
0
0
0
0
0
0
0
0
0
0
0
0
0
0
0
0
0
0
0
0
0
67
51
27
0
0
0
0
0
0
0
0
0
0
0
0
0
0
0
0
0
0
0
0
0
67
51
27
0
0
0
0
0
0
0
0
0
0
0
0
0
0
0
0
0
0
0
0
0
67
51
27
0
0
0
0
0
0
0
0
0
0
0
0
0
0
0
0
0
0
0
0
0
67
51
27
0
0
0
0
0
0
0
0
0
0
0
0
0
0
0
0
0
0
0
0
0
67
51
27
0
0
0
0
0
0
0
0
0
0
0
0
0
0
0
0
0
0
0
0
0
67
51
27
0
0
0
0
0
0
0
0
0
0
0
0
0
0
0
0
0
0
0
0
0
0
0
0
0
0
0
163
107
63
163
107
63
163
107
63
0
0
0
0
0
0
0
0
0
75
55
27
255
127
27
255
235
223
255
235
223
255
235
223
255
127
27
255
127
27
255
127
27
67
51
27
255
127
27
255
127
27
255
127
27
255
127
27
255
127
27
255
127
27
255
127
27
67
51
27
0
0
0
0
0
0
0
0
0
0
0
0
0
0
0
0
0
0
0
0
0
67
51
27
0
0
0
0
0
0
0
0
0
0
0
0
0
0
0
0
0
0
0
0
0
67
51
27
0
0
0
0
0
0
0
0
0
0
0
0
0
0
0
0
0
0
0
0
0
67
51
27
0
0
0
0
0
0
0
0
0
0
0
0
0
0
0
0
0
0
0
0
0
67
51
27
0
0
0
0
0
0
0
0
0
0
0
0
0
0
0
0
0
0
0
0
0
67
51
27
0
0
0
0
0
0
0
0
0
0
0
0
0
0
0
0
0
0
0
0
0
67
51
27
0
0
0
0
0
0
0
0
0
0
0
0
0
0
0
0
0
0
0
0
0
67
51
27
0
0
0
0
0
0
0
0
0
0
0
0
0
0
0
0
0
0
0
0
0
67
51
27
0
0
0
0
0
0
0
0
0
0
0
0
0
0
0
0
0
0
0
0
0
67
51
27
0
0
0
0
0
0
0
0
0
0
0
0
0
0
0
0
0
0
0
0
0
67
51
27
0
0
0
0
0
0
0
0
0
0
0
0
0
0
0
0
0
0
0
0
0
67
51
27
0
0
0
0
0
0
0
0
0
0
0
0
0
0
0
0
0
0
0
0
0
67
51
27
0
0
0
0
0
0
0
0
0
0
0
0
0
0
0
0
0
0
0
0
0
67
51
27
0
0
0
0
0
0
0
0
0
0
0
0
0
0
0
0
0
0
0
0
0
67
51
27
0
0
0
0
0
0
0
0
0
0
0
0
0
0
0
0
0
0
0
0
0
67
51
27
0
0
0
0
0
0
0
0
0
0
0
0
0
0
0
0
0
0
0
0
0
67
51
27
0
0
0
0
0
0
0
0
0
0
0
0
0
0
0
0
0
0
0
0
0
67
51
27
0
0
0
0
0
0
0
0
0
0
0
0
0
0
0
0
0
0
0
0
0
67
51
27
0
0
0
0
0
0
0
0
0
0
0
0
0
0
0
0
0
0
0
0
0
67
51
27
0
0
0
0
0
0
0
0
0
0
0
0
0
0
0
0
0
0
0
0
0
67
51
27
0
0
0
0
0
0
0
0
0
0
0
0
0
0
0
0
0
0
0
0
0
67
51
27
0
0
0
0
0
0
0
0
0
0
0
0
0
0
0
0
0
0
0
0
0
67
51
27
0
0
0
0
0
0
0
0
0
0
0
0
0
0
0
0
0
0
0
0
0
67
51
27
0
0
0
0
0
0
0
0
0
0
0
0
0
0
0
0
0
0
0
0
0
67
51
27
0
0
0
0
0
0
0
0
0
0
0
0
0
0
0
0
0
0
0
0
0
67
51
27
0
0
0
0
0
0
0
0
0
0
0
0
0
0
0
0
0
0
0
0
0
67
51
27
0
0
0
0
0
0
0
0
0
0
0
0
0
0
0
0
0
0
0
0
0
67
51
27
0
0
0
0
0
0
0
0
0
0
0
0
0
0
0
0
0
0
0
0
0
67
51
27
0
0
0
0
0
0
0
0
0
0
0
0
0
0
0
0
0
0
0
0
0
67
51
27
0
0
0
0
0
0
0
0
0
0
0
0
0
0
0
0
0
0
0
0
0
67
51
27
0
0
0
0
0
0
0
0
0
0
0
0
0
0
0
0
0
0
0
0
0
67
51
27
0
0
0
0
0
0
0
0
0
0
0
0
0
0
0
0
0
0
0
0
0
67
51
27
0
0
0
0
0
0
0
0
0
0
0
0
0
0
0
0
0
0
0
0
0
67
51
27
0
0
0
0
0
0
0
0
0
0
0
0
0
0
0
0
0
0
0
0
0
67
51
27
0
0
0
0
0
0
0
0
0
0
0
0
0
0
0
0
0
0
0
0
0
67
51
27
0
0
0
0
0
0
0
0
0
0
0
0
0
0
0
0
0
0
0
0
0
67
51
27
0
0
0
0
0
0
0
0
0
0
0
0
0
0
0
0
0
0
0
0
0
0
0
0
163
107
63
163
107
63
163
107
63
163
107
63
163
107
63
0
0
0
0
0
0
75
55
27
75
55
27
75
55
27
75
55
27
67
51
27
67
51
27
67
51
27
67
51
27
75
55
27
75
55
27
75
55
27
75
55
27
75
55
27
75
55
27
75
55
27
75
55
27
167
107
107
167
107
107
167
107
107
167
107
107
167
107
107
167
107
107
167
107
107
167
107
107
167
107
107
167
107
107
167
107
107
167
107
107
167
107
107
167
107
107
167
107
107
167
107
107
167
107
107
167
107
107
167
107
107
167
107
107
167
107
107
167
107
107
167
107
107
167
107
107
167
107
107
167
107
107
167
107
107
167
107
107
167
107
107
167
107
107
167
107
107
167
107
107
167
107
107
167
107
107
167
107
107
167
107
107
167
107
107
167
107
107
167
107
107
167
107
107
167
107
107
167
107
107
167
107
107
167
107
107
167
107
107
167
107
107
167
107
107
167
107
107
167
107
107
167
107
107
167
107
107
167
107
107
167
107
107
167
107
107
167
107
107
167
107
107
167
107
107
167
107
107
167
107
107
167
107
107
167
107
107
167
107
107
167
107
107
167
107
107
67
51
27
67
51
27
67
51
27
67
51
27
67
51
27
67
51
27
67
51
27
67
51
27
167
107
107
167
107
107
167
107
107
167
107
107
167
107
107
167
107
107
167
107
107
167
107
107
167
107
107
167
107
107
167
107
107
167
107
107
167
107
107
167
107
107
167
107
107
167
107
107
167
107
107
167
107
107
167
107
107
167
107
107
167
107
107
167
107
107
167
107
107
167
107
107
167
107
107
167
107
107
167
107
107
167
107
107
167
107
107
167
107
107
167
107
107
167
107
107
167
107
107
167
107
107
167
107
107
167
107
107
167
107
107
167
107
107
167
107
107
167
107
107
167
107
107
167
107
107
167
107
107
167
107
107
167
107
107
167
107
107
167
107
107
167
107
107
167
107
107
167
107
107
167
107
107
167
107
107
167
107
107
167
107
107
167
107
107
167
107
107
167
107
107
167
107
107
167
107
107
167
107
107
167
107
107
167
107
107
167
107
107
167
107
107
67
51
27
67
51
27
67
51
27
67
51
27
67
51
27
67
51
27
67
51
27
67
51
27
167
107
107
167
107
107
167
107
107
167
107
107
167
107
107
167
107
107
167
107
107
167
107
107
167
107
107
167
107
107
167
107
107
167
107
107
167
107
107
167
107
107
167
107
107
167
107
107
167
107
107
167
107
107
167
107
107
167
107
107
167
107
107
167
107
107
167
107
107
167
107
107
167
107
107
167
107
107
167
107
107
167
107
107
167
107
107
167
107
107
167
107
107
167
107
107
167
107
107
167
107
107
167
107
107
167
107
107
167
107
107
167
107
107
167
107
107
167
107
107
167
107
107
167
107
107
167
107
107
167
107
107
167
107
107
167
107
107
167
107
107
167
107
107
167
107
107
167
107
107
167
107
107
167
107
107
167
107
107
167
107
107
167
107
107
167
107
107
167
107
107
167
107
107
167
107
107
167
107
107
167
107
107
167
107
107
167
107
107
167
107
107
67
51
27
67
51
27
67
51
27
67
51
27
67
51
27
67
51
27
67
51
27
67
51
27
167
107
107
167
107
107
167
107
107
167
107
107
167
107
107
167
107
107
167
107
107
167
107
107
167
107
107
167
107
107
167
107
107
167
107
107
167
107
107
167
107
107
167
107
107
167
107
107
167
107
107
167
107
107
167
107
107
167
107
107
167
107
107
167
107
107
167
107
107
167
107
107
167
107
107
167
107
107
167
107
107
167
107
107
167
107
107
167
107
107
167
107
107
167
107
107
167
107
107
167
107
107
167
107
107
167
107
107
167
107
107
167
107
107
167
107
107
167
107
107
167
107
107
167
107
107
167
107
107
167
107
107
167
107
107
167
107
107
167
107
107
167
107
107
167
107
107
167
107
107
167
107
107
167
107
107
167
107
107
167
107
107
167
107
107
167
107
107
167
107
107
167
107
107
167
107
107
167
107
107
167
107
107
167
107
107
167
107
107
167
107
107
67
51
27
67
51
27
67
51
27
67
51
27
67
51
27
67
51
27
67
51
27
67
51
27
67
51
27
67
51
27
67
51
27
67
51
27
67
51
27
67
51
27
67
51
27
67
51
27
0
0
0
163
107
63
0
0
0
0
0
0
0
0
0
163
107
63
0
0
0
0
0
0
75
55
27
255
127
27
255
127
27
255
127
27
255
235
223
255
255
255
255
127
27
255
127
27
75
55
27
255
127
27
255
235
223
255
235
223
255
235
223
255
235
223
255
127
27
255
127
27
167
107
107
167
107
107
167
107
107
167
107
107
167
107
107
167
107
107
167
107
107
167
107
107
167
107
107
167
107
107
167
107
107
167
107
107
167
107
107
167
107
107
167
107
107
167
107
107
167
107
107
167
107
107
167
107
107
167
107
107
167
107
107
167
107
107
167
107
107
167
107
107
167
107
107
167
107
107
167
107
107
167
107
107
167
107
107
167
107
107
167
107
107
167
107
107
167
107
107
167
107
107
167
107
107
167
107
107
167
107
107
167
107
107
167
107
107
167
107
107
167
107
107
167
107
107
167
107
107
167
107
107
167
107
107
167
107
107
167
107
107
167
107
107
167
107
107
167
107
107
167
107
107
167
107
107
167
107
107
167
107
107
167
107
107
167
107
107
167
107
107
167
107
107
167
107
107
167
107
107
167
107
107
167
107
107
167
107
107
167
107
107
255
255
255
255
255
255
255
255
255
255
255
255
255
255
255
0
0
0
0
0
0
0
0
0
167
107
107
167
107
107
167
107
107
167
107
107
167
107
107
167
107
107
167
107
107
167
107
107
167
107
107
167
107
107
167
107
107
167
107
107
167
107
107
167
107
107
167
107
107
167
107
107
167
107
107
167
107
107
167
107
107
167
107
107
167
107
107
167
107
107
167
107
107
167
107
107
167
107
107
167
107
107
167
107
107
167
107
107
167
107
107
167
107
107
167
107
107
167
107
107
167
107
107
167
107
107
167
107
107
167
107
107
167
107
107
167
107
107
167
107
107
167
107
107
167
107
107
167
107
107
167
107
107
167
107
107
167
107
107
167
107
107
167
107
107
167
107
107
167
107
107
167
107
107
167
107
107
167
107
107
167
107
107
167
107
107
167
107
107
167
107
107
167
107
107
167
107
107
167
107
107
167
107
107
167
107
107
167
107
107
167
107
107
167
107
107
67
51
27
0
0
0
0
0
0
0
0
0
0
0
0
0
0
0
0
0
0
0
0
0
167
107
107
167
107
107
167
107
107
167
107
107
167
107
107
167
107
107
167
107
107
167
107
107
167
107
107
167
107
107
167
107
107
167
107
107
167
107
107
167
107
107
167
107
107
167
107
107
167
107
107
167
107
107
167
107
107
167
107
107
167
107
107
167
107
107
167
107
107
167
107
107
167
107
107
167
107
107
167
107
107
167
107
107
167
107
107
167
107
107
167
107
107
167
107
107
167
107
107
167
107
107
167
107
107
167
107
107
167
107
107
167
107
107
167
107
107
167
107
107
167
107
107
167
107
107
167
107
107
167
107
107
167
107
107
167
107
107
167
107
107
167
107
107
167
107
107
167
107
107
167
107
107
167
107
107
167
107
107
167
107
107
167
107
107
167
107
107
167
107
107
167
107
107
167
107
107
167
107
107
167
107
107
167
107
107
167
107
107
167
107
107
67
51
27
0
0
0
0
0
0
0
0
0
0
0
0
0
0
0
0
0
0
0
0
0
167
107
107
167
107
107
167
107
107
167
107
107
167
107
107
167
107
107
167
107
107
167
107
107
167
107
107
167
107
107
167
107
107
167
107
107
167
107
107
167
107
107
167
107
107
167
107
107
167
107
107
167
107
107
167
107
107
167
107
107
167
107
107
167
107
107
167
107
107
167
107
107
167
107
107
167
107
107
167
107
107
167
107
107
167
107
107
167
107
107
167
107
107
167
107
107
167
107
107
167
107
107
167
107
107
167
107
107
167
107
107
167
107
107
167
107
107
167
107
107
167
107
107
167
107
107
167
107
107
167
107
107
167
107
107
167
107
107
167
107
107
167
107
107
167
107
107
167
107
107
167
107
107
167
107
107
167
107
107
167
107
107
167
107
107
167
107
107
167
107
107
167
107
107
167
107
107
167
107
107
167
107
107
167
107
107
167
107
107
167
107
107
67
51
27
0
0
0
0
0
0
0
0
0
0
0
0
0
0
0
0
0
0
0
0
0
67
51
27
0
0
0
0
0
0
0
0
0
0
0
0
0
0
0
0
0
0
0
0
0
0
0
0
163
107
63
0
0
0
0
0
0
0
0
0
163
107
63
0
0
0
0
0
0
75
55
27
255
127
27
255
127
27
255
255
255
255
235
223
255
255
255
255
127
27
255
127
27
75
55
27
255
235
223
255
235
223
255
127
27
255
127
27
255
235
223
255
235
223
255
127
27
167
107
107
167
107
107
167
107
107
167
107
107
167
107
107
167
107
107
167
107
107
167
107
107
167
107
107
167
107
107
167
107
107
167
107
107
167
107
107
167
107
107
167
107
107
167
107
107
167
107
107
167
107
107
167
107
107
167
107
107
167
107
107
167
107
107
167
107
107
167
107
107
167
107
107
167
107
107
167
107
107
167
107
107
167
107
107
167
107
107
167
107
107
167
107
107
167
107
107
167
107
107
167
107
107
167
107
107
167
107
107
167
107
107
167
107
107
167
107
107
167
107
107
167
107
107
167
107
107
167
107
107
167
107
107
167
107
107
167
107
107
167
107
107
167
107
107
167
107
107
167
107
107
167
107
107
167
107
107
167
107
107
167
107
107
167
107
107
167
107
107
167
107
107
167
107
107
167
107
107
167
107
107
167
107
107
167
107
107
167
107
107
255
255
255
255
255
255
0
0
0
0
0
0
255
255
255
255
255
255
0
0
0
0
0
0
167
107
107
167
107
107
167
107
107
167
107
107
167
107
107
167
107
107
167
107
107
167
107
107
167
107
107
167
107
107
167
107
107
167
107
107
167
107
107
167
107
107
167
107
107
167
107
107
167
107
107
167
107
107
167
107
107
167
107
107
167
107
107
167
107
107
167
107
107
167
107
107
167
107
107
167
107
107
167
107
107
167
107
107
167
107
107
167
107
107
167
107
107
167
107
107
167
107
107
167
107
107
167
107
107
167
107
107
167
107
107
167
107
107
167
107
107
167
107
107
167
107
107
167
107
107
167
107
107
167
107
107
167
107
107
167
107
107
167
107
107
167
107
107
167
107
107
167
107
107
167
107
107
167
107
107
167
107
107
167
107
107
167
107
107
167
107
107
167
107
107
167
107
107
167
107
107
167
107
107
167
107
107
167
107
107
167
107
107
167
107
107
67
51
27
0
0
0
0
0
0
0
0
0
0
0
0
0
0
0
0
0
0
0
0
0
167
107
107
167
107
107
167
107
107
167
107
107
167
107
107
167
107
107
167
107
107
167
107
107
167
107
107
167
107
107
167
107
107
167
107
107
167
107
107
167
107
107
167
107
107
167
107
107
167
107
107
167
107
107
167
107
107
167
107
107
167
107
107
167
107
107
167
107
107
167
107
107
167
107
107
167
107
107
167
107
107
167
107
107
167
107
107
167
107
107
167
107
107
167
107
107
167
107
107
167
107
107
167
107
107
167
107
107
167
107
107
167
107
107
167
107
107
167
107
107
167
107
107
167
107
107
167
107
107
167
107
107
167
107
107
167
107
107
167
107
107
167
107
107
167
107
107
167
107
107
167
107
107
167
107
107
167
107
107
167
107
107
167
107
107
167
107
107
167
107
107
167
107
107
167
107
107
167
107
107
167
107
107
167
107
107
167
107
107
167
107
107
67
51
27
0
0
0
0
0
0
0
0
0
0
0
0
0
0
0
0
0
0
0
0
0
167
107
107
167
107
107
167
107
107
167
107
107
167
107
107
167
107
107
167
107
107
167
107
107
167
107
107
167
107
107
167
107
107
167
107
107
167
107
107
167
107
107
167
107
107
167
107
107
167
107
107
167
107
107
167
107
107
167
107
107
167
107
107
167
107
107
167
107
107
167
107
107
167
107
107
167
107
107
167
107
107
167
107
107
167
107
107
167
107
107
167
107
107
167
107
107
167
107
107
167
107
107
167
107
107
167
107
107
167
107
107
167
107
107
167
107
107
167
107
107
167
107
107
167
107
107
167
107
107
167
107
107
167
107
107
167
107
107
167
107
107
167
107
107
167
107
107
167
107
107
167
107
107
167
107
107
167
107
107
167
107
107
167
107
107
167
107
107
167
107
107
167
107
107
167
107
107
167
107
107
167
107
107
167
107
107
167
107
107
167
107
107
67
51
27
0
0
0
0
0
0
0
0
0
0
0
0
0
0
0
0
0
0
0
0
0
67
51
27
0
0
0
0
0
0
0
0
0
0
0
0
0
0
0
0
0
0
0
0
0
0
0
0
163
107
63
163
107
63
163
107
63
163
107
63
163
107
63
0
0
0
0
0
0
75
55
27
255
127
27
255
127
27
255
127
27
255
235
223
255
255
255
255
127
27
255
127
27
75
55
27
255
235
223
255
235
223
255
127
27
255
127
27
255
235
223
255
235
223
255
127
27
167
107
107
167
107
107
167
107
107
167
107
107
167
107
107
167
107
107
167
107
107
167
107
107
167
107
107
167
107
107
167
107
107
167
107
107
167
107
107
167
107
107
167
107
107
167
107
107
167
107
107
167
107
107
167
107
107
167
107
107
167
107
107
167
107
107
167
107
107
167
107
107
167
107
107
167
107
107
167
107
107
167
107
107
167
107
107
167
107
107
167
107
107
167
107
107
167
107
107
167
107
107
167
107
107
167
107
107
167
107
107
167
107
107
167
107
107
167
107
107
167
107
107
167
107
107
167
107
107
167
107
107
167
107
107
167
107
107
167
107
107
167
107
107
167
107
107
167
107
107
167
107
107
167
107
107
167
107
107
167
107
107
167
107
107
167
107
107
167
107
107
167
107
107
167
107
107
167
107
107
167
107
107
167
107
107
167
107
107
167
107
107
255
255
255
255
255
255
0
0
0
0
0
0
255
255
255
255
255
255
0
0
0
0
0
0
167
107
107
167
107
107
167
107
107
167
107
107
167
107
107
167
107
107
167
107
107
167
107
107
167
107
107
167
107
107
167
107
107
167
107
107
167
107
107
167
107
107
167
107
107
167
107
107
167
107
107
167
107
107
167
107
107
167
107
107
167
107
107
167
107
107
167
107
107
167
107
107
167
107
107
167
107
107
167
107
107
167
107
107
167
107
107
167
107
107
167
107
107
167
107
107
167
107
107
167
107
107
167
107
107
167
107
107
167
107
107
167
107
107
167
107
107
167
107
107
167
107
107
167
107
107
167
107
107
167
107
107
167
107
107
167
107
107
167
107
107
167
107
107
167
107
107
167
107
107
167
107
107
167
107
107
167
107
107
167
107
107
167
107
107
167
107
107
167
107
107
167
107
107
167
107
107
167
107
107
167
107
107
167
107
107
167
107
107
167
107
107
67
51
27
0
0
0
0
0
0
0
0
0
0
0
0
0
0
0
0
0
0
0
0
0
167
107
107
167
107
107
167
107
107
167
107
107
167
107
107
167
107
107
167
107
107
167
107
107
167
107
107
167
107
107
167
107
107
167
107
107
167
107
107
167
107
107
167
107
107
167
107
107
167
107
107
167
107
107
167
107
107
167
107
107
167
107
107
167
107
107
167
107
107
167
107
107
167
107
107
167
107
107
167
107
107
167
107
107
167
107
107
167
107
107
167
107
107
167
107
107
167
107
107
167
107
107
167
107
107
167
107
107
167
107
107
167
107
107
167
107
107
167
107
107
167
107
107
167
107
107
167
107
107
167
107
107
167
107
107
167
107
107
167
107
107
167
107
107
167
107
107
167
107
107
167
107
107
167
107
107
167
107
107
167
107
107
167
107
107
167
107
107
167
107
107
167
107
107
167
107
107
167
107
107
167
107
107
167
107
107
167
107
107
167
107
107
67
51
27
0
0
0
0
0
0
0
0
0
0
0
0
0
0
0
0
0
0
0
0
0
167
107
107
167
107
107
167
107
107
167
107
107
167
107
107
167
107
107
167
107
107
167
107
107
167
107
107
167
107
107
167
107
107
167
107
107
167
107
107
167
107
107
167
107
107
167
107
107
167
107
107
167
107
107
167
107
107
167
107
107
167
107
107
167
107
107
167
107
107
167
107
107
167
107
107
167
107
107
167
107
107
167
107
107
167
107
107
167
107
107
167
107
107
167
107
107
167
107
107
167
107
107
167
107
107
167
107
107
167
107
107
167
107
107
167
107
107
167
107
107
167
107
107
167
107
107
167
107
107
167
107
107
167
107
107
167
107
107
167
107
107
167
107
107
167
107
107
167
107
107
167
107
107
167
107
107
167
107
107
167
107
107
167
107
107
167
107
107
167
107
107
167
107
107
167
107
107
167
107
107
167
107
107
167
107
107
167
107
107
167
107
107
67
51
27
0
0
0
0
0
0
0
0
0
0
0
0
0
0
0
0
0
0
0
0
0
67
51
27
0
0
0
0
0
0
0
0
0
0
0
0
0
0
0
0
0
0
0
0
0
0
0
0
0
0
0
163
107
63
163
107
63
163
107
63
0
0
0
0
0
0
0
0
0
75
55
27
255
127
27
255
127
27
255
127
27
255
235
223
255
255
255
255
127
27
255
127
27
75
55
27
255
235
223
255
235
223
255
127
27
255
127
27
255
235
223
255
235
223
255
127
27
167
107
107
167
107
107
167
107
107
167
107
107
167
107
107
167
107
107
167
107
107
167
107
107
167
107
107
167
107
107
167
107
107
167
107
107
167
107
107
167
107
107
167
107
107
167
107
107
167
107
107
167
107
107
167
107
107
167
107
107
167
107
107
167
107
107
167
107
107
167
107
107
167
107
107
167
107
107
167
107
107
167
107
107
167
107
107
167
107
107
167
107
107
167
107
107
167
107
107
167
107
107
167
107
107
167
107
107
167
107
107
167
107
107
167
107
107
167
107
107
167
107
107
167
107
107
167
107
107
167
107
107
167
107
107
167
107
107
167
107
107
167
107
107
167
107
107
167
107
107
167
107
107
167
107
107
167
107
107
167
107
107
167
107
107
167
107
107
167
107
107
167
107
107
167
107
107
167
107
107
167
107
107
167
107
107
167
107
107
167
107
107
255
255
255
255
255
255
255
255
255
255
255
255
255
255
255
0
0
0
0
0
0
0
0
0
167
107
107
167
107
107
167
107
107
167
107
107
167
107
107
167
107
107
167
107
107
167
107
107
167
107
107
167
107
107
167
107
107
167
107
107
167
107
107
167
107
107
167
107
107
167
107
107
167
107
107
167
107
107
167
107
107
167
107
107
167
107
107
167
107
107
167
107
107
167
107
107
167
107
107
167
107
107
167
107
107
167
107
107
167
107
107
167
107
107
167
107
107
167
107
107
167
107
107
167
107
107
167
107
107
167
107
107
167
107
107
167
107
107
167
107
107
167
107
107
167
107
107
167
107
107
167
107
107
167
107
107
167
107
107
167
107
107
167
107
107
167
107
107
167
107
107
167
107
107
167
107
107
167
107
107
167
107
107
167
107
107
167
107
107
167
107
107
167
107
107
167
107
107
167
107
107
167
107
107
167
107
107
167
107
107
167
107
107
167
107
107
67
51
27
0
0
0
0
0
0
0
0
0
0
0
0
0
0
0
0
0
0
0
0
0
167
107
107
167
107
107
167
107
107
167
107
107
167
107
107
167
107
107
167
107
107
167
107
107
167
107
107
167
107
107
167
107
107
167
107
107
167
107
107
167
107
107
167
107
107
167
107
107
167
107
107
167
107
107
167
107
107
167
107
107
167
107
107
167
107
107
167
107
107
167
107
107
167
107
107
167
107
107
167
107
107
167
107
107
167
107
107
167
107
107
167
107
107
167
107
107
167
107
107
167
107
107
167
107
107
167
107
107
167
107
107
167
107
107
167
107
107
167
107
107
167
107
107
167
107
107
167
107
107
167
107
107
167
107
107
167
107
107
167
107
107
167
107
107
167
107
107
167
107
107
167
107
107
167
107
107
167
107
107
167
107
107
167
107
107
167
107
107
167
107
107
167
107
107
167
107
107
167
107
107
167
107
107
167
107
107
167
107
107
167
107
107
67
51
27
0
0
0
0
0
0
0
0
0
0
0
0
0
0
0
0
0
0
0
0
0
167
107
107
167
107
107
167
107
107
167
107
107
167
107
107
167
107
107
167
107
107
167
107
107
167
107
107
167
107
107
167
107
107
167
107
107
167
107
107
167
107
107
167
107
107
167
107
107
167
107
107
167
107
107
167
107
107
111
115
87
147
147
147
171
171
171
179
179
179
183
183
183
199
199
199
211
211
211
223
223
223
231
231
231
231
231
231
231
231
231
231
231
231
231
231
231
231
231
231
231
231
231
223
223
223
211
211
211
199
199
199
183
183
183
179
179
179
171
171
171
151
151
151
127
127
127
167
107
107
167
107
107
167
107
107
167
107
107
167
107
107
167
107
107
167
107
107
167
107
107
167
107
107
167
107
107
167
107
107
167
107
107
167
107
107
167
107
107
167
107
107
167
107
107
167
107
107
167
107
107
167
107
107
167
107
107
167
107
107
167
107
107
67
51
27
0
0
0
0
0
0
0
0
0
0
0
0
0
0
0
0
0
0
0
0
0
67
51
27
0
0
0
0
0
0
0
0
0
0
0
0
0
0
0
0
0
0
0
0
0
0
0
0
0
0
0
0
0
0
0
0
0
0
0
0
0
0
0
0
0
0
0
0
0
75
55
27
255
127
27
255
127
27
255
127
27
255
235
223
255
255
255
255
127
27
255
127
27
75
55
27
255
235
223
255
235
223
255
127
27
255
127
27
255
235
223
255
235
223
255
127
27
167
107
107
167
107
107
167
107
107
167
107
107
167
107
107
167
107
107
167
107
107
167
107
107
167
107
107
167
107
107
167
107
107
167
107
107
167
107
107
167
107
107
167
107
107
167
107
107
167
107
107
167
107
107
167
107
107
167
107
107
167
107
107
167
107
107
167
107
107
167
107
107
167
107
107
167
107
107
167
107
107
167
107
107
167
107
107
167
107
107
167
107
107
167
107
107
167
107
107
167
107
107
167
107
107
167
107
107
167
107
107
167
107
107
167
107
107
167
107
107
167
107
107
167
107
107
167
107
107
167
107
107
167
107
107
167
107
107
167
107
107
167
107
107
167
107
107
167
107
107
167
107
107
167
107
107
167
107
107
167
107
107
167
107
107
167
107
107
167
107
107
167
107
107
167
107
107
167
107
107
167
107
107
167
107
107
167
107
107
167
107
107
255
255
255
255
255
255
0
0
0
0
0
0
255
255
255
255
255
255
0
0
0
0
0
0
167
107
107
167
107
107
167
107
107
167
107
107
167
107
107
167
107
107
167
107
107
167
107
107
167
107
107
167
107
107
167
107
107
167
107
107
167
107
107
167
107
107
167
107
107
167
107
107
167
107
107
167
107
107
167
107
107
167
107
107
167
107
107
167
107
107
167
107
107
167
107
107
167
107
107
167
107
107
167
107
107
167
107
107
167
107
107
167
107
107
167
107
107
167
107
107
167
107
107
167
107
107
167
107
107
167
107
107
167
107
107
167
107
107
167
107
107
167
107
107
167
107
107
167
107
107
167
107
107
167
107
107
167
107
107
167
107
107
167
107
107
167
107
107
167
107
107
167
107
107
167
107
107
167
107
107
167
107
107
167
107
107
167
107
107
167
107
107
167
107
107
167
107
107
167
107
107
167
107
107
167
107
107
167
107
107
167
107
107
167
107
107
67
51
27
0
0
0
0
0
0
0
0
0
0
0
0
0
0
0
0
0
0
0
0
0
167
107
107
167
107
107
167
107
107
167
107
107
167
107
107
167
107
107
167
107
107
167
107
107
167
107
107
167
107
107
167
107
107
167
107
107
167
107
107
167
107
107
167
107
107
167
107
107
167
107
107
167
107
107
167
107
107
167
107
107
167
107
107
167
107
107
167
107
107
167
107
107
167
107
107
167
107
107
167
107
107
167
107
107
167
107
107
167
107
107
167
107
107
167
107
107
167
107
107
167
107
107
167
107
107
167
107
107
167
107
107
167
107
107
167
107
107
167
107
107
167
107
107
167
107
107
167
107
107
167
107
107
167
107
107
167
107
107
167
107
107
167
107
107
167
107
107
167
107
107
167
107
107
167
107
107
167
107
107
167
107
107
167
107
107
167
107
107
167
107
107
167
107
107
167
107
107
167
107
107
167
107
107
167
107
107
167
107
107
167
107
107
67
51
27
0
0
0
0
0
0
0
0
0
0
0
0
0
0
0
0
0
0
0
0
0
167
107
107
167
107
107
167
107
107
167
107
107
167
107
107
167
107
107
167
107
107
167
107
107
167
107
107
167
107
107
167
107
107
167
107
107
167
107
107
167
107
107
167
107
107
167
107
107
167
107
107
167
107
107
167
107
107
19
19
19
31
23
11
51
43
19
63
71
43
103
83
63
111
115
87
91
99
71
131
107
87
167
143
119
151
151
151
151
151
151
151
151
151
151
151
151
175
151
127
139
139
139
131
107
87
99
99
99
119
95
75
91
99
71
83
87
59
55
55
55
35
35
35
23
15
7
167
107
107
167
107
107
167
107
107
167
107
107
167
107
107
167
107
107
167
107
107
167
107
107
167
107
107
167
107
107
167
107
107
167
107
107
167
107
107
167
107
107
167
107
107
167
107
107
167
107
107
167
107
107
167
107
107
167
107
107
167
107
107
167
107
107
67
51
27
0
0
0
0
0
0
0
0
0
0
0
0
0
0
0
0
0
0
0
0
0
67
51
27
0
0
0
0
0
0
0
0
0
0
0
0
0
0
0
0
0
0
0
0
0
0
0
0
0
0
0
0
0
0
0
0
0
0
0
0
0
0
0
0
0
0
0
0
0
75
55
27
255
127
27
255
127
27
255
127
27
255
235
223
255
255
255
255
127
27
255
127
27
75
55
27
255
235
223
255
235
223
255
127
27
255
127
27
255
255
255
255
235
223
255
127
27
167
107
107
167
107
107
167
107
107
167
107
107
167
107
107
167
107
107
167
107
107
167
107
107
167
107
107
167
107
107
167
107
107
167
107
107
167
107
107
167
107
107
167
107
107
167
107
107
167
107
107
167
107
107
167
107
107
167
107
107
167
107
107
167
107
107
167
107
107
167
107
107
167
107
107
167
107
107
167
107
107
167
107
107
167
107
107
167
107
107
167
107
107
167
107
107
167
107
107
167
107
107
167
107
107
167
107
107
167
107
107
167
107
107
167
107
107
167
107
107
167
107
107
167
107
107
167
107
107
167
107
107
167
107
107
167
107
107
167
107
107
167
107
107
167
107
107
167
107
107
167
107
107
167
107
107
167
107
107
167
107
107
167
107
107
167
107
107
167
107
107
167
107
107
167
107
107
167
107
107
167
107
107
167
107
107
167
107
107
167
107
107
255
255
255
255
255
255
0
0
0
0
0
0
255
255
255
255
255
255
0
0
0
0
0
0
167
107
107
167
107
107
167
107
107
167
107
107
167
107
107
167
107
107
167
107
107
167
107
107
167
107
107
167
107
107
167
107
107
167
107
107
167
107
107
167
107
107
167
107
107
167
107
107
167
107
107
167
107
107
167
107
107
167
107
107
167
107
107
167
107
107
167
107
107
167
107
107
167
107
107
167
107
107
167
107
107
167
107
107
167
107
107
167
107
107
167
107
107
167
107
107
167
107
107
167
107
107
167
107
107
167
107
107
167
107
107
167
107
107
167
107
107
167
107
107
167
107
107
167
107
107
167
107
107
167
107
107
167
107
107
167
107
107
167
107
107
167
107
107
167
107
107
167
107
107
167
107
107
167
107
107
167
107
107
167
107
107
167
107
107
167
107
107
167
107
107
167
107
107
167
107
107
167
107
107
167
107
107
167
107
107
167
107
107
167
107
107
67
51
27
0
0
0
0
0
0
0
0
0
0
0
0
0
0
0
0
0
0
0
0
0
167
107
107
167
107
107
167
107
107
167
107
107
167
107
107
167
107
107
167
107
107
167
107
107
167
107
107
167
107
107
167
107
107
167
107
107
167
107
107
167
107
107
167
107
107
167
107
107
167
107
107
167
107
107
167
107
107
167
107
107
167
107
107
167
107
107
167
107
107
167
107
107
167
107
107
167
107
107
167
107
107
167
107
107
167
107
107
167
107
107
167
107
107
167
107
107
167
107
107
167
107
107
167
107
107
167
107
107
167
107
107
167
107
107
167
107
107
167
107
107
167
107
107
167
107
107
167
107
107
167
107
107
167
107
107
167
107
107
167
107
107
167
107
107
167
107
107
167
107
107
167
107
107
167
107
107
167
107
107
167
107
107
167
107
107
167
107
107
167
107
107
167
107
107
167
107
107
167
107
107
167
107
107
167
107
107
167
107
107
167
107
107
67
51
27
0
0
0
0
0
0
0
0
0
0
0
0
0
0
0
0
0
0
0
0
0
167
107
107
167
107
107
167
107
107
167
107
107
167
107
107
167
107
107
167
107
107
167
107
107
167
107
107
167
107
107
167
107
107
167
107
107
167
107
107
167
107
107
167
107
107
167
107
107
167
107
107
167
107
107
167
107
107
35
35
35
23
15
7
19
19
19
19
19
19
31
23
11
71
71
71
31
23
11
51
43
19
83
63
47
103
83
63
111
87
67
119
95
63
119
95
63
103
83
51
83
63
47
51
43
19
31
23
11
31
23
11
19
19
19
19
19
19
19
19
19
23
15
7
0
0
0
167
107
107
167
107
107
167
107
107
167
107
107
167
107
107
167
107
107
167
107
107
167
107
107
167
107
107
167
107
107
167
107
107
167
107
107
167
107
107
167
107
107
167
107
107
167
107
107
167
107
107
167
107
107
167
107
107
167
107
107
167
107
107
167
107
107
67
51
27
0
0
0
0
0
0
0
0
0
0
0
0
0
0
0
0
0
0
0
0
0
67
51
27
0
0
0
0
0
0
0
0
0
0
0
0
0
0
0
0
0
0
0
0
0
0
0
0
163
107
63
163
107
63
163
107
63
163
107
63
163
107
63
0
0
0
0
0
0
75
55
27
255
127
27
255
127
27
255
255
255
255
255
255
255
255
255
255
255
255
255
127
27
75
55
27
255
127
27
255
235
223
255
235
223
255
235
223
255
235
223
255
127
27
255
127
27
167
107
107
167
107
107
167
107
107
167
107
107
167
107
107
167
107
107
167
107
107
167
107
107
167
107
107
167
107
107
167
107
107
167
107
107
167
107
107
167
107
107
167
107
107
167
107
107
167
107
107
167
107
107
167
107
107
167
107
107
167
107
107
167
107
107
167
107
107
167
107
107
167
107
107
167
107
107
167
107
107
167
107
107
167
107
107
167
107
107
167
107
107
167
107
107
167
107
107
167
107
107
167
107
107
167
107
107
167
107
107
167
107
107
167
107
107
167
107
107
167
107
107
167
107
107
167
107
107
167
107
107
167
107
107
167
107
107
167
107
107
167
107
107
167
107
107
167
107
107
167
107
107
167
107
107
167
107
107
167
107
107
167
107
107
167
107
107
167
107
107
167
107
107
167
107
107
167
107
107
167
107
107
167
107
107
167
107
107
167
107
107
255
255
255
255
255
255
255
255
255
255
255
255
255
255
255
0
0
0
0
0
0
0
0
0
167
107
107
167
107
107
167
107
107
167
107
107
167
107
107
167
107
107
167
107
107
167
107
107
167
107
107
167
107
107
167
107
107
167
107
107
167
107
107
167
107
107
167
107
107
167
107
107
167
107
107
167
107
107
167
107
107
167
107
107
167
107
107
167
107
107
167
107
107
167
107
107
167
107
107
167
107
107
167
107
107
167
107
107
167
107
107
167
107
107
167
107
107
167
107
107
167
107
107
167
107
107
167
107
107
167
107
107
167
107
107
167
107
107
167
107
107
167
107
107
167
107
107
167
107
107
167
107
107
167
107
107
167
107
107
167
107
107
167
107
107
167
107
107
167
107
107
167
107
107
167
107
107
167
107
107
167
107
107
167
107
107
167
107
107
167
107
107
167
107
107
167
107
107
167
107
107
167
107
107
167
107
107
167
107
107
167
107
107
167
107
107
67
51
27
0
0
0
0
0
0
0
0
0
0
0
0
0
0
0
0
0
0
0
0
0
167
107
107
167
107
107
167
107
107
167
107
107
167
107
107
167
107
107
167
107
107
167
107
107
167
107
107
167
107
107
167
107
107
167
107
107
167
107
107
167
107
107
167
107
107
167
107
107
167
107
107
167
107
107
167
107
107
167
107
107
167
107
107
167
107
107
167
107
107
167
107
107
167
107
107
167
107
107
167
107
107
167
107
107
167
107
107
167
107
107
167
107
107
167
107
107
167
107
107
167
107
107
167
107
107
167
107
107
167
107
107
167
107
107
167
107
107
167
107
107
167
107
107
167
107
107
167
107
107
167
107
107
167
107
107
167
107
107
167
107
107
167
107
107
167
107
107
167
107
107
167
107
107
167
107
107
167
107
107
167
107
107
167
107
107
167
107
107
167
107
107
167
107
107
167
107
107
167
107
107
167
107
107
167
107
107
167
107
107
167
107
107
67
51
27
0
0
0
0
0
0
0
0
0
0
0
0
0
0
0
0
0
0
0
0
0
167
107
107
167
107
107
167
107
107
167
107
107
167
107
107
167
107
107
167
107
107
167
107
107
167
107
107
167
107
107
167
107
107
167
107
107
167
107
107
167
107
107
167
107
107
167
107
107
167
107
107
167
107
107
167
107
107
63
71
43
0
0
0
23
15
7
7
7
7
23
15
7
55
55
55
31
23
11
31
23
11
31
23
11
51
43
19
51
43
19
67
51
27
51
43
19
51
43
19
35
35
35
31
23
11
19
19
19
19
19
19
23
15
7
23
15
7
0
0
0
0
0
0
31
23
11
167
107
107
167
107
107
167
107
107
167
107
107
167
107
107
167
107
107
167
107
107
167
107
107
167
107
107
167
107
107
167
107
107
167
107
107
167
107
107
167
107
107
167
107
107
167
107
107
167
107
107
167
107
107
167
107
107
167
107
107
167
107
107
167
107
107
67
51
27
0
0
0
0
0
0
0
0
0
0
0
0
0
0
0
0
0
0
0
0
0
67
51
27
0
0
0
0
0
0
0
0
0
0
0
0
0
0
0
0
0
0
0
0
0
0
0
0
163
107
63
163
107
63
163
107
63
163
107
63
163
107
63
0
0
0
0
0
0
75
55
27
75
55
27
75
55
27
75
55
27
67
51
27
67
51
27
67
51
27
67
51
27
75
55
27
75
55
27
75
55
27
75
55
27
75
55
27
75
55
27
75
55
27
75
55
27
167
107
107
167
107
107
167
107
107
167
107
107
167
107
107
167
107
107
167
107
107
167
107
107
167
107
107
167
107
107
167
107
107
167
107
107
167
107
107
167
107
107
167
107
107
167
107
107
167
107
107
167
107
107
167
107
107
167
107
107
167
107
107
167
107
107
167
107
107
167
107
107
167
107
107
167
107
107
167
107
107
167
107
107
167
107
107
167
107
107
167
107
107
167
107
107
167
107
107
167
107
107
167
107
107
167
107
107
167
107
107
167
107
107
167
107
107
167
107
107
167
107
107
167
107
107
167
107
107
167
107
107
167
107
107
167
107
107
167
107
107
167
107
107
167
107
107
167
107
107
167
107
107
167
107
107
167
107
107
167
107
107
167
107
107
167
107
107
167
107
107
167
107
107
167
107
107
167
107
107
167
107
107
167
107
107
167
107
107
167
107
107
67
51
27
67
51
27
67
51
27
67
51
27
67
51
27
67
51
27
67
51
27
67
51
27
167
107
107
167
107
107
167
107
107
167
107
107
167
107
107
167
107
107
167
107
107
167
107
107
167
107
107
167
107
107
167
107
107
167
107
107
167
107
107
167
107
107
167
107
107
167
107
107
167
107
107
167
107
107
167
107
107
167
107
107
167
107
107
167
107
107
167
107
107
167
107
107
167
107
107
167
107
107
167
107
107
167
107
107
167
107
107
167
107
107
167
107
107
167
107
107
167
107
107
167
107
107
167
107
107
167
107
107
167
107
107
167
107
107
167
107
107
167
107
107
167
107
107
167
107
107
167
107
107
167
107
107
167
107
107
167
107
107
167
107
107
167
107
107
167
107
107
167
107
107
167
107
107
167
107
107
167
107
107
167
107
107
167
107
107
167
107
107
167
107
107
167
107
107
167
107
107
167
107
107
167
107
107
167
107
107
167
107
107
167
107
107
67
51
27
67
51
27
67
51
27
67
51
27
67
51
27
67
51
27
67
51
27
67
51
27
167
107
107
167
107
107
167
107
107
167
107
107
167
107
107
167
107
107
167
107
107
167
107
107
167
107
107
167
107
107
167
107
107
167
107
107
167
107
107
167
107
107
167
107
107
167
107
107
167
107
107
167
107
107
167
107
107
167
107
107
167
107
107
167
107
107
167
107
107
167
107
107
167
107
107
167
107
107
167
107
107
167
107
107
167
107
107
167
107
107
167
107
107
167
107
107
167
107
107
167
107
107
167
107
107
167
107
107
167
107
107
167
107
107
167
107
107
167
107
107
167
107
107
167
107
107
167
107
107
167
107
107
167
107
107
167
107
107
167
107
107
167
107
107
167
107
107
167
107
107
167
107
107
167
107
107
167
107
107
167
107
107
167
107
107
167
107
107
167
107
107
167
107
107
167
107
107
167
107
107
167
107
107
167
107
107
167
107
107
167
107
107
67
51
27
67
51
27
67
51
27
67
51
27
67
51
27
67
51
27
67
51
27
67
51
27
167
107
107
167
107
107
167
107
107
167
107
107
167
107
107
167
107
107
167
107
107
167
107
107
167
107
107
167
107
107
167
107
107
167
107
107
167
107
107
167
107
107
167
107
107
167
107
107
167
107
107
167
107
107
167
107
107
167
107
107
23
15
7
0
0
0
0
0
0
0
0
0
35
35
35
31
23
11
23
15
7
19
19
19
31
23
11
31
23
11
31
23
11
31
23
11
19
19
19
19
19
19
23
15
7
23
15
7
23
15
7
0
0
0
0
0
0
0
0
0
0
0
0
167
107
107
167
107
107
167
107
107
167
107
107
167
107
107
167
107
107
167
107
107
167
107
107
167
107
107
167
107
107
167
107
107
167
107
107
167
107
107
167
107
107
167
107
107
167
107
107
167
107
107
167
107
107
167
107
107
167
107
107
167
107
107
167
107
107
167
107
107
67
51
27
67
51
27
67
51
27
67
51
27
67
51
27
67
51
27
67
51
27
67
51
27
67
51
27
67
51
27
67
51
27
67
51
27
67
51
27
67
51
27
67
51
27
67
51
27
0
0
0
0
0
0
0
0
0
0
0
0
163
107
63
0
0
0
0
0
0
0
0
0
75
55
27
255
127
27
255
127
27
255
127
27
255
235
223
255
255
255
255
127
27
255
127
27
75
55
27
255
127
27
255
127
27
255
127
27
255
235
223
255
255
255
255
127
27
255
127
27
167
107
107
167
107
107
167
107
107
167
107
107
167
107
107
167
107
107
167
107
107
167
107
107
167
107
107
167
107
107
167
107
107
167
107
107
167
107
107
167
107
107
167
107
107
167
107
107
167
107
107
167
107
107
167
107
107
167
107
107
167
107
107
167
107
107
167
107
107
167
107
107
167
107
107
167
107
107
167
107
107
167
107
107
167
107
107
167
107
107
167
107
107
167
107
107
167
107
107
167
107
107
167
107
107
167
107
107
167
107
107
167
107
107
167
107
107
167
107
107
167
107
107
167
107
107
167
107
107
167
107
107
167
107
107
167
107
107
167
107
107
167
107
107
167
107
107
167
107
107
167
107
107
167
107
107
167
107
107
167
107
107
167
107
107
167
107
107
167
107
107
167
107
107
167
107
107
167
107
107
167
107
107
167
107
107
167
107
107
167
107
107
67
51
27
0
0
0
0
0
0
0
0
0
0
0
0
0
0
0
0
0
0
0
0
0
167
107
107
167
107
107
167
107
107
167
107
107
167
107
107
167
107
107
167
107
107
167
107
107
167
107
107
167
107
107
167
107
107
167
107
107
167
107
107
167
107
107
167
107
107
167
107
107
167
107
107
167
107
107
167
107
107
167
107
107
167
107
107
167
107
107
167
107
107
167
107
107
167
107
107
167
107
107
167
107
107
167
107
107
167
107
107
167
107
107
167
107
107
167
107
107
167
107
107
167
107
107
167
107
107
167
107
107
167
107
107
167
107
107
167
107
107
167
107
107
167
107
107
167
107
107
167
107
107
167
107
107
167
107
107
167
107
107
167
107
107
167
107
107
167
107
107
167
107
107
167
107
107
167
107
107
167
107
107
167
107
107
167
107
107
167
107
107
167
107
107
167
107
107
167
107
107
167
107
107
167
107
107
167
107
107
167
107
107
167
107
107
67
51
27
0
0
0
0
0
0
0
0
0
0
0
0
0
0
0
0
0
0
0
0
0
167
107
107
167
107
107
167
107
107
167
107
107
167
107
107
167
107
107
167
107
107
167
107
107
167
107
107
167
107
107
167
107
107
167
107
107
167
107
107
167
107
107
167
107
107
167
107
107
167
107
107
167
107
107
167
107
107
167
107
107
167
107
107
167
107
107
167
107
107
167
107
107
167
107
107
167
107
107
167
107
107
167
107
107
167
107
107
167
107
107
167
107
107
167
107
107
167
107
107
167
107
107
167
107
107
167
107
107
167
107
107
167
107
107
167
107
107
167
107
107
167
107
107
167
107
107
167
107
107
167
107
107
167
107
107
167
107
107
167
107
107
167
107
107
167
107
107
167
107
107
167
107
107
167
107
107
167
107
107
167
107
107
167
107
107
167
107
107
167
107
107
167
107
107
167
107
107
167
107
107
167
107
107
167
107
107
167
107
107
167
107
107
67
51
27
0
0
0
0
0
0
0
0
0
0
0
0
0
0
0
0
0
0
0
0
0
167
107
107
167
107
107
167
107
107
167
107
107
167
107
107
167
107
107
167
107
107
167
107
107
167
107
107
167
107
107
167
107
107
167
107
107
167
107
107
167
107
107
167
107
107
167
107
107
167
107
107
167
107
107
167
107
107
167
107
107
167
107
107
47
47
47
23
15
7
0
0
0
19
19
19
19
19
19
23
15
7
23
15
7
19
19
19
19
19
19
19
19
19
19
19
19
19
19
19
19
19
19
0
0
0
7
7
7
0
0
0
0
0
0
0
0
0
31
23
11
167
107
107
167
107
107
167
107
107
167
107
107
167
107
107
167
107
107
167
107
107
167
107
107
167
107
107
167
107
107
167
107
107
167
107
107
167
107
107
167
107
107
167
107
107
167
107
107
167
107
107
167
107
107
167
107
107
167
107
107
167
107
107
167
107
107
167
107
107
167
107
107
67
51
27
0
0
0
0
0
0
0
0
0
0
0
0
0
0
0
0
0
0
0
0
0
67
51
27
0
0
0
0
0
0
0
0
0
0
0
0
0
0
0
0
0
0
0
0
0
0
0
0
0
0
0
0
0
0
0
0
0
0
0
0
163
107
63
0
0
0
0
0
0
75
55
27
255
127
27
255
127
27
255
255
255
255
235
223
255
255
255
255
127
27
255
127
27
75
55
27
255
127
27
255
127
27
255
255
255
255
235
223
255
255
255
255
127
27
255
127
27
167
107
107
167
107
107
167
107
107
167
107
107
167
107
107
167
107
107
167
107
107
167
107
107
167
107
107
167
107
107
167
107
107
167
107
107
167
107
107
167
107
107
167
107
107
167
107
107
167
107
107
167
107
107
167
107
107
167
107
107
167
107
107
167
107
107
167
107
107
167
107
107
167
107
107
167
107
107
167
107
107
167
107
107
167
107
107
167
107
107
167
107
107
167
107
107
167
107
107
167
107
107
167
107
107
167
107
107
167
107
107
167
107
107
167
107
107
167
107
107
167
107
107
167
107
107
167
107
107
167
107
107
167
107
107
167
107
107
167
107
107
167
107
107
167
107
107
167
107
107
167
107
107
167
107
107
167
107
107
167
107
107
167
107
107
167
107
107
167
107
107
167
107
107
167
107
107
167
107
107
167
107
107
167
107
107
167
107
107
167
107
107
255
255
255
255
255
255
255
255
255
255
255
255
255
255
255
0
0
0
0
0
0
0
0
0
167
107
107
167
107
107
167
107
107
167
107
107
167
107
107
167
107
107
167
107
107
167
107
107
167
107
107
167
107
107
167
107
107
167
107
107
167
107
107
167
107
107
167
107
107
167
107
107
167
107
107
167
107
107
167
107
107
167
107
107
167
107
107
167
107
107
167
107
107
167
107
107
167
107
107
167
107
107
167
107
107
167
107
107
167
107
107
167
107
107
167
107
107
167
107
107
167
107
107
167
107
107
167
107
107
167
107
107
167
107
107
167
107
107
167
107
107
167
107
107
167
107
107
167
107
107
167
107
107
167
107
107
167
107
107
167
107
107
167
107
107
167
107
107
167
107
107
167
107
107
167
107
107
167
107
107
167
107
107
167
107
107
167
107
107
167
107
107
167
107
107
167
107
107
167
107
107
167
107
107
167
107
107
167
107
107
167
107
107
167
107
107
67
51
27
0
0
0
0
0
0
0
0
0
0
0
0
0
0
0
0
0
0
0
0
0
167
107
107
167
107
107
167
107
107
167
107
107
167
107
107
167
107
107
167
107
107
167
107
107
167
107
107
167
107
107
167
107
107
167
107
107
167
107
107
167
107
107
167
107
107
167
107
107
167
107
107
167
107
107
167
107
107
167
107
107
167
107
107
167
107
107
167
107
107
167
107
107
167
107
107
167
107
107
167
107
107
167
107
107
167
107
107
167
107
107
167
107
107
167
107
107
167
107
107
167
107
107
167
107
107
167
107
107
167
107
107
167
107
107
167
107
107
167
107
107
167
107
107
167
107
107
167
107
107
167
107
107
167
107
107
167
107
107
167
107
107
167
107
107
167
107
107
167
107
107
167
107
107
167
107
107
167
107
107
167
107
107
167
107
107
167
107
107
167
107
107
167
107
107
167
107
107
167
107
107
167
107
107
167
107
107
167
107
107
167
107
107
67
51
27
0
0
0
0
0
0
0
0
0
0
0
0
0
0
0
0
0
0
0
0
0
167
107
107
167
107
107
167
107
107
167
107
107
167
107
107
167
107
107
167
107
107
167
107
107
167
107
107
167
107
107
167
107
107
167
107
107
167
107
107
167
107
107
167
107
107
167
107
107
167
107
107
167
107
107
167
107
107
167
107
107
167
107
107
167
107
107
167
107
107
51
43
19
19
19
19
23
15
7
23
15
7
23
15
7
7
7
7
23
15
7
19
19
19
19
19
19
0
0
0
23
15
7
0
0
0
7
7
7
7
7
7
31
23
11
167
107
107
167
107
107
167
107
107
167
107
107
167
107
107
167
107
107
167
107
107
167
107
107
167
107
107
167
107
107
167
107
107
167
107
107
167
107
107
167
107
107
167
107
107
167
107
107
167
107
107
167
107
107
167
107
107
167
107
107
167
107
107
167
107
107
167
107
107
167
107
107
167
107
107
167
107
107
67
51
27
0
0
0
0
0
0
0
0
0
0
0
0
0
0
0
0
0
0
0
0
0
67
51
27
0
0
0
0
0
0
0
0
0
0
0
0
0
0
0
0
0
0
0
0
0
0
0
0
0
0
0
0
0
0
0
0
0
0
0
0
163
107
63
0
0
0
0
0
0
75
55
27
255
127
27
255
127
27
255
127
27
255
235
223
255
255
255
255
127
27
255
127
27
75
55
27
255
127
27
255
127
27
255
127
27
255
235
223
255
255
255
255
127
27
255
127
27
167
107
107
167
107
107
167
107
107
167
107
107
167
107
107
167
107
107
167
107
107
167
107
107
167
107
107
167
107
107
167
107
107
167
107
107
167
107
107
167
107
107
167
107
107
167
107
107
167
107
107
167
107
107
167
107
107
167
107
107
167
107
107
167
107
107
167
107
107
167
107
107
167
107
107
167
107
107
167
107
107
167
107
107
167
107
107
167
107
107
167
107
107
167
107
107
167
107
107
167
107
107
167
107
107
167
107
107
167
107
107
167
107
107
167
107
107
167
107
107
167
107
107
167
107
107
167
107
107
167
107
107
167
107
107
167
107
107
167
107
107
167
107
107
167
107
107
167
107
107
167
107
107
167
107
107
167
107
107
167
107
107
167
107
107
167
107
107
167
107
107
167
107
107
167
107
107
167
107
107
167
107
107
167
107
107
167
107
107
167
107
107
255
255
255
255
255
255
0
0
0
0
0
0
255
255
255
255
255
255
0
0
0
0
0
0
167
107
107
167
107
107
167
107
107
167
107
107
167
107
107
167
107
107
167
107
107
167
107
107
167
107
107
167
107
107
167
107
107
167
107
107
167
107
107
167
107
107
167
107
107
167
107
107
167
107
107
167
107
107
167
107
107
167
107
107
167
107
107
167
107
107
167
107
107
167
107
107
167
107
107
167
107
107
167
107
107
167
107
107
167
107
107
167
107
107
167
107
107
167
107
107
167
107
107
167
107
107
167
107
107
167
107
107
167
107
107
167
107
107
167
107
107
167
107
107
167
107
107
167
107
107
167
107
107
167
107
107
167
107
107
167
107
107
167
107
107
167
107
107
167
107
107
167
107
107
167
107
107
167
107
107
167
107
107
167
107
107
167
107
107
167
107
107
167
107
107
167
107
107
167
107
107
167
107
107
167
107
107
167
107
107
167
107
107
167
107
107
67
51
27
0
0
0
0
0
0
0
0
0
0
0
0
0
0
0
0
0
0
0
0
0
167
107
107
167
107
107
167
107
107
167
107
107
167
107
107
167
107
107
167
107
107
167
107
107
167
107
107
167
107
107
167
107
107
167
107
107
167
107
107
167
107
107
167
107
107
167
107
107
167
107
107
167
107
107
167
107
107
167
107
107
167
107
107
167
107
107
167
107
107
167
107
107
255
0
0
255
0
0
167
107
107
167
107
107
167
107
107
255
0
0
255
0
0
167
107
107
167
107
107
255
0
0
255
0
0
255
0
0
255
0
0
255
0
0
167
107
107
167
107
107
167
107
107
167
107
107
167
107
107
167
107
107
167
107
107
167
107
107
167
107
107
167
107
107
167
107
107
167
107
107
167
107
107
167
107
107
167
107
107
167
107
107
167
107
107
167
107
107
167
107
107
167
107
107
167
107
107
167
107
107
167
107
107
167
107
107
167
107
107
167
107
107
67
51
27
0
0
0
0
0
0
0
0
0
0
0
0
0
0
0
0
0
0
0
0
0
167
107
107
167
107
107
167
107
107
167
107
107
167
107
107
167
107
107
167
107
107
167
107
107
167
107
107
167
107
107
167
107
107
167
107
107
167
107
107
167
107
107
167
107
107
167
107
107
167
107
107
167
107
107
167
107
107
167
107
107
167
107
107
167
107
107
167
107
107
167
107
107
167
107
107
39
39
39
0
0
0
19
19
19
27
27
27
39
39
39
55
55
55
55
55
55
39
39
39
0
0
0
0
0
0
31
23
11
55
55
55
167
107
107
167
107
107
167
107
107
167
107
107
167
107
107
167
107
107
167
107
107
167
107
107
167
107
107
167
107
107
167
107
107
167
107
107
167
107
107
167
107
107
167
107
107
167
107
107
167
107
107
167
107
107
167
107
107
167
107
107
167
107
107
167
107
107
167
107
107
167
107
107
167
107
107
167
107
107
167
107
107
67
51
27
0
0
0
0
0
0
0
0
0
0
0
0
0
0
0
0
0
0
0
0
0
67
51
27
0
0
0
0
0
0
0
0
0
0
0
0
0
0
0
0
0
0
0
0
0
0
0
0
0
0
0
0
0
0
0
0
0
0
0
0
163
107
63
0
0
0
0
0
0
75
55
27
255
127
27
255
127
27
255
127
27
255
235
223
255
255
255
255
127
27
255
127
27
75
55
27
255
127
27
255
127
27
255
127
27
255
235
223
255
255
255
255
127
27
255
127
27
167
107
107
167
107
107
167
107
107
167
107
107
167
107
107
167
107
107
167
107
107
167
107
107
167
107
107
167
107
107
167
107
107
167
107
107
167
107
107
167
107
107
167
107
107
167
107
107
167
107
107
167
107
107
167
107
107
167
107
107
167
107
107
167
107
107
167
107
107
167
107
107
167
107
107
167
107
107
167
107
107
167
107
107
167
107
107
167
107
107
167
107
107
167
107
107
167
107
107
167
107
107
167
107
107
167
107
107
167
107
107
167
107
107
167
107
107
167
107
107
167
107
107
167
107
107
167
107
107
167
107
107
167
107
107
167
107
107
167
107
107
167
107
107
167
107
107
167
107
107
167
107
107
167
107
107
167
107
107
167
107
107
167
107
107
167
107
107
167
107
107
167
107
107
167
107
107
167
107
107
167
107
107
167
107
107
167
107
107
167
107
107
255
255
255
255
255
255
0
0
0
0
0
0
255
255
255
255
255
255
0
0
0
0
0
0
167
107
107
167
107
107
167
107
107
167
107
107
167
107
107
167
107
107
167
107
107
167
107
107
167
107
107
167
107
107
167
107
107
167
107
107
167
107
107
167
107
107
167
107
107
167
107
107
167
107
107
167
107
107
167
107
107
167
107
107
167
107
107
167
107
107
167
107
107
167
107
107
167
107
107
167
107
107
167
107
107
167
107
107
167
107
107
167
107
107
167
107
107
167
107
107
167
107
107
167
107
107
167
107
107
167
107
107
167
107
107
167
107
107
167
107
107
167
107
107
167
107
107
167
107
107
167
107
107
167
107
107
167
107
107
167
107
107
167
107
107
167
107
107
167
107
107
167
107
107
167
107
107
167
107
107
167
107
107
167
107
107
167
107
107
167
107
107
167
107
107
167
107
107
167
107
107
167
107
107
167
107
107
167
107
107
167
107
107
167
107
107
67
51
27
0
0
0
0
0
0
0
0
0
0
0
0
0
0
0
0
0
0
0
0
0
167
107
107
167
107
107
167
107
107
167
107
107
167
107
107
167
107
107
167
107
107
167
107
107
167
107
107
167
107
107
167
107
107
167
107
107
167
107
107
167
107
107
167
107
107
167
107
107
167
107
107
167
107
107
167
107
107
167
107
107
167
107
107
167
107
107
167
107
107
167
107
107
255
0
0
255
0
0
255
0
0
167
107
107
167
107
107
255
0
0
255
0
0
167
107
107
255
0
0
255
0
0
167
107
107
167
107
107
167
107
107
167
107
107
167
107
107
167
107
107
167
107
107
167
107
107
167
107
107
167
107
107
167
107
107
167
107
107
167
107
107
167
107
107
167
107
107
167
107
107
167
107
107
167
107
107
167
107
107
167
107
107
167
107
107
167
107
107
167
107
107
167
107
107
167
107
107
167
107
107
167
107
107
167
107
107
167
107
107
167
107
107
67
51
27
0
0
0
0
0
0
0
0
0
0
0
0
0
0
0
0
0
0
0
0
0
167
107
107
167
107
107
167
107
107
167
107
107
167
107
107
167
107
107
167
107
107
167
107
107
167
107
107
167
107
107
167
107
107
167
107
107
167
107
107
167
107
107
167
107
107
167
107
107
167
107
107
167
107
107
167
107
107
167
107
107
167
107
107
167
107
107
167
107
107
167
107
107
167
107
107
167
107
107
0
0
0
0
0
0
0
0
0
0
0
0
19
19
19
23
15
7
0
0
0
0
0
0
0
0
0
167
107
107
167
107
107
167
107
107
167
107
107
167
107
107
167
107
107
167
107
107
167
107
107
167
107
107
167
107
107
167
107
107
167
107
107
167
107
107
167
107
107
167
107
107
167
107
107
167
107
107
167
107
107
167
107
107
167
107
107
167
107
107
167
107
107
167
107
107
167
107
107
167
107
107
167
107
107
167
107
107
167
107
107
167
107
107
67
51
27
0
0
0
0
0
0
0
0
0
0
0
0
0
0
0
0
0
0
0
0
0
67
51
27
0
0
0
0
0
0
0
0
0
0
0
0
0
0
0
0
0
0
0
0
0
0
0
0
0
0
0
0
0
0
0
0
0
0
0
0
0
0
0
0
0
0
0
0
0
75
55
27
255
127
27
255
127
27
255
127
27
255
235
223
255
255
255
255
127
27
255
127
27
75
55
27
255
127
27
255
127
27
255
127
27
255
235
223
255
255
255
255
127
27
255
127
27
167
107
107
167
107
107
167
107
107
167
107
107
167
107
107
167
107
107
167
107
107
167
107
107
167
107
107
167
107
107
167
107
107
167
107
107
167
107
107
167
107
107
167
107
107
167
107
107
167
107
107
167
107
107
167
107
107
167
107
107
167
107
107
167
107
107
167
107
107
167
107
107
167
107
107
167
107
107
167
107
107
167
107
107
167
107
107
167
107
107
167
107
107
167
107
107
167
107
107
167
107
107
167
107
107
167
107
107
167
107
107
167
107
107
167
107
107
167
107
107
167
107
107
167
107
107
167
107
107
167
107
107
167
107
107
167
107
107
167
107
107
167
107
107
167
107
107
167
107
107
167
107
107
167
107
107
167
107
107
167
107
107
167
107
107
167
107
107
167
107
107
167
107
107
167
107
107
167
107
107
167
107
107
167
107
107
167
107
107
167
107
107
255
255
255
255
255
255
255
255
255
255
255
255
255
255
255
0
0
0
0
0
0
0
0
0
167
107
107
167
107
107
167
107
107
167
107
107
167
107
107
167
107
107
167
107
107
167
107
107
167
107
107
167
107
107
167
107
107
167
107
107
167
107
107
167
107
107
167
107
107
167
107
107
167
107
107
167
107
107
167
107
107
167
107
107
167
107
107
167
107
107
167
107
107
167
107
107
167
107
107
167
107
107
167
107
107
167
107
107
167
107
107
167
107
107
167
107
107
167
107
107
167
107
107
167
107
107
167
107
107
167
107
107
167
107
107
167
107
107
167
107
107
167
107
107
167
107
107
167
107
107
167
107
107
167
107
107
167
107
107
167
107
107
167
107
107
167
107
107
167
107
107
167
107
107
167
107
107
167
107
107
167
107
107
167
107
107
167
107
107
167
107
107
167
107
107
167
107
107
167
107
107
167
107
107
167
107
107
167
107
107
167
107
107
167
107
107
67
51
27
0
0
0
0
0
0
0
0
0
0
0
0
0
0
0
0
0
0
0
0
0
167
107
107
167
107
107
167
107
107
167
107
107
167
107
107
167
107
107
167
107
107
167
107
107
167
107
107
167
107
107
167
107
107
167
107
107
167
107
107
167
107
107
167
107
107
167
107
107
167
107
107
167
107
107
167
107
107
167
107
107
167
107
107
167
107
107
167
107
107
167
107
107
255
0
0
255
0
0
255
0
0
255
0
0
167
107
107
255
0
0
255
0
0
167
107
107
255
0
0
255
0
0
167
107
107
167
107
107
167
107
107
167
107
107
167
107
107
167
107
107
167
107
107
167
107
107
167
107
107
167
107
107
167
107
107
167
107
107
167
107
107
167
107
107
167
107
107
167
107
107
167
107
107
167
107
107
167
107
107
167
107
107
167
107
107
167
107
107
167
107
107
167
107
107
167
107
107
167
107
107
167
107
107
167
107
107
167
107
107
167
107
107
67
51
27
0
0
0
0
0
0
0
0
0
0
0
0
0
0
0
0
0
0
0
0
0
167
107
107
167
107
107
167
107
107
167
107
107
167
107
107
167
107
107
167
107
107
167
107
107
167
107
107
167
107
107
167
107
107
167
107
107
167
107
107
167
107
107
167
107
107
167
107
107
167
107
107
167
107
107
167
107
107
167
107
107
167
107
107
167
107
107
167
107
107
167
107
107
167
107
107
167
107
107
0
0
0
0
0
0
0
0
0
0
0
0
0
0
0
0
0
0
0
0
0
0
0
0
0
0
0
167
107
107
167
107
107
167
107
107
167
107
107
167
107
107
167
107
107
167
107
107
167
107
107
167
107
107
167
107
107
167
107
107
167
107
107
167
107
107
167
107
107
167
107
107
167
107
107
167
107
107
167
107
107
167
107
107
167
107
107
167
107
107
167
107
107
167
107
107
167
107
107
167
107
107
167
107
107
167
107
107
167
107
107
167
107
107
67
51
27
0
0
0
0
0
0
0
0
0
0
0
0
0
0
0
0
0
0
0
0
0
67
51
27
0
0
0
0
0
0
0
0
0
0
0
0
0
0
0
0
0
0
0
0
0
0
0
0
0
0
0
0
0
0
0
0
0
0
0
0
0
0
0
0
0
0
0
0
0
75
55
27
255
127
27
255
127
27
255
127
27
255
235
223
255
255
255
255
127
27
255
127
27
75
55
27
255
127
27
255
127
27
255
127
27
255
235
223
255
255
255
255
127
27
255
127
27
167
107
107
167
107
107
167
107
107
167
107
107
167
107
107
167
107
107
167
107
107
167
107
107
167
107
107
167
107
107
167
107
107
167
107
107
167
107
107
167
107
107
167
107
107
167
107
107
167
107
107
167
107
107
167
107
107
167
107
107
167
107
107
167
107
107
167
107
107
167
107
107
167
107
107
167
107
107
167
107
107
167
107
107
167
107
107
167
107
107
167
107
107
167
107
107
167
107
107
167
107
107
167
107
107
167
107
107
167
107
107
167
107
107
167
107
107
167
107
107
167
107
107
167
107
107
167
107
107
167
107
107
167
107
107
167
107
107
167
107
107
167
107
107
167
107
107
167
107
107
167
107
107
167
107
107
167
107
107
167
107
107
167
107
107
167
107
107
167
107
107
167
107
107
167
107
107
167
107
107
167
107
107
167
107
107
167
107
107
167
107
107
255
255
255
255
255
255
0
0
0
0
0
0
0
0
0
0
0
0
0
0
0
0
0
0
167
107
107
167
107
107
167
107
107
167
107
107
167
107
107
167
107
107
167
107
107
167
107
107
167
107
107
167
107
107
167
107
107
167
107
107
167
107
107
167
107
107
167
107
107
167
107
107
167
107
107
167
107
107
167
107
107
167
107
107
167
107
107
167
107
107
167
107
107
167
107
107
167
107
107
167
107
107
167
107
107
167
107
107
167
107
107
167
107
107
167
107
107
167
107
107
167
107
107
167
107
107
167
107
107
167
107
107
167
107
107
167
107
107
167
107
107
167
107
107
167
107
107
167
107
107
167
107
107
167
107
107
167
107
107
167
107
107
167
107
107
167
107
107
167
107
107
167
107
107
167
107
107
167
107
107
167
107
107
167
107
107
167
107
107
167
107
107
167
107
107
167
107
107
167
107
107
167
107
107
167
107
107
167
107
107
167
107
107
167
107
107
67
51
27
0
0
0
0
0
0
0
0
0
0
0
0
0
0
0
0
0
0
0
0
0
167
107
107
167
107
107
167
107
107
167
107
107
167
107
107
167
107
107
167
107
107
167
107
107
167
107
107
167
107
107
167
107
107
167
107
107
167
107
107
167
107
107
167
107
107
167
107
107
167
107
107
167
107
107
167
107
107
167
107
107
167
107
107
167
107
107
167
107
107
167
107
107
255
0
0
255
0
0
167
107
107
255
0
0
255
0
0
255
0
0
255
0
0
167
107
107
255
0
0
255
0
0
167
107
107
167
107
107
167
107
107
167
107
107
167
107
107
167
107
107
167
107
107
167
107
107
167
107
107
167
107
107
167
107
107
167
107
107
167
107
107
167
107
107
167
107
107
167
107
107
167
107
107
167
107
107
167
107
107
167
107
107
167
107
107
167
107
107
167
107
107
167
107
107
167
107
107
167
107
107
167
107
107
167
107
107
167
107
107
167
107
107
67
51
27
0
0
0
0
0
0
0
0
0
0
0
0
0
0
0
0
0
0
0
0
0
167
107
107
167
107
107
167
107
107
167
107
107
167
107
107
167
107
107
167
107
107
167
107
107
167
107
107
167
107
107
167
107
107
167
107
107
167
107
107
167
107
107
167
107
107
167
107
107
167
107
107
167
107
107
167
107
107
167
107
107
167
107
107
167
107
107
167
107
107
167
107
107
167
107
107
167
107
107
0
0
0
19
19
19
19
19
19
0
0
0
0
0
0
0
0
0
0
0
0
0
0
0
0
0
0
167
107
107
167
107
107
167
107
107
167
107
107
167
107
107
167
107
107
167
107
107
167
107
107
167
107
107
167
107
107
167
107
107
167
107
107
167
107
107
167
107
107
167
107
107
167
107
107
167
107
107
167
107
107
167
107
107
167
107
107
167
107
107
167
107
107
167
107
107
167
107
107
167
107
107
167
107
107
167
107
107
167
107
107
167
107
107
67
51
27
0
0
0
0
0
0
0
0
0
0
0
0
0
0
0
0
0
0
0
0
0
67
51
27
0
0
0
0
0
0
0
0
0
0
0
0
0
0
0
0
0
0
0
0
0
0
0
0
0
0
0
0
0
0
0
0
0
0
0
0
0
0
0
0
0
0
0
0
0
75
55
27
255
127
27
255
127
27
255
255
255
255
255
255
255
255
255
255
255
255
255
127
27
75
55
27
255
127
27
255
127
27
255
255
255
255
255
255
255
255
255
255
255
255
255
127
27
167
107
107
167
107
107
167
107
107
167
107
107
167
107
107
167
107
107
167
107
107
167
107
107
167
107
107
167
107
107
167
107
107
167
107
107
167
107
107
167
107
107
167
107
107
167
107
107
167
107
107
167
107
107
167
107
107
167
107
107
167
107
107
167
107
107
167
107
107
167
107
107
167
107
107
167
107
107
167
107
107
167
107
107
167
107
107
167
107
107
167
107
107
167
107
107
167
107
107
167
107
107
167
107
107
167
107
107
167
107
107
167
107
107
167
107
107
167
107
107
167
107
107
167
107
107
167
107
107
167
107
107
167
107
107
167
107
107
167
107
107
167
107
107
167
107
107
167
107
107
167
107
107
167
107
107
167
107
107
167
107
107
167
107
107
167
107
107
167
107
107
167
107
107
167
107
107
167
107
107
167
107
107
167
107
107
167
107
107
167
107
107
255
255
255
255
255
255
0
0
0
0
0
0
0
0
0
0
0
0
0
0
0
0
0
0
167
107
107
167
107
107
167
107
107
167
107
107
167
107
107
167
107
107
167
107
107
167
107
107
167
107
107
167
107
107
167
107
107
167
107
107
167
107
107
167
107
107
167
107
107
167
107
107
167
107
107
167
107
107
167
107
107
167
107
107
167
107
107
167
107
107
167
107
107
167
107
107
167
107
107
167
107
107
167
107
107
167
107
107
167
107
107
167
107
107
167
107
107
167
107
107
167
107
107
167
107
107
167
107
107
167
107
107
167
107
107
167
107
107
167
107
107
167
107
107
167
107
107
167
107
107
167
107
107
167
107
107
167
107
107
167
107
107
167
107
107
167
107
107
167
107
107
167
107
107
167
107
107
167
107
107
167
107
107
167
107
107
167
107
107
167
107
107
167
107
107
167
107
107
167
107
107
167
107
107
167
107
107
167
107
107
167
107
107
167
107
107
67
51
27
0
0
0
0
0
0
0
0
0
0
0
0
0
0
0
0
0
0
0
0
0
167
107
107
167
107
107
167
107
107
167
107
107
167
107
107
167
107
107
167
107
107
167
107
107
167
107
107
167
107
107
167
107
107
167
107
107
167
107
107
167
107
107
167
107
107
167
107
107
167
107
107
167
107
107
167
107
107
167
107
107
167
107
107
167
107
107
167
107
107
167
107
107
255
0
0
255
0
0
167
107
107
167
107
107
255
0
0
255
0
0
255
0
0
167
107
107
255
0
0
255
0
0
167
107
107
255
0
0
255
0
0
255
0
0
167
107
107
167
107
107
167
107
107
167
107
107
167
107
107
167
107
107
167
107
107
167
107
107
167
107
107
167
107
107
167
107
107
167
107
107
167
107
107
167
107
107
167
107
107
167
107
107
167
107
107
167
107
107
167
107
107
167
107
107
167
107
107
167
107
107
167
107
107
167
107
107
167
107
107
167
107
107
67
51
27
0
0
0
0
0
0
0
0
0
0
0
0
0
0
0
0
0
0
0
0
0
167
107
107
167
107
107
167
107
107
167
107
107
167
107
107
167
107
107
167
107
107
167
107
107
167
107
107
167
107
107
167
107
107
167
107
107
167
107
107
167
107
107
167
107
107
167
107
107
167
107
107
167
107
107
167
107
107
167
107
107
167
107
107
167
107
107
167
107
107
167
107
107
167
107
107
167
107
107
0
0
0
0
0
0
39
39
39
19
19
19
39
39
39
39
39
39
39
39
39
0
0
0
19
19
19
167
107
107
167
107
107
167
107
107
167
107
107
167
107
107
167
107
107
167
107
107
167
107
107
167
107
107
167
107
107
167
107
107
167
107
107
167
107
107
167
107
107
167
107
107
167
107
107
167
107
107
167
107
107
167
107
107
167
107
107
167
107
107
167
107
107
167
107
107
167
107
107
167
107
107
167
107
107
167
107
107
167
107
107
167
107
107
67
51
27
0
0
0
0
0
0
0
0
0
0
0
0
0
0
0
0
0
0
0
0
0
67
51
27
0
0
0
0
0
0
0
0
0
0
0
0
0
0
0
0
0
0
0
0
0
0
0
0
0
0
0
0
0
0
0
0
0
0
0
0
0
0
0
0
0
0
0
0
0
75
55
27
75
55
27
75
55
27
75
55
27
67
51
27
67
51
27
67
51
27
67
51
27
75
55
27
75
55
27
75
55
27
75
55
27
67
51
27
67
51
27
67
51
27
67
51
27
167
107
107
167
107
107
167
107
107
167
107
107
167
107
107
167
107
107
167
107
107
167
107
107
167
107
107
167
107
107
167
107
107
167
107
107
167
107
107
167
107
107
167
107
107
167
107
107
167
107
107
167
107
107
167
107
107
167
107
107
167
107
107
167
107
107
167
107
107
167
107
107
167
107
107
167
107
107
167
107
107
167
107
107
167
107
107
167
107
107
167
107
107
167
107
107
167
107
107
167
107
107
167
107
107
167
107
107
167
107
107
167
107
107
167
107
107
167
107
107
167
107
107
167
107
107
167
107
107
167
107
107
167
107
107
167
107
107
167
107
107
167
107
107
167
107
107
167
107
107
167
107
107
167
107
107
167
107
107
167
107
107
167
107
107
167
107
107
167
107
107
167
107
107
167
107
107
167
107
107
167
107
107
167
107
107
167
107
107
167
107
107
255
255
255
255
255
255
67
51
27
67
51
27
67
51
27
67
51
27
67
51
27
67
51
27
167
107
107
167
107
107
167
107
107
167
107
107
167
107
107
167
107
107
167
107
107
167
107
107
167
107
107
167
107
107
167
107
107
167
107
107
167
107
107
167
107
107
167
107
107
167
107
107
167
107
107
167
107
107
167
107
107
167
107
107
167
107
107
167
107
107
167
107
107
167
107
107
167
107
107
167
107
107
167
107
107
167
107
107
167
107
107
167
107
107
167
107
107
167
107
107
167
107
107
167
107
107
167
107
107
167
107
107
167
107
107
167
107
107
167
107
107
167
107
107
167
107
107
167
107
107
167
107
107
167
107
107
167
107
107
167
107
107
167
107
107
167
107
107
167
107
107
167
107
107
167
107
107
167
107
107
167
107
107
167
107
107
167
107
107
167
107
107
167
107
107
167
107
107
167
107
107
167
107
107
167
107
107
167
107
107
167
107
107
167
107
107
67
51
27
67
51
27
67
51
27
67
51
27
67
51
27
67
51
27
67
51
27
67
51
27
167
107
107
167
107
107
167
107
107
167
107
107
167
107
107
167
107
107
167
107
107
167
107
107
167
107
107
167
107
107
167
107
107
167
107
107
167
107
107
167
107
107
167
107
107
167
107
107
167
107
107
167
107
107
167
107
107
167
107
107
167
107
107
167
107
107
167
107
107
167
107
107
255
0
0
255
0
0
167
107
107
167
107
107
167
107
107
255
0
0
255
0
0
167
107
107
255
0
0
255
0
0
167
107
107
167
107
107
255
0
0
255
0
0
167
107
107
167
107
107
167
107
107
167
107
107
167
107
107
167
107
107
167
107
107
167
107
107
167
107
107
167
107
107
167
107
107
167
107
107
167
107
107
167
107
107
167
107
107
167
107
107
167
107
107
167
107
107
167
107
107
167
107
107
167
107
107
167
107
107
167
107
107
167
107
107
167
107
107
167
107
107
67
51
27
67
51
27
67
51
27
67
51
27
67
51
27
67
51
27
67
51
27
67
51
27
167
107
107
167
107
107
167
107
107
167
107
107
167
107
107
167
107
107
167
107
107
167
107
107
167
107
107
167
107
107
167
107
107
167
107
107
167
107
107
167
107
107
167
107
107
167
107
107
167
107
107
167
107
107
167
107
107
167
107
107
167
107
107
167
107
107
167
107
107
167
107
107
167
107
107
167
107
107
0
0
0
0
0
0
39
39
39
35
35
35
83
87
59
63
71
43
39
39
39
0
0
0
0
0
0
167
107
107
167
107
107
167
107
107
167
107
107
167
107
107
167
107
107
167
107
107
167
107
107
167
107
107
167
107
107
167
107
107
167
107
107
167
107
107
167
107
107
167
107
107
167
107
107
167
107
107
167
107
107
167
107
107
167
107
107
167
107
107
167
107
107
167
107
107
167
107
107
167
107
107
167
107
107
167
107
107
167
107
107
167
107
107
67
51
27
67
51
27
67
51
27
67
51
27
67
51
27
67
51
27
67
51
27
67
51
27
67
51
27
67
51
27
67
51
27
67
51
27
67
51
27
67
51
27
67
51
27
67
51
27
0
0
0
0
0
0
0
0
0
0
0
0
0
0
0
0
0
0
0
0
0
0
0
0
75
55
27
255
127
27
255
127
27
255
127
27
255
235
223
255
255
255
255
127
27
255
127
27
75
55
27
255
127
27
255
235
223
255
235
223
255
235
223
255
235
223
255
127
27
255
127
27
167
107
107
167
107
107
167
107
107
167
107
107
167
107
107
167
107
107
167
107
107
167
107
107
167
107
107
167
107
107
167
107
107
167
107
107
167
107
107
167
107
107
167
107
107
167
107
107
167
107
107
167
107
107
167
107
107
167
107
107
167
107
107
167
107
107
167
107
107
167
107
107
167
107
107
167
107
107
167
107
107
167
107
107
167
107
107
167
107
107
167
107
107
167
107
107
167
107
107
167
107
107
167
107
107
167
107
107
167
107
107
167
107
107
167
107
107
167
107
107
167
107
107
167
107
107
167
107
107
167
107
107
167
107
107
167
107
107
167
107
107
167
107
107
167
107
107
167
107
107
167
107
107
167
107
107
167
107
107
167
107
107
167
107
107
167
107
107
167
107
107
167
107
107
167
107
107
167
107
107
167
107
107
167
107
107
167
107
107
167
107
107
67
51
27
0
0
0
0
0
0
0
0
0
0
0
0
0
0
0
0
0
0
0
0
0
167
107
107
167
107
107
167
107
107
167
107
107
167
107
107
167
107
107
167
107
107
167
107
107
167
107
107
167
107
107
167
107
107
167
107
107
167
107
107
167
107
107
167
107
107
167
107
107
167
107
107
167
107
107
167
107
107
167
107
107
167
107
107
167
107
107
167
107
107
167
107
107
167
107
107
167
107
107
167
107
107
167
107
107
167
107
107
167
107
107
167
107
107
167
107
107
167
107
107
167
107
107
167
107
107
167
107
107
167
107
107
167
107
107
167
107
107
167
107
107
167
107
107
167
107
107
167
107
107
167
107
107
167
107
107
167
107
107
167
107
107
167
107
107
167
107
107
167
107
107
167
107
107
167
107
107
167
107
107
167
107
107
167
107
107
167
107
107
167
107
107
167
107
107
167
107
107
167
107
107
167
107
107
167
107
107
167
107
107
167
107
107
67
51
27
0
0
0
0
0
0
0
0
0
0
0
0
0
0
0
0
0
0
0
0
0
167
107
107
167
107
107
167
107
107
167
107
107
167
107
107
167
107
107
167
107
107
167
107
107
167
107
107
167
107
107
167
107
107
167
107
107
167
107
107
167
107
107
167
107
107
167
107
107
167
107
107
167
107
107
167
107
107
167
107
107
167
107
107
167
107
107
167
107
107
167
107
107
255
0
0
255
0
0
167
107
107
167
107
107
167
107
107
255
0
0
255
0
0
167
107
107
167
107
107
255
0
0
255
0
0
255
0
0
255
0
0
255
0
0
167
107
107
167
107
107
167
107
107
167
107
107
167
107
107
167
107
107
167
107
107
167
107
107
167
107
107
167
107
107
167
107
107
167
107
107
167
107
107
167
107
107
167
107
107
167
107
107
167
107
107
167
107
107
167
107
107
167
107
107
167
107
107
167
107
107
167
107
107
167
107
107
167
107
107
167
107
107
67
51
27
0
0
0
0
0
0
0
0
0
0
0
0
0
0
0
0
0
0
0
0
0
167
107
107
167
107
107
167
107
107
167
107
107
167
107
107
167
107
107
167
107
107
167
107
107
167
107
107
167
107
107
167
107
107
167
107
107
167
107
107
167
107
107
167
107
107
167
107
107
167
107
107
167
107
107
167
107
107
167
107
107
167
107
107
167
107
107
167
107
107
167
107
107
167
107
107
167
107
107
0
0
0
0
0
0
19
19
19
0
0
0
0
0
0
0
0
0
0
0
0
0
0
0
19
19
19
167
107
107
167
107
107
167
107
107
167
107
107
167
107
107
167
107
107
167
107
107
167
107
107
167
107
107
167
107
107
167
107
107
167
107
107
167
107
107
167
107
107
167
107
107
167
107
107
167
107
107
167
107
107
167
107
107
167
107
107
167
107
107
167
107
107
167
107
107
167
107
107
167
107
107
167
107
107
167
107
107
167
107
107
167
107
107
67
51
27
0
0
0
0
0
0
0
0
0
0
0
0
0
0
0
0
0
0
0
0
0
67
51
27
0
0
0
0
0
0
0
0
0
0
0
0
0
0
0
0
0
0
0
0
0
0
0
0
0
0
0
0
0
0
0
0
0
0
0
0
0
0
0
0
0
0
0
0
0
75
55
27
255
127
27
255
127
27
255
255
255
255
235
223
255
255
255
255
127
27
255
127
27
75
55
27
255
235
223
255
235
223
255
127
27
255
127
27
255
235
223
255
235
223
255
127
27
167
107
107
167
107
107
167
107
107
167
107
107
167
107
107
167
107
107
167
107
107
167
107
107
167
107
107
167
107
107
167
107
107
167
107
107
167
107
107
167
107
107
167
107
107
167
107
107
167
107
107
167
107
107
167
107
107
167
107
107
167
107
107
167
107
107
167
107
107
167
107
107
167
107
107
167
107
107
167
107
107
167
107
107
167
107
107
167
107
107
167
107
107
167
107
107
167
107
107
167
107
107
167
107
107
167
107
107
167
107
107
167
107
107
167
107
107
167
107
107
167
107
107
167
107
107
167
107
107
167
107
107
167
107
107
167
107
107
167
107
107
167
107
107
167
107
107
167
107
107
167
107
107
167
107
107
167
107
107
167
107
107
167
107
107
167
107
107
167
107
107
167
107
107
167
107
107
167
107
107
167
107
107
167
107
107
167
107
107
167
107
107
67
51
27
0
0
0
0
0
0
0
0
0
0
0
0
0
0
0
0
0
0
0
0
0
167
107
107
167
107
107
167
107
107
167
107
107
167
107
107
167
107
107
167
107
107
167
107
107
167
107
107
167
107
107
167
107
107
167
107
107
167
107
107
167
107
107
167
107
107
167
107
107
167
107
107
167
107
107
167
107
107
167
107
107
167
107
107
167
107
107
167
107
107
167
107
107
167
107
107
167
107
107
167
107
107
167
107
107
167
107
107
167
107
107
167
107
107
167
107
107
167
107
107
167
107
107
167
107
107
167
107
107
167
107
107
167
107
107
167
107
107
167
107
107
167
107
107
167
107
107
167
107
107
167
107
107
167
107
107
167
107
107
167
107
107
167
107
107
167
107
107
167
107
107
167
107
107
167
107
107
167
107
107
167
107
107
167
107
107
167
107
107
167
107
107
167
107
107
167
107
107
167
107
107
167
107
107
167
107
107
167
107
107
167
107
107
67
51
27
0
0
0
0
0
0
0
0
0
0
0
0
0
0
0
0
0
0
0
0
0
167
107
107
167
107
107
167
107
107
167
107
107
167
107
107
167
107
107
167
107
107
167
107
107
167
107
107
167
107
107
167
107
107
167
107
107
167
107
107
167
107
107
167
107
107
167
107
107
167
107
107
167
107
107
167
107
107
167
107
107
167
107
107
167
107
107
167
107
107
167
107
107
167
107
107
167
107
107
167
107
107
167
107
107
167
107
107
167
107
107
167
107
107
167
107
107
167
107
107
167
107
107
167
107
107
167
107
107
167
107
107
167
107
107
167
107
107
167
107
107
167
107
107
167
107
107
167
107
107
167
107
107
167
107
107
167
107
107
167
107
107
167
107
107
167
107
107
167
107
107
167
107
107
167
107
107
167
107
107
167
107
107
167
107
107
167
107
107
167
107
107
167
107
107
167
107
107
167
107
107
167
107
107
167
107
107
167
107
107
167
107
107
67
51
27
0
0
0
0
0
0
0
0
0
0
0
0
0
0
0
0
0
0
0
0
0
167
107
107
167
107
107
167
107
107
167
107
107
167
107
107
167
107
107
167
107
107
167
107
107
167
107
107
167
107
107
167
107
107
167
107
107
167
107
107
167
107
107
167
107
107
167
107
107
167
107
107
167
107
107
167
107
107
167
107
107
167
107
107
167
107
107
167
107
107
167
107
107
167
107
107
167
107
107
19
19
19
0
0
0
19
19
19
0
0
0
0
0
0
23
15
7
0
0
0
0
0
0
23
15
7
167
107
107
167
107
107
167
107
107
167
107
107
167
107
107
167
107
107
167
107
107
167
107
107
167
107
107
167
107
107
167
107
107
167
107
107
167
107
107
167
107
107
167
107
107
167
107
107
167
107
107
167
107
107
167
107
107
167
107
107
167
107
107
167
107
107
167
107
107
167
107
107
167
107
107
167
107
107
167
107
107
167
107
107
167
107
107
67
51
27
0
0
0
0
0
0
0
0
0
0
0
0
0
0
0
0
0
0
0
0
0
67
51
27
0
0
0
0
0
0
0
0
0
0
0
0
0
0
0
0
0
0
0
0
0
0
0
0
0
0
0
0
0
0
0
0
0
0
0
0
0
0
0
0
0
0
0
0
0
75
55
27
255
127
27
255
127
27
255
127
27
255
235
223
255
255
255
255
127
27
255
127
27
75
55
27
255
127
27
255
127
27
255
127
27
255
127
27
255
235
223
255
235
223
255
127
27
167
107
107
167
107
107
167
107
107
167
107
107
167
107
107
167
107
107
167
107
107
167
107
107
167
107
107
167
107
107
167
107
107
167
107
107
167
107
107
167
107
107
167
107
107
167
107
107
167
107
107
167
107
107
167
107
107
167
107
107
167
107
107
167
107
107
167
107
107
167
107
107
167
107
107
167
107
107
167
107
107
167
107
107
167
107
107
167
107
107
167
107
107
167
107
107
167
107
107
167
107
107
167
107
107
167
107
107
167
107
107
167
107
107
167
107
107
167
107
107
167
107
107
167
107
107
167
107
107
167
107
107
167
107
107
167
107
107
167
107
107
167
107
107
167
107
107
167
107
107
167
107
107
167
107
107
167
107
107
167
107
107
167
107
107
167
107
107
167
107
107
167
107
107
167
107
107
167
107
107
167
107
107
167
107
107
167
107
107
167
107
107
67
51
27
0
0
0
255
255
255
255
255
255
0
0
0
0
0
0
0
0
0
0
0
0
167
107
107
167
107
107
167
107
107
167
107
107
167
107
107
167
107
107
167
107
107
167
107
107
167
107
107
167
107
107
167
107
107
167
107
107
167
107
107
167
107
107
167
107
107
167
107
107
167
107
107
167
107
107
167
107
107
167
107
107
167
107
107
167
107
107
167
107
107
167
107
107
167
107
107
167
107
107
167
107
107
167
107
107
167
107
107
167
107
107
167
107
107
167
107
107
167
107
107
167
107
107
167
107
107
167
107
107
167
107
107
167
107
107
167
107
107
167
107
107
167
107
107
167
107
107
167
107
107
167
107
107
167
107
107
167
107
107
167
107
107
167
107
107
167
107
107
167
107
107
167
107
107
167
107
107
167
107
107
167
107
107
167
107
107
167
107
107
167
107
107
167
107
107
167
107
107
167
107
107
167
107
107
167
107
107
167
107
107
167
107
107
67
51
27
0
0
0
0
0
0
0
0
0
0
0
0
0
0
0
0
0
0
0
0
0
167
107
107
167
107
107
167
107
107
167
107
107
167
107
107
167
107
107
167
107
107
167
107
107
167
107
107
167
107
107
167
107
107
167
107
107
167
107
107
167
107
107
167
107
107
167
107
107
167
107
107
167
107
107
167
107
107
167
107
107
167
107
107
167
107
107
167
107
107
167
107
107
167
107
107
167
107
107
167
107
107
167
107
107
167
107
107
167
107
107
167
107
107
167
107
107
167
107
107
167
107
107
167
107
107
167
107
107
167
107
107
167
107
107
167
107
107
167
107
107
167
107
107
167
107
107
167
107
107
167
107
107
167
107
107
167
107
107
167
107
107
167
107
107
167
107
107
167
107
107
167
107
107
167
107
107
167
107
107
167
107
107
167
107
107
167
107
107
167
107
107
167
107
107
167
107
107
167
107
107
167
107
107
167
107
107
167
107
107
167
107
107
67
51
27
0
0
0
0
0
0
0
0
0
0
0
0
0
0
0
0
0
0
0
0
0
167
107
107
167
107
107
167
107
107
167
107
107
167
107
107
167
107
107
167
107
107
167
107
107
167
107
107
167
107
107
167
107
107
167
107
107
167
107
107
167
107
107
167
107
107
167
107
107
167
107
107
167
107
107
167
107
107
167
107
107
167
107
107
167
107
107
167
107
107
167
107
107
167
107
107
167
107
107
35
35
35
0
0
0
35
35
35
0
0
0
0
0
0
0
0
0
0
0
0
0
0
0
7
7
7
167
107
107
167
107
107
167
107
107
167
107
107
167
107
107
167
107
107
167
107
107
167
107
107
167
107
107
167
107
107
167
107
107
167
107
107
167
107
107
167
107
107
167
107
107
167
107
107
167
107
107
167
107
107
167
107
107
167
107
107
167
107
107
167
107
107
167
107
107
167
107
107
167
107
107
167
107
107
167
107
107
167
107
107
167
107
107
67
51
27
0
0
0
0
0
0
0
0
0
0
0
0
0
0
0
0
0
0
0
0
0
67
51
27
0
0
0
0
0
0
0
0
0
0
0
0
0
0
0
0
0
0
0
0
0
0
0
0
0
0
0
0
0
0
0
0
0
0
0
0
0
0
0
0
0
0
0
0
0
75
55
27
255
127
27
255
127
27
255
127
27
255
235
223
255
255
255
255
127
27
255
127
27
75
55
27
255
127
27
255
127
27
255
235
223
255
235
223
255
235
223
255
127
27
255
127
27
167
107
107
167
107
107
167
107
107
167
107
107
167
107
107
167
107
107
167
107
107
167
107
107
167
107
107
167
107
107
167
107
107
167
107
107
167
107
107
167
107
107
167
107
107
167
107
107
167
107
107
167
107
107
167
107
107
167
107
107
167
107
107
167
107
107
167
107
107
167
107
107
167
107
107
167
107
107
167
107
107
167
107
107
167
107
107
167
107
107
167
107
107
167
107
107
167
107
107
167
107
107
167
107
107
167
107
107
167
107
107
167
107
107
167
107
107
167
107
107
167
107
107
167
107
107
167
107
107
167
107
107
167
107
107
167
107
107
167
107
107
167
107
107
167
107
107
167
107
107
167
107
107
167
107
107
167
107
107
167
107
107
167
107
107
167
107
107
167
107
107
167
107
107
167
107
107
167
107
107
167
107
107
167
107
107
167
107
107
167
107
107
67
51
27
255
255
255
255
255
255
255
255
255
255
255
255
0
0
0
0
0
0
0
0
0
167
107
107
167
107
107
167
107
107
167
107
107
167
107
107
167
107
107
167
107
107
167
107
107
167
107
107
167
107
107
167
107
107
167
107
107
167
107
107
167
107
107
167
107
107
167
107
107
167
107
107
167
107
107
167
107
107
167
107
107
167
107
107
167
107
107
167
107
107
167
107
107
167
107
107
167
107
107
167
107
107
167
107
107
167
107
107
167
107
107
167
107
107
167
107
107
167
107
107
167
107
107
167
107
107
167
107
107
167
107
107
167
107
107
167
107
107
167
107
107
167
107
107
167
107
107
167
107
107
167
107
107
167
107
107
167
107
107
167
107
107
167
107
107
167
107
107
167
107
107
167
107
107
167
107
107
167
107
107
167
107
107
167
107
107
167
107
107
167
107
107
167
107
107
167
107
107
167
107
107
167
107
107
167
107
107
167
107
107
167
107
107
67
51
27
0
0
0
0
0
0
0
0
0
0
0
0
0
0
0
0
0
0
0
0
0
167
107
107
167
107
107
167
107
107
167
107
107
167
107
107
167
107
107
167
107
107
167
107
107
167
107
107
167
107
107
167
107
107
167
107
107
167
107
107
167
107
107
167
107
107
167
107
107
167
107
107
167
107
107
167
107
107
167
107
107
167
107
107
167
107
107
167
107
107
167
107
107
167
107
107
167
107
107
167
107
107
167
107
107
167
107
107
167
107
107
167
107
107
167
107
107
167
107
107
167
107
107
167
107
107
167
107
107
167
107
107
167
107
107
167
107
107
167
107
107
167
107
107
167
107
107
167
107
107
167
107
107
167
107
107
167
107
107
167
107
107
167
107
107
167
107
107
167
107
107
167
107
107
167
107
107
167
107
107
167
107
107
167
107
107
167
107
107
167
107
107
167
107
107
167
107
107
167
107
107
167
107
107
167
107
107
167
107
107
167
107
107
67
51
27
0
0
0
0
0
0
0
0
0
0
0
0
0
0
0
0
0
0
0
0
0
167
107
107
167
107
107
167
107
107
167
107
107
167
107
107
167
107
107
167
107
107
167
107
107
167
107
107
167
107
107
167
107
107
167
107
107
167
107
107
167
107
107
167
107
107
167
107
107
167
107
107
167
107
107
167
107
107
167
107
107
167
107
107
167
107
107
167
107
107
167
107
107
167
107
107
167
107
107
47
47
47
0
0
0
35
35
35
0
0
0
0
0
0
0
0
0
0
0
0
0
0
0
47
47
47
167
107
107
167
107
107
167
107
107
167
107
107
167
107
107
255
0
0
255
0
0
167
107
107
167
107
107
167
107
107
255
0
0
255
0
0
167
107
107
167
107
107
255
0
0
255
0
0
255
0
0
255
0
0
255
0
0
167
107
107
167
107
107
167
107
107
167
107
107
167
107
107
167
107
107
167
107
107
167
107
107
167
107
107
167
107
107
67
51
27
0
0
0
0
0
0
0
0
0
0
0
0
0
0
0
0
0
0
0
0
0
67
51
27
0
0
0
0
0
0
0
0
0
0
0
0
0
0
0
0
0
0
0
0
0
0
0
0
0
0
0
0
0
0
0
0
0
0
0
0
0
0
0
0
0
0
0
0
0
75
55
27
255
127
27
255
127
27
255
127
27
255
235
223
255
255
255
255
127
27
255
127
27
75
55
27
255
127
27
255
235
223
255
235
223
255
127
27
255
127
27
255
127
27
255
127
27
167
107
107
167
107
107
167
107
107
167
107
107
167
107
107
167
107
107
167
107
107
167
107
107
167
107
107
167
107
107
167
107
107
167
107
107
167
107
107
167
107
107
167
107
107
167
107
107
167
107
107
167
107
107
167
107
107
167
107
107
167
107
107
167
107
107
167
107
107
167
107
107
167
107
107
167
107
107
167
107
107
167
107
107
167
107
107
167
107
107
167
107
107
167
107
107
167
107
107
167
107
107
167
107
107
167
107
107
167
107
107
167
107
107
167
107
107
167
107
107
167
107
107
167
107
107
167
107
107
167
107
107
167
107
107
167
107
107
167
107
107
167
107
107
167
107
107
167
107
107
167
107
107
167
107
107
167
107
107
167
107
107
167
107
107
167
107
107
167
107
107
167
107
107
167
107
107
167
107
107
167
107
107
167
107
107
167
107
107
167
107
107
255
255
255
255
255
255
0
0
0
0
0
0
255
255
255
255
255
255
0
0
0
0
0
0
167
107
107
167
107
107
167
107
107
167
107
107
167
107
107
167
107
107
167
107
107
167
107
107
167
107
107
167
107
107
167
107
107
167
107
107
167
107
107
167
107
107
167
107
107
167
107
107
167
107
107
167
107
107
167
107
107
167
107
107
167
107
107
167
107
107
167
107
107
167
107
107
167
107
107
167
107
107
167
107
107
167
107
107
167
107
107
167
107
107
167
107
107
167
107
107
167
107
107
167
107
107
167
107
107
167
107
107
167
107
107
167
107
107
167
107
107
167
107
107
167
107
107
167
107
107
167
107
107
167
107
107
167
107
107
167
107
107
167
107
107
167
107
107
167
107
107
167
107
107
167
107
107
167
107
107
167
107
107
167
107
107
167
107
107
167
107
107
167
107
107
167
107
107
167
107
107
167
107
107
167
107
107
167
107
107
167
107
107
167
107
107
67
51
27
0
0
0
0
0
0
0
0
0
0
0
0
0
0
0
0
0
0
0
0
0
167
107
107
167
107
107
167
107
107
167
107
107
167
107
107
167
107
107
167
107
107
167
107
107
167
107
107
167
107
107
167
107
107
167
107
107
167
107
107
167
107
107
167
107
107
167
107
107
167
107
107
167
107
107
167
107
107
167
107
107
167
107
107
167
107
107
167
107
107
167
107
107
167
107
107
167
107
107
167
107
107
167
107
107
167
107
107
167
107
107
167
107
107
167
107
107
167
107
107
167
107
107
167
107
107
167
107
107
167
107
107
167
107
107
167
107
107
167
107
107
167
107
107
167
107
107
167
107
107
167
107
107
167
107
107
167
107
107
167
107
107
167
107
107
167
107
107
167
107
107
167
107
107
167
107
107
167
107
107
167
107
107
167
107
107
167
107
107
167
107
107
167
107
107
167
107
107
167
107
107
167
107
107
167
107
107
167
107
107
167
107
107
67
51
27
0
0
0
0
0
0
0
0
0
0
0
0
0
0
0
0
0
0
0
0
0
167
107
107
167
107
107
167
107
107
167
107
107
167
107
107
167
107
107
167
107
107
167
107
107
167
107
107
167
107
107
167
107
107
167
107
107
167
107
107
167
107
107
167
107
107
167
107
107
167
107
107
167
107
107
167
107
107
167
107
107
167
107
107
167
107
107
167
107
107
167
107
107
167
107
107
167
107
107
167
107
107
39
39
39
31
23
11
19
19
19
19
19
19
19
19
19
19
19
19
35
35
35
167
107
107
167
107
107
167
107
107
167
107
107
167
107
107
167
107
107
255
0
0
255
0
0
255
0
0
167
107
107
167
107
107
255
0
0
255
0
0
167
107
107
255
0
0
255
0
0
167
107
107
167
107
107
167
107
107
167
107
107
167
107
107
167
107
107
167
107
107
167
107
107
167
107
107
167
107
107
167
107
107
167
107
107
167
107
107
167
107
107
67
51
27
0
0
0
0
0
0
0
0
0
0
0
0
0
0
0
0
0
0
0
0
0
67
51
27
0
0
0
0
0
0
0
0
0
0
0
0
0
0
0
0
0
0
0
0
0
0
0
0
0
0
0
0
0
0
0
0
0
0
0
0
0
0
0
0
0
0
0
0
0
75
55
27
255
127
27
255
127
27
255
127
27
255
235
223
255
255
255
255
127
27
255
127
27
75
55
27
255
235
223
255
235
223
255
127
27
255
127
27
255
235
223
255
235
223
255
127
27
167
107
107
167
107
107
167
107
107
167
107
107
167
107
107
167
107
107
167
107
107
167
107
107
167
107
107
167
107
107
167
107
107
167
107
107
167
107
107
167
107
107
167
107
107
167
107
107
167
107
107
167
107
107
167
107
107
167
107
107
167
107
107
167
107
107
167
107
107
167
107
107
167
107
107
167
107
107
167
107
107
167
107
107
167
107
107
167
107
107
167
107
107
167
107
107
167
107
107
167
107
107
167
107
107
167
107
107
167
107
107
167
107
107
167
107
107
167
107
107
167
107
107
167
107
107
167
107
107
167
107
107
167
107
107
167
107
107
167
107
107
167
107
107
167
107
107
167
107
107
167
107
107
167
107
107
167
107
107
167
107
107
167
107
107
167
107
107
167
107
107
167
107
107
167
107
107
167
107
107
167
107
107
167
107
107
167
107
107
167
107
107
255
255
255
255
255
255
0
0
0
0
0
0
255
255
255
255
255
255
0
0
0
0
0
0
167
107
107
167
107
107
167
107
107
167
107
107
167
107
107
167
107
107
167
107
107
167
107
107
167
107
107
167
107
107
167
107
107
167
107
107
167
107
107
167
107
107
167
107
107
167
107
107
167
107
107
167
107
107
167
107
107
167
107
107
167
107
107
167
107
107
167
107
107
167
107
107
167
107
107
167
107
107
167
107
107
167
107
107
167
107
107
167
107
107
167
107
107
167
107
107
167
107
107
167
107
107
167
107
107
167
107
107
167
107
107
167
107
107
167
107
107
167
107
107
167
107
107
167
107
107
167
107
107
167
107
107
167
107
107
167
107
107
167
107
107
167
107
107
167
107
107
167
107
107
167
107
107
167
107
107
167
107
107
167
107
107
167
107
107
167
107
107
167
107
107
167
107
107
167
107
107
167
107
107
167
107
107
167
107
107
167
107
107
167
107
107
67
51
27
0
0
0
0
0
0
0
0
0
0
0
0
0
0
0
0
0
0
0
0
0
167
107
107
167
107
107
167
107
107
167
107
107
167
107
107
167
107
107
167
107
107
167
107
107
167
107
107
167
107
107
167
107
107
167
107
107
167
107
107
167
107
107
167
107
107
167
107
107
167
107
107
167
107
107
167
107
107
167
107
107
167
107
107
167
107
107
167
107
107
167
107
107
167
107
107
167
107
107
167
107
107
167
107
107
167
107
107
167
107
107
167
107
107
167
107
107
167
107
107
167
107
107
167
107
107
167
107
107
167
107
107
167
107
107
167
107
107
167
107
107
167
107
107
167
107
107
167
107
107
167
107
107
167
107
107
167
107
107
167
107
107
167
107
107
167
107
107
167
107
107
167
107
107
167
107
107
167
107
107
167
107
107
167
107
107
167
107
107
167
107
107
167
107
107
167
107
107
167
107
107
167
107
107
167
107
107
167
107
107
167
107
107
67
51
27
0
0
0
0
0
0
0
0
0
0
0
0
0
0
0
0
0
0
0
0
0
167
107
107
167
107
107
167
107
107
167
107
107
167
107
107
167
107
107
167
107
107
167
107
107
167
107
107
167
107
107
167
107
107
167
107
107
167
107
107
167
107
107
167
107
107
167
107
107
167
107
107
167
107
107
167
107
107
167
107
107
167
107
107
167
107
107
167
107
107
167
107
107
167
107
107
167
107
107
167
107
107
167
107
107
167
107
107
0
0
0
0
0
0
0
0
0
167
107
107
167
107
107
167
107
107
167
107
107
167
107
107
167
107
107
167
107
107
167
107
107
255
0
0
255
0
0
255
0
0
255
0
0
167
107
107
255
0
0
255
0
0
167
107
107
255
0
0
255
0
0
167
107
107
167
107
107
167
107
107
167
107
107
167
107
107
167
107
107
167
107
107
167
107
107
167
107
107
167
107
107
167
107
107
167
107
107
167
107
107
167
107
107
67
51
27
0
0
0
0
0
0
0
0
0
0
0
0
0
0
0
0
0
0
0
0
0
67
51
27
0
0
0
0
0
0
0
0
0
0
0
0
0
0
0
0
0
0
0
0
0
0
0
0
163
107
63
0
0
0
0
0
0
0
0
0
163
107
63
163
107
63
0
0
0
75
55
27
255
127
27
255
127
27
255
255
255
255
255
255
255
255
255
255
255
255
255
127
27
75
55
27
255
235
223
255
235
223
255
235
223
255
235
223
255
235
223
255
235
223
255
127
27
167
107
107
167
107
107
167
107
107
167
107
107
167
107
107
167
107
107
167
107
107
167
107
107
167
107
107
167
107
107
167
107
107
167
107
107
167
107
107
167
107
107
167
107
107
167
107
107
167
107
107
167
107
107
167
107
107
167
107
107
167
107
107
167
107
107
167
107
107
167
107
107
167
107
107
167
107
107
167
107
107
167
107
107
167
107
107
167
107
107
167
107
107
167
107
107
167
107
107
167
107
107
167
107
107
167
107
107
167
107
107
167
107
107
167
107
107
167
107
107
167
107
107
167
107
107
167
107
107
167
107
107
167
107
107
167
107
107
167
107
107
167
107
107
167
107
107
167
107
107
167
107
107
167
107
107
167
107
107
167
107
107
167
107
107
167
107
107
167
107
107
167
107
107
167
107
107
167
107
107
167
107
107
167
107
107
167
107
107
167
107
107
255
255
255
255
255
255
255
255
255
255
255
255
255
255
255
255
255
255
0
0
0
0
0
0
167
107
107
167
107
107
167
107
107
167
107
107
167
107
107
167
107
107
167
107
107
167
107
107
167
107
107
167
107
107
167
107
107
167
107
107
167
107
107
167
107
107
167
107
107
167
107
107
167
107
107
167
107
107
167
107
107
167
107
107
167
107
107
167
107
107
167
107
107
167
107
107
167
107
107
167
107
107
167
107
107
167
107
107
167
107
107
167
107
107
167
107
107
167
107
107
167
107
107
167
107
107
167
107
107
167
107
107
167
107
107
167
107
107
167
107
107
167
107
107
167
107
107
167
107
107
167
107
107
167
107
107
167
107
107
167
107
107
167
107
107
167
107
107
167
107
107
167
107
107
167
107
107
167
107
107
167
107
107
167
107
107
167
107
107
167
107
107
167
107
107
167
107
107
167
107
107
167
107
107
167
107
107
167
107
107
167
107
107
167
107
107
67
51
27
0
0
0
0
0
0
0
0
0
0
0
0
0
0
0
0
0
0
0
0
0
167
107
107
167
107
107
167
107
107
167
107
107
167
107
107
167
107
107
167
107
107
167
107
107
167
107
107
167
107
107
167
107
107
167
107
107
167
107
107
167
107
107
167
107
107
167
107
107
167
107
107
167
107
107
167
107
107
167
107
107
167
107
107
167
107
107
167
107
107
167
107
107
167
107
107
167
107
107
167
107
107
167
107
107
167
107
107
167
107
107
167
107
107
167
107
107
167
107
107
167
107
107
167
107
107
167
107
107
167
107
107
167
107
107
167
107
107
167
107
107
167
107
107
167
107
107
167
107
107
167
107
107
167
107
107
167
107
107
167
107
107
167
107
107
167
107
107
167
107
107
167
107
107
167
107
107
167
107
107
167
107
107
167
107
107
167
107
107
167
107
107
167
107
107
167
107
107
167
107
107
167
107
107
167
107
107
167
107
107
167
107
107
67
51
27
0
0
0
0
0
0
0
0
0
0
0
0
0
0
0
0
0
0
0
0
0
167
107
107
167
107
107
167
107
107
167
107
107
167
107
107
167
107
107
167
107
107
167
107
107
167
107
107
167
107
107
167
107
107
167
107
107
167
107
107
167
107
107
167
107
107
167
107
107
167
107
107
167
107
107
167
107
107
167
107
107
167
107
107
167
107
107
167
107
107
167
107
107
167
107
107
167
107
107
167
107
107
167
107
107
167
107
107
35
35
35
0
0
0
0
0
0
167
107
107
167
107
107
167
107
107
167
107
107
167
107
107
167
107
107
167
107
107
167
107
107
255
0
0
255
0
0
167
107
107
255
0
0
255
0
0
255
0
0
255
0
0
167
107
107
255
0
0
255
0
0
167
107
107
167
107
107
167
107
107
167
107
107
167
107
107
167
107
107
167
107
107
167
107
107
167
107
107
167
107
107
167
107
107
167
107
107
167
107
107
167
107
107
67
51
27
0
0
0
0
0
0
0
0
0
0
0
0
0
0
0
0
0
0
0
0
0
67
51
27
0
0
0
0
0
0
0
0
0
0
0
0
0
0
0
0
0
0
0
0
0
0
0
0
163
107
63
0
0
0
0
0
0
163
107
63
163
107
63
163
107
63
163
107
63
75
55
27
75
55
27
75
55
27
75
55
27
67
51
27
67
51
27
67
51
27
67
51
27
75
55
27
75
55
27
75
55
27
75
55
27
67
51
27
67
51
27
67
51
27
67
51
27
167
107
107
167
107
107
167
107
107
167
107
107
167
107
107
167
107
107
167
107
107
167
107
107
167
107
107
167
107
107
167
107
107
167
107
107
167
107
107
167
107
107
167
107
107
167
107
107
167
107
107
167
107
107
167
107
107
167
107
107
167
107
107
167
107
107
167
107
107
167
107
107
167
107
107
167
107
107
167
107
107
167
107
107
167
107
107
167
107
107
167
107
107
167
107
107
167
107
107
167
107
107
167
107
107
167
107
107
167
107
107
167
107
107
167
107
107
167
107
107
167
107
107
167
107
107
167
107
107
167
107
107
167
107
107
167
107
107
167
107
107
167
107
107
167
107
107
167
107
107
167
107
107
167
107
107
167
107
107
167
107
107
167
107
107
167
107
107
167
107
107
167
107
107
167
107
107
167
107
107
167
107
107
167
107
107
167
107
107
167
107
107
255
255
255
255
255
255
67
51
27
67
51
27
255
255
255
255
255
255
67
51
27
67
51
27
167
107
107
167
107
107
167
107
107
167
107
107
167
107
107
167
107
107
167
107
107
167
107
107
167
107
107
167
107
107
167
107
107
167
107
107
167
107
107
167
107
107
167
107
107
167
107
107
167
107
107
167
107
107
167
107
107
167
107
107
167
107
107
167
107
107
167
107
107
167
107
107
167
107
107
167
107
107
167
107
107
167
107
107
167
107
107
167
107
107
167
107
107
167
107
107
167
107
107
167
107
107
167
107
107
167
107
107
167
107
107
167
107
107
167
107
107
167
107
107
167
107
107
167
107
107
167
107
107
167
107
107
167
107
107
167
107
107
167
107
107
167
107
107
167
107
107
167
107
107
167
107
107
167
107
107
167
107
107
167
107
107
167
107
107
167
107
107
167
107
107
167
107
107
167
107
107
167
107
107
167
107
107
167
107
107
167
107
107
167
107
107
67
51
27
67
51
27
67
51
27
67
51
27
67
51
27
67
51
27
67
51
27
67
51
27
167
107
107
167
107
107
167
107
107
167
107
107
167
107
107
167
107
107
167
107
107
167
107
107
167
107
107
167
107
107
167
107
107
167
107
107
167
107
107
167
107
107
167
107
107
167
107
107
167
107
107
167
107
107
167
107
107
167
107
107
167
107
107
167
107
107
167
107
107
167
107
107
167
107
107
167
107
107
167
107
107
167
107
107
167
107
107
167
107
107
167
107
107
167
107
107
167
107
107
167
107
107
167
107
107
167
107
107
167
107
107
167
107
107
167
107
107
167
107
107
167
107
107
167
107
107
167
107
107
167
107
107
167
107
107
167
107
107
167
107
107
167
107
107
167
107
107
167
107
107
167
107
107
167
107
107
167
107
107
167
107
107
167
107
107
167
107
107
167
107
107
167
107
107
167
107
107
167
107
107
167
107
107
167
107
107
167
107
107
167
107
107
67
51
27
67
51
27
67
51
27
67
51
27
67
51
27
67
51
27
67
51
27
67
51
27
167
107
107
167
107
107
167
107
107
167
107
107
167
107
107
167
107
107
167
107
107
167
107
107
167
107
107
167
107
107
167
107
107
167
107
107
167
107
107
167
107
107
167
107
107
167
107
107
167
107
107
167
107
107
167
107
107
167
107
107
167
107
107
167
107
107
167
107
107
167
107
107
167
107
107
167
107
107
167
107
107
167
107
107
167
107
107
39
39
39
0
0
0
27
27
27
167
107
107
167
107
107
167
107
107
167
107
107
167
107
107
167
107
107
167
107
107
167
107
107
255
0
0
255
0
0
167
107
107
167
107
107
255
0
0
255
0
0
255
0
0
167
107
107
255
0
0
255
0
0
167
107
107
255
0
0
255
0
0
255
0
0
167
107
107
167
107
107
167
107
107
167
107
107
167
107
107
167
107
107
167
107
107
167
107
107
167
107
107
167
107
107
67
51
27
67
51
27
67
51
27
67
51
27
67
51
27
67
51
27
67
51
27
67
51
27
67
51
27
67
51
27
67
51
27
67
51
27
67
51
27
67
51
27
67
51
27
67
51
27
0
0
0
163
107
63
0
0
0
0
0
0
163
107
63
0
0
0
0
0
0
163
107
63
75
55
27
255
127
27
255
127
27
255
127
27
255
235
223
255
255
255
255
127
27
255
127
27
75
55
27
255
127
27
255
235
223
255
235
223
255
235
223
255
235
223
255
127
27
255
127
27
167
107
107
167
107
107
167
107
107
167
107
107
167
107
107
167
107
107
167
107
107
167
107
107
167
107
107
167
107
107
167
107
107
167
107
107
167
107
107
167
107
107
167
107
107
167
107
107
167
107
107
167
107
107
167
107
107
167
107
107
167
107
107
167
107
107
167
107
107
167
107
107
167
107
107
167
107
107
167
107
107
167
107
107
167
107
107
167
107
107
167
107
107
167
107
107
167
107
107
167
107
107
167
107
107
167
107
107
167
107
107
167
107
107
167
107
107
167
107
107
167
107
107
167
107
107
167
107
107
167
107
107
167
107
107
167
107
107
167
107
107
167
107
107
167
107
107
167
107
107
167
107
107
167
107
107
167
107
107
167
107
107
167
107
107
167
107
107
167
107
107
167
107
107
167
107
107
167
107
107
167
107
107
167
107
107
167
107
107
167
107
107
255
255
255
255
255
255
0
0
0
0
0
0
255
255
255
255
255
255
0
0
0
0
0
0
167
107
107
167
107
107
167
107
107
167
107
107
167
107
107
167
107
107
167
107
107
167
107
107
167
107
107
167
107
107
167
107
107
167
107
107
167
107
107
167
107
107
167
107
107
167
107
107
167
107
107
167
107
107
167
107
107
167
107
107
167
107
107
167
107
107
167
107
107
167
107
107
167
107
107
167
107
107
167
107
107
167
107
107
167
107
107
167
107
107
167
107
107
167
107
107
167
107
107
167
107
107
167
107
107
167
107
107
167
107
107
167
107
107
167
107
107
167
107
107
167
107
107
167
107
107
167
107
107
167
107
107
167
107
107
167
107
107
167
107
107
167
107
107
167
107
107
167
107
107
167
107
107
167
107
107
167
107
107
167
107
107
167
107
107
167
107
107
167
107
107
167
107
107
167
107
107
167
107
107
167
107
107
167
107
107
167
107
107
167
107
107
67
51
27
0
0
0
0
0
0
0
0
0
0
0
0
0
0
0
0
0
0
0
0
0
167
107
107
167
107
107
167
107
107
167
107
107
167
107
107
167
107
107
167
107
107
167
107
107
167
107
107
167
107
107
167
107
107
167
107
107
167
107
107
167
107
107
167
107
107
167
107
107
167
107
107
167
107
107
167
107
107
167
107
107
167
107
107
167
107
107
167
107
107
167
107
107
167
107
107
167
107
107
167
107
107
167
107
107
167
107
107
167
107
107
167
107
107
167
107
107
167
107
107
167
107
107
167
107
107
167
107
107
167
107
107
167
107
107
167
107
107
167
107
107
167
107
107
167
107
107
167
107
107
167
107
107
167
107
107
167
107
107
167
107
107
167
107
107
167
107
107
167
107
107
167
107
107
167
107
107
167
107
107
167
107
107
167
107
107
167
107
107
167
107
107
167
107
107
167
107
107
167
107
107
167
107
107
167
107
107
167
107
107
167
107
107
67
51
27
0
0
0
0
0
0
0
0
0
0
0
0
0
0
0
0
0
0
0
0
0
167
107
107
167
107
107
167
107
107
167
107
107
167
107
107
167
107
107
167
107
107
167
107
107
167
107
107
167
107
107
167
107
107
167
107
107
167
107
107
167
107
107
167
107
107
167
107
107
167
107
107
167
107
107
167
107
107
167
107
107
167
107
107
167
107
107
167
107
107
167
107
107
167
107
107
167
107
107
167
107
107
167
107
107
167
107
107
47
47
47
27
27
27
67
51
27
167
107
107
167
107
107
167
107
107
167
107
107
167
107
107
167
107
107
167
107
107
167
107
107
255
0
0
255
0
0
167
107
107
167
107
107
167
107
107
255
0
0
255
0
0
167
107
107
255
0
0
255
0
0
167
107
107
167
107
107
255
0
0
255
0
0
167
107
107
167
107
107
167
107
107
167
107
107
167
107
107
167
107
107
167
107
107
167
107
107
167
107
107
167
107
107
67
51
27
0
0
0
0
0
0
0
0
0
0
0
0
0
0
0
0
0
0
0
0
0
67
51
27
0
0
0
0
0
0
0
0
0
0
0
0
0
0
0
0
0
0
0
0
0
0
0
0
163
107
63
0
0
0
0
0
0
163
107
63
0
0
0
0
0
0
163
107
63
75
55
27
255
127
27
255
127
27
255
255
255
255
235
223
255
255
255
255
127
27
255
127
27
75
55
27
255
255
255
255
255
255
255
127
27
255
127
27
255
235
223
255
235
223
255
127
27
167
107
107
167
107
107
167
107
107
167
107
107
167
107
107
167
107
107
167
107
107
167
107
107
167
107
107
167
107
107
167
107
107
167
107
107
167
107
107
167
107
107
167
107
107
167
107
107
167
107
107
167
107
107
167
107
107
167
107
107
167
107
107
167
107
107
167
107
107
167
107
107
167
107
107
167
107
107
75
55
27
75
55
27
167
107
107
167
107
107
167
107
107
167
107
107
167
107
107
167
107
107
167
107
107
167
107
107
167
107
107
167
107
107
167
107
107
167
107
107
75
55
27
75
55
27
167
107
107
167
107
107
167
107
107
167
107
107
167
107
107
167
107
107
167
107
107
167
107
107
167
107
107
167
107
107
167
107
107
167
107
107
167
107
107
167
107
107
167
107
107
167
107
107
167
107
107
167
107
107
167
107
107
167
107
107
167
107
107
167
107
107
67
51
27
0
0
0
0
0
0
0
0
0
0
0
0
0
0
0
0
0
0
0
0
0
167
107
107
167
107
107
167
107
107
167
107
107
167
107
107
167
107
107
167
107
107
167
107
107
167
107
107
167
107
107
167
107
107
167
107
107
167
107
107
167
107
107
167
107
107
167
107
107
167
107
107
167
107
107
167
107
107
167
107
107
167
107
107
167
107
107
167
107
107
167
107
107
167
107
107
167
107
107
167
107
107
167
107
107
167
107
107
167
107
107
167
107
107
167
107
107
167
107
107
167
107
107
167
107
107
167
107
107
167
107
107
167
107
107
167
107
107
167
107
107
167
107
107
167
107
107
167
107
107
167
107
107
167
107
107
167
107
107
167
107
107
167
107
107
167
107
107
167
107
107
167
107
107
167
107
107
167
107
107
167
107
107
167
107
107
167
107
107
167
107
107
167
107
107
167
107
107
167
107
107
167
107
107
167
107
107
167
107
107
167
107
107
67
51
27
0
0
0
0
0
0
0
0
0
0
0
0
0
0
0
0
0
0
0
0
0
167
107
107
167
107
107
167
107
107
167
107
107
167
107
107
167
107
107
167
107
107
167
107
107
167
107
107
167
107
107
167
107
107
167
107
107
167
107
107
167
107
107
167
107
107
167
107
107
167
107
107
167
107
107
167
107
107
167
107
107
167
107
107
167
107
107
167
107
107
167
107
107
167
107
107
167
107
107
167
107
107
167
107
107
167
107
107
167
107
107
167
107
107
167
107
107
167
107
107
167
107
107
167
107
107
167
107
107
167
107
107
167
107
107
167
107
107
167
107
107
167
107
107
167
107
107
167
107
107
167
107
107
167
107
107
167
107
107
167
107
107
167
107
107
167
107
107
167
107
107
167
107
107
167
107
107
167
107
107
167
107
107
167
107
107
167
107
107
167
107
107
167
107
107
167
107
107
167
107
107
167
107
107
167
107
107
167
107
107
167
107
107
67
51
27
0
0
0
0
0
0
0
0
0
0
0
0
0
0
0
0
0
0
0
0
0
167
107
107
167
107
107
167
107
107
167
107
107
167
107
107
167
107
107
167
107
107
167
107
107
167
107
107
167
107
107
167
107
107
167
107
107
167
107
107
167
107
107
167
107
107
167
107
107
167
107
107
167
107
107
167
107
107
167
107
107
167
107
107
167
107
107
167
107
107
167
107
107
167
107
107
167
107
107
167
107
107
167
107
107
167
107
107
55
55
55
63
47
23
67
51
27
167
107
107
167
107
107
167
107
107
167
107
107
167
107
107
167
107
107
167
107
107
167
107
107
255
0
0
255
0
0
167
107
107
167
107
107
167
107
107
255
0
0
255
0
0
167
107
107
167
107
107
255
0
0
255
0
0
255
0
0
255
0
0
255
0
0
167
107
107
167
107
107
167
107
107
167
107
107
167
107
107
167
107
107
167
107
107
167
107
107
167
107
107
167
107
107
67
51
27
0
0
0
0
0
0
0
0
0
0
0
0
0
0
0
0
0
0
0
0
0
67
51
27
0
0
0
0
0
0
0
0
0
0
0
0
0
0
0
0
0
0
0
0
0
0
0
0
163
107
63
163
107
63
163
107
63
163
107
63
0
0
0
0
0
0
163
107
63
75
55
27
255
127
27
255
127
27
255
127
27
255
235
223
255
255
255
255
127
27
255
127
27
75
55
27
255
127
27
255
127
27
255
127
27
255
127
27
255
235
223
255
235
223
255
127
27
167
107
107
167
107
107
167
107
107
167
107
107
167
107
107
167
107
107
167
107
107
167
107
107
167
107
107
167
107
107
167
107
107
167
107
107
167
107
107
167
107
107
167
107
107
167
107
107
167
107
107
167
107
107
167
107
107
167
107
107
167
107
107
167
107
107
167
107
107
167
107
107
167
107
107
0
0
0
0
0
0
0
0
0
0
0
0
167
107
107
167
107
107
167
107
107
167
107
107
167
107
107
167
107
107
167
107
107
167
107
107
167
107
107
167
107
107
0
0
0
0
0
0
0
0
0
0
0
0
167
107
107
167
107
107
167
107
107
167
107
107
167
107
107
167
107
107
167
107
107
167
107
107
167
107
107
167
107
107
167
107
107
167
107
107
167
107
107
167
107
107
167
107
107
167
107
107
167
107
107
167
107
107
167
107
107
167
107
107
167
107
107
67
51
27
0
0
0
0
0
0
0
0
0
0
0
0
0
0
0
0
0
0
0
0
0
167
107
107
167
107
107
167
107
107
167
107
107
167
107
107
167
107
107
167
107
107
167
107
107
167
107
107
167
107
107
167
107
107
167
107
107
167
107
107
167
107
107
167
107
107
167
107
107
167
107
107
167
107
107
167
107
107
167
107
107
167
107
107
167
107
107
167
107
107
167
107
107
167
107
107
167
107
107
167
107
107
167
107
107
167
107
107
167
107
107
167
107
107
167
107
107
167
107
107
167
107
107
167
107
107
167
107
107
167
107
107
167
107
107
167
107
107
167
107
107
167
107
107
167
107
107
167
107
107
167
107
107
167
107
107
167
107
107
167
107
107
167
107
107
167
107
107
167
107
107
167
107
107
167
107
107
167
107
107
167
107
107
167
107
107
167
107
107
167
107
107
167
107
107
167
107
107
167
107
107
167
107
107
167
107
107
167
107
107
167
107
107
67
51
27
0
0
0
0
0
0
0
0
0
0
0
0
0
0
0
0
0
0
0
0
0
167
107
107
167
107
107
167
107
107
167
107
107
167
107
107
167
107
107
167
107
107
167
107
107
167
107
107
167
107
107
167
107
107
167
107
107
167
107
107
167
107
107
167
107
107
167
107
107
167
107
107
167
107
107
167
107
107
167
107
107
167
107
107
167
107
107
167
107
107
167
107
107
167
107
107
167
107
107
167
107
107
167
107
107
167
107
107
167
107
107
167
107
107
167
107
107
167
107
107
167
107
107
167
107
107
167
107
107
167
107
107
167
107
107
167
107
107
167
107
107
167
107
107
167
107
107
167
107
107
167
107
107
167
107
107
167
107
107
167
107
107
167
107
107
167
107
107
167
107
107
167
107
107
167
107
107
167
107
107
167
107
107
167
107
107
167
107
107
167
107
107
167
107
107
167
107
107
167
107
107
167
107
107
167
107
107
167
107
107
167
107
107
67
51
27
0
0
0
0
0
0
0
0
0
0
0
0
0
0
0
0
0
0
0
0
0
167
107
107
167
107
107
167
107
107
167
107
107
167
107
107
167
107
107
167
107
107
167
107
107
167
107
107
167
107
107
167
107
107
167
107
107
167
107
107
167
107
107
167
107
107
167
107
107
167
107
107
167
107
107
167
107
107
167
107
107
167
107
107
167
107
107
167
107
107
167
107
107
167
107
107
167
107
107
167
107
107
167
107
107
167
107
107
103
83
51
63
47
23
83
63
31
167
107
107
167
107
107
167
107
107
167
107
107
167
107
107
167
107
107
167
107
107
167
107
107
167
107
107
167
107
107
167
107
107
167
107
107
167
107
107
167
107
107
167
107
107
167
107
107
167
107
107
167
107
107
167
107
107
167
107
107
167
107
107
167
107
107
167
107
107
167
107
107
167
107
107
167
107
107
167
107
107
167
107
107
167
107
107
167
107
107
167
107
107
167
107
107
67
51
27
0
0
0
0
0
0
0
0
0
0
0
0
0
0
0
0
0
0
0
0
0
67
51
27
0
0
0
0
0
0
0
0
0
0
0
0
0
0
0
0
0
0
0
0
0
0
0
0
0
0
0
163
107
63
163
107
63
0
0
0
0
0
0
0
0
0
163
107
63
75
55
27
255
127
27
255
127
27
255
127
27
255
235
223
255
255
255
255
127
27
255
127
27
75
55
27
255
127
27
255
235
223
255
235
223
255
235
223
255
235
223
255
127
27
255
127
27
167
107
107
167
107
107
167
107
107
167
107
107
167
107
107
167
107
107
167
107
107
167
107
107
167
107
107
167
107
107
167
107
107
167
107
107
167
107
107
167
107
107
167
107
107
167
107
107
167
107
107
167
107
107
167
107
107
167
107
107
167
107
107
167
107
107
167
107
107
167
107
107
167
107
107
43
35
15
75
55
27
75
55
27
43
35
15
167
107
107
167
107
107
167
107
107
167
107
107
167
107
107
167
107
107
167
107
107
167
107
107
167
107
107
167
107
107
43
35
15
75
55
27
75
55
27
43
35
15
167
107
107
167
107
107
167
107
107
167
107
107
167
107
107
167
107
107
167
107
107
167
107
107
167
107
107
167
107
107
167
107
107
167
107
107
167
107
107
167
107
107
167
107
107
167
107
107
167
107
107
167
107
107
167
107
107
167
107
107
167
107
107
255
255
255
255
255
255
0
0
0
0
0
0
0
0
0
255
255
255
255
255
255
0
0
0
167
107
107
167
107
107
167
107
107
167
107
107
167
107
107
167
107
107
167
107
107
167
107
107
167
107
107
167
107
107
167
107
107
167
107
107
167
107
107
167
107
107
167
107
107
167
107
107
167
107
107
167
107
107
167
107
107
167
107
107
167
107
107
167
107
107
167
107
107
167
107
107
167
107
107
167
107
107
167
107
107
167
107
107
167
107
107
167
107
107
167
107
107
167
107
107
167
107
107
167
107
107
167
107
107
167
107
107
167
107
107
167
107
107
167
107
107
167
107
107
167
107
107
167
107
107
167
107
107
167
107
107
167
107
107
167
107
107
167
107
107
167
107
107
167
107
107
167
107
107
167
107
107
167
107
107
167
107
107
167
107
107
167
107
107
167
107
107
167
107
107
167
107
107
167
107
107
167
107
107
167
107
107
167
107
107
167
107
107
167
107
107
67
51
27
0
0
0
0
0
0
0
0
0
0
0
0
0
0
0
0
0
0
0
0
0
167
107
107
167
107
107
167
107
107
167
107
107
167
107
107
167
107
107
167
107
107
167
107
107
167
107
107
167
107
107
167
107
107
167
107
107
167
107
107
167
107
107
167
107
107
167
107
107
167
107
107
167
107
107
167
107
107
167
107
107
167
107
107
167
107
107
167
107
107
167
107
107
167
107
107
167
107
107
167
107
107
167
107
107
167
107
107
167
107
107
167
107
107
167
107
107
167
107
107
167
107
107
167
107
107
167
107
107
167
107
107
167
107
107
167
107
107
167
107
107
167
107
107
167
107
107
167
107
107
167
107
107
167
107
107
167
107
107
167
107
107
167
107
107
167
107
107
167
107
107
167
107
107
167
107
107
167
107
107
167
107
107
167
107
107
167
107
107
167
107
107
167
107
107
167
107
107
167
107
107
167
107
107
167
107
107
167
107
107
167
107
107
67
51
27
0
0
0
0
0
0
0
0
0
0
0
0
0
0
0
0
0
0
0
0
0
167
107
107
167
107
107
167
107
107
167
107
107
167
107
107
167
107
107
167
107
107
167
107
107
167
107
107
167
107
107
167
107
107
167
107
107
167
107
107
167
107
107
167
107
107
167
107
107
167
107
107
167
107
107
167
107
107
167
107
107
167
107
107
167
107
107
167
107
107
167
107
107
167
107
107
167
107
107
167
107
107
167
107
107
167
107
107
103
83
51
63
47
23
83
63
31
167
107
107
167
107
107
167
107
107
167
107
107
167
107
107
167
107
107
167
107
107
167
107
107
167
107
107
167
107
107
167
107
107
167
107
107
167
107
107
167
107
107
167
107
107
167
107
107
167
107
107
167
107
107
167
107
107
167
107
107
167
107
107
167
107
107
167
107
107
167
107
107
167
107
107
167
107
107
167
107
107
167
107
107
167
107
107
167
107
107
167
107
107
167
107
107
67
51
27
0
0
0
0
0
0
0
0
0
0
0
0
0
0
0
0
0
0
0
0
0
67
51
27
0
0
0
0
0
0
0
0
0
0
0
0
0
0
0
0
0
0
0
0
0
0
0
0
0
0
0
0
0
0
0
0
0
0
0
0
0
0
0
0
0
0
0
0
0
75
55
27
255
127
27
255
127
27
255
127
27
255
235
223
255
255
255
255
127
27
255
127
27
75
55
27
255
127
27
255
127
27
255
127
27
255
127
27
255
235
223
255
235
223
255
127
27
167
107
107
167
107
107
167
107
107
167
107
107
167
107
107
167
107
107
167
107
107
167
107
107
167
107
107
167
107
107
167
107
107
167
107
107
167
107
107
167
107
107
167
107
107
167
107
107
167
107
107
167
107
107
167
107
107
167
107
107
167
107
107
167
107
107
167
107
107
167
107
107
119
79
43
95
75
55
103
83
63
119
95
75
95
75
55
95
75
55
95
75
55
103
83
63
111
87
67
119
95
75
119
95
75
111
87
67
103
83
63
95
75
55
87
67
51
95
75
55
111
87
67
119
95
75
95
75
55
83
63
31
167
107
107
167
107
107
167
107
107
167
107
107
167
107
107
167
107
107
167
107
107
167
107
107
167
107
107
167
107
107
167
107
107
167
107
107
167
107
107
167
107
107
167
107
107
167
107
107
167
107
107
167
107
107
167
107
107
167
107
107
255
255
255
255
255
255
0
0
0
0
0
0
255
255
255
255
255
255
0
0
0
0
0
0
167
107
107
167
107
107
167
107
107
167
107
107
167
107
107
167
107
107
167
107
107
167
107
107
167
107
107
167
107
107
167
107
107
167
107
107
167
107
107
167
107
107
167
107
107
167
107
107
167
107
107
167
107
107
167
107
107
167
107
107
167
107
107
167
107
107
167
107
107
167
107
107
167
107
107
167
107
107
167
107
107
167
107
107
167
107
107
167
107
107
167
107
107
167
107
107
167
107
107
167
107
107
167
107
107
167
107
107
167
107
107
167
107
107
167
107
107
167
107
107
167
107
107
167
107
107
167
107
107
167
107
107
167
107
107
167
107
107
167
107
107
167
107
107
167
107
107
167
107
107
167
107
107
167
107
107
167
107
107
167
107
107
167
107
107
167
107
107
167
107
107
167
107
107
167
107
107
167
107
107
167
107
107
167
107
107
167
107
107
167
107
107
67
51
27
0
0
0
0
0
0
0
0
0
0
0
0
0
0
0
0
0
0
0
0
0
167
107
107
167
107
107
167
107
107
167
107
107
167
107
107
167
107
107
167
107
107
167
107
107
167
107
107
167
107
107
167
107
107
167
107
107
167
107
107
167
107
107
167
107
107
167
107
107
167
107
107
167
107
107
167
107
107
167
107
107
167
107
107
167
107
107
167
107
107
167
107
107
167
107
107
167
107
107
167
107
107
167
107
107
167
107
107
167
107
107
167
107
107
167
107
107
167
107
107
167
107
107
167
107
107
167
107
107
167
107
107
167
107
107
167
107
107
167
107
107
167
107
107
167
107
107
167
107
107
167
107
107
167
107
107
167
107
107
167
107
107
167
107
107
167
107
107
167
107
107
167
107
107
167
107
107
167
107
107
167
107
107
167
107
107
167
107
107
167
107
107
167
107
107
167
107
107
167
107
107
167
107
107
167
107
107
167
107
107
167
107
107
67
51
27
0
0
0
0
0
0
0
0
0
0
0
0
0
0
0
0
0
0
0
0
0
167
107
107
167
107
107
167
107
107
167
107
107
167
107
107
167
107
107
167
107
107
167
107
107
167
107
107
167
107
107
167
107
107
167
107
107
167
107
107
167
107
107
167
107
107
167
107
107
167
107
107
167
107
107
167
107
107
167
107
107
167
107
107
167
107
107
167
107
107
167
107
107
167
107
107
167
107
107
167
107
107
167
107
107
167
107
107
103
83
51
63
47
23
83
63
31
167
107
107
167
107
107
167
107
107
167
107
107
167
107
107
167
107
107
167
107
107
167
107
107
167
107
107
167
107
107
167
107
107
167
107
107
167
107
107
167
107
107
167
107
107
167
107
107
167
107
107
167
107
107
167
107
107
167
107
107
167
107
107
167
107
107
167
107
107
167
107
107
167
107
107
167
107
107
167
107
107
167
107
107
167
107
107
167
107
107
167
107
107
167
107
107
67
51
27
0
0
0
0
0
0
0
0
0
0
0
0
0
0
0
0
0
0
0
0
0
67
51
27
0
0
0
0
0
0
0
0
0
0
0
0
0
0
0
0
0
0
0
0
0
0
0
0
0
0
0
0
0
0
0
0
0
0
0
0
0
0
0
0
0
0
0
0
0
75
55
27
255
127
27
255
127
27
255
127
27
255
235
223
255
255
255
255
127
27
255
127
27
75
55
27
255
255
255
255
255
255
255
127
27
255
127
27
255
235
223
255
235
223
255
127
27
167
107
107
167
107
107
167
107
107
167
107
107
167
107
107
167
107
107
167
107
107
167
107
107
167
107
107
167
107
107
167
107
107
167
107
107
167
107
107
167
107
107
167
107
107
167
107
107
167
107
107
167
107
107
167
107
107
167
107
107
167
107
107
167
107
107
167
107
107
43
35
15
51
43
19
107
71
39
103
83
51
111
87
67
91
71
43
83
63
31
83
63
31
83
63
31
83
63
31
83
63
31
83
63
31
83
63
31
83
63
31
83
63
31
83
63
31
91
71
43
103
83
51
111
87
67
91
71
43
51
43
19
43
35
15
167
107
107
167
107
107
167
107
107
167
107
107
167
107
107
167
107
107
167
107
107
167
107
107
167
107
107
167
107
107
167
107
107
167
107
107
167
107
107
167
107
107
167
107
107
167
107
107
167
107
107
167
107
107
167
107
107
255
255
255
255
255
255
0
0
0
255
255
255
255
255
255
0
0
0
0
0
0
0
0
0
167
107
107
167
107
107
167
107
107
167
107
107
167
107
107
167
107
107
167
107
107
167
107
107
167
107
107
167
107
107
167
107
107
167
107
107
167
107
107
167
107
107
167
107
107
167
107
107
167
107
107
167
107
107
167
107
107
167
107
107
167
107
107
167
107
107
167
107
107
167
107
107
167
107
107
167
107
107
167
107
107
167
107
107
167
107
107
167
107
107
167
107
107
167
107
107
167
107
107
167
107
107
167
107
107
167
107
107
167
107
107
167
107
107
167
107
107
167
107
107
167
107
107
167
107
107
167
107
107
167
107
107
167
107
107
167
107
107
167
107
107
167
107
107
167
107
107
167
107
107
167
107
107
167
107
107
167
107
107
167
107
107
167
107
107
167
107
107
167
107
107
167
107
107
167
107
107
167
107
107
167
107
107
167
107
107
167
107
107
167
107
107
67
51
27
0
0
0
0
0
0
0
0
0
0
0
0
0
0
0
0
0
0
0
0
0
167
107
107
167
107
107
167
107
107
167
107
107
167
107
107
167
107
107
167
107
107
167
107
107
167
107
107
167
107
107
167
107
107
167
107
107
167
107
107
167
107
107
167
107
107
167
107
107
167
107
107
167
107
107
167
107
107
167
107
107
167
107
107
167
107
107
167
107
107
167
107
107
167
107
107
167
107
107
167
107
107
167
107
107
167
107
107
167
107
107
167
107
107
167
107
107
167
107
107
167
107
107
167
107
107
167
107
107
167
107
107
167
107
107
167
107
107
167
107
107
167
107
107
167
107
107
167
107
107
167
107
107
167
107
107
167
107
107
167
107
107
167
107
107
167
107
107
167
107
107
167
107
107
167
107
107
167
107
107
167
107
107
167
107
107
167
107
107
167
107
107
167
107
107
167
107
107
167
107
107
167
107
107
167
107
107
167
107
107
167
107
107
67
51
27
0
0
0
0
0
0
0
0
0
0
0
0
0
0
0
0
0
0
0
0
0
167
107
107
167
107
107
167
107
107
167
107
107
167
107
107
167
107
107
167
107
107
167
107
107
167
107
107
167
107
107
167
107
107
167
107
107
167
107
107
167
107
107
167
107
107
167
107
107
167
107
107
167
107
107
167
107
107
167
107
107
167
107
107
167
107
107
167
107
107
167
107
107
167
107
107
167
107
107
167
107
107
167
107
107
167
107
107
103
83
51
63
47
23
83
63
31
167
107
107
167
107
107
167
107
107
167
107
107
167
107
107
167
107
107
167
107
107
167
107
107
167
107
107
167
107
107
167
107
107
167
107
107
167
107
107
167
107
107
167
107
107
167
107
107
167
107
107
167
107
107
167
107
107
167
107
107
167
107
107
167
107
107
167
107
107
167
107
107
167
107
107
167
107
107
167
107
107
167
107
107
167
107
107
167
107
107
167
107
107
167
107
107
67
51
27
0
0
0
0
0
0
0
0
0
0
0
0
0
0
0
0
0
0
0
0
0
67
51
27
0
0
0
0
0
0
0
0
0
0
0
0
0
0
0
0
0
0
0
0
0
0
0
0
163
107
63
163
107
63
163
107
63
163
107
63
163
107
63
0
0
0
0
0
0
75
55
27
255
127
27
255
127
27
255
255
255
255
255
255
255
255
255
255
255
255
255
127
27
75
55
27
255
127
27
255
235
223
255
235
223
255
235
223
255
235
223
255
127
27
255
127
27
167
107
107
167
107
107
167
107
107
167
107
107
167
107
107
167
107
107
167
107
107
167
107
107
167
107
107
167
107
107
167
107
107
167
107
107
167
107
107
167
107
107
167
107
107
167
107
107
167
107
107
167
107
107
167
107
107
167
107
107
167
107
107
167
107
107
167
107
107
0
0
0
43
35
15
95
67
35
91
71
43
91
71
43
79
59
35
75
55
27
75
55
27
75
55
27
75
55
27
75
55
27
75
55
27
75
55
27
75
55
27
75
55
27
75
55
27
79
59
35
91
71
43
91
71
43
79
59
35
31
23
11
0
0
0
167
107
107
167
107
107
167
107
107
167
107
107
167
107
107
167
107
107
167
107
107
167
107
107
167
107
107
167
107
107
167
107
107
167
107
107
167
107
107
167
107
107
167
107
107
167
107
107
167
107
107
167
107
107
167
107
107
255
255
255
255
255
255
255
255
255
255
255
255
0
0
0
0
0
0
0
0
0
0
0
0
167
107
107
167
107
107
167
107
107
167
107
107
167
107
107
167
107
107
167
107
107
167
107
107
167
107
107
167
107
107
167
107
107
167
107
107
167
107
107
167
107
107
167
107
107
167
107
107
167
107
107
167
107
107
167
107
107
167
107
107
167
107
107
167
107
107
167
107
107
167
107
107
167
107
107
167
107
107
167
107
107
167
107
107
167
107
107
167
107
107
167
107
107
167
107
107
167
107
107
167
107
107
167
107
107
167
107
107
167
107
107
167
107
107
167
107
107
167
107
107
167
107
107
167
107
107
167
107
107
167
107
107
167
107
107
167
107
107
167
107
107
167
107
107
167
107
107
167
107
107
167
107
107
167
107
107
167
107
107
167
107
107
167
107
107
167
107
107
167
107
107
167
107
107
167
107
107
167
107
107
167
107
107
167
107
107
167
107
107
167
107
107
67
51
27
0
0
0
0
0
0
0
0
0
0
0
0
0
0
0
0
0
0
0
0
0
167
107
107
167
107
107
167
107
107
167
107
107
167
107
107
167
107
107
167
107
107
167
107
107
167
107
107
167
107
107
167
107
107
167
107
107
167
107
107
167
107
107
167
107
107
167
107
107
167
107
107
167
107
107
167
107
107
167
107
107
167
107
107
167
107
107
167
107
107
167
107
107
167
107
107
167
107
107
167
107
107
167
107
107
167
107
107
167
107
107
167
107
107
167
107
107
167
107
107
167
107
107
167
107
107
167
107
107
167
107
107
167
107
107
167
107
107
167
107
107
167
107
107
167
107
107
167
107
107
167
107
107
167
107
107
167
107
107
167
107
107
167
107
107
167
107
107
167
107
107
167
107
107
167
107
107
167
107
107
167
107
107
167
107
107
167
107
107
167
107
107
167
107
107
167
107
107
167
107
107
167
107
107
167
107
107
167
107
107
167
107
107
67
51
27
0
0
0
0
0
0
0
0
0
0
0
0
0
0
0
0
0
0
0
0
0
167
107
107
167
107
107
167
107
107
167
107
107
167
107
107
167
107
107
167
107
107
167
107
107
167
107
107
167
107
107
167
107
107
167
107
107
167
107
107
167
107
107
167
107
107
167
107
107
167
107
107
167
107
107
167
107
107
167
107
107
167
107
107
167
107
107
167
107
107
167
107
107
167
107
107
167
107
107
167
107
107
167
107
107
167
107
107
103
83
51
63
47
23
83
63
31
167
107
107
167
107
107
167
107
107
167
107
107
167
107
107
167
107
107
167
107
107
167
107
107
167
107
107
167
107
107
167
107
107
167
107
107
167
107
107
167
107
107
167
107
107
167
107
107
167
107
107
167
107
107
167
107
107
167
107
107
167
107
107
167
107
107
167
107
107
167
107
107
167
107
107
167
107
107
167
107
107
167
107
107
167
107
107
167
107
107
167
107
107
167
107
107
67
51
27
0
0
0
0
0
0
0
0
0
0
0
0
0
0
0
0
0
0
0
0
0
67
51
27
0
0
0
0
0
0
0
0
0
0
0
0
0
0
0
0
0
0
0
0
0
0
0
0
163
107
63
163
107
63
163
107
63
163
107
63
163
107
63
0
0
0
0
0
0
75
55
27
75
55
27
75
55
27
75
55
27
67
51
27
67
51
27
67
51
27
67
51
27
75
55
27
75
55
27
75
55
27
75
55
27
67
51
27
67
51
27
67
51
27
67
51
27
167
107
107
167
107
107
167
107
107
167
107
107
167
107
107
167
107
107
167
107
107
167
107
107
167
107
107
167
107
107
167
107
107
167
107
107
167
107
107
167
107
107
167
107
107
167
107
107
167
107
107
167
107
107
167
107
107
167
107
107
167
107
107
167
107
107
167
107
107
0
0
0
31
23
11
95
67
35
75
55
27
75
55
27
75
55
27
63
47
23
63
47
23
75
55
27
75
55
27
75
55
27
75
55
27
75
55
27
75
55
27
63
47
23
63
47
23
75
55
27
75
55
27
75
55
27
75
55
27
31
23
11
0
0
0
167
107
107
167
107
107
167
107
107
167
107
107
167
107
107
167
107
107
167
107
107
167
107
107
167
107
107
167
107
107
167
107
107
167
107
107
167
107
107
167
107
107
167
107
107
167
107
107
167
107
107
167
107
107
167
107
107
255
255
255
255
255
255
67
51
27
255
255
255
255
255
255
67
51
27
67
51
27
67
51
27
167
107
107
167
107
107
167
107
107
167
107
107
167
107
107
167
107
107
167
107
107
167
107
107
167
107
107
167
107
107
167
107
107
167
107
107
167
107
107
167
107
107
167
107
107
167
107
107
167
107
107
167
107
107
167
107
107
167
107
107
167
107
107
167
107
107
167
107
107
167
107
107
167
107
107
167
107
107
167
107
107
167
107
107
167
107
107
167
107
107
167
107
107
167
107
107
167
107
107
167
107
107
167
107
107
167
107
107
167
107
107
167
107
107
167
107
107
167
107
107
167
107
107
167
107
107
167
107
107
167
107
107
167
107
107
167
107
107
167
107
107
167
107
107
167
107
107
167
107
107
167
107
107
167
107
107
167
107
107
167
107
107
167
107
107
167
107
107
167
107
107
167
107
107
167
107
107
167
107
107
167
107
107
167
107
107
167
107
107
167
107
107
67
51
27
67
51
27
67
51
27
67
51
27
67
51
27
67
51
27
67
51
27
67
51
27
167
107
107
167
107
107
167
107
107
167
107
107
167
107
107
167
107
107
167
107
107
167
107
107
167
107
107
167
107
107
167
107
107
167
107
107
167
107
107
167
107
107
167
107
107
167
107
107
167
107
107
167
107
107
167
107
107
167
107
107
167
107
107
167
107
107
167
107
107
167
107
107
167
107
107
167
107
107
167
107
107
167
107
107
167
107
107
167
107
107
167
107
107
167
107
107
167
107
107
167
107
107
167
107
107
167
107
107
167
107
107
167
107
107
167
107
107
167
107
107
167
107
107
167
107
107
167
107
107
167
107
107
167
107
107
167
107
107
167
107
107
167
107
107
167
107
107
167
107
107
167
107
107
167
107
107
167
107
107
167
107
107
167
107
107
167
107
107
167
107
107
167
107
107
167
107
107
167
107
107
167
107
107
167
107
107
167
107
107
167
107
107
67
51
27
67
51
27
67
51
27
67
51
27
67
51
27
67
51
27
67
51
27
67
51
27
167
107
107
167
107
107
167
107
107
167
107
107
167
107
107
167
107
107
167
107
107
167
107
107
167
107
107
167
107
107
167
107
107
167
107
107
167
107
107
167
107
107
167
107
107
167
107
107
167
107
107
167
107
107
167
107
107
167
107
107
167
107
107
167
107
107
167
107
107
167
107
107
167
107
107
167
107
107
167
107
107
167
107
107
167
107
107
103
83
51
63
47
23
83
63
31
167
107
107
167
107
107
167
107
107
167
107
107
167
107
107
167
107
107
167
107
107
167
107
107
167
107
107
167
107
107
167
107
107
167
107
107
167
107
107
167
107
107
167
107
107
167
107
107
167
107
107
167
107
107
167
107
107
167
107
107
167
107
107
167
107
107
167
107
107
167
107
107
167
107
107
167
107
107
167
107
107
167
107
107
167
107
107
167
107
107
167
107
107
167
107
107
67
51
27
67
51
27
67
51
27
67
51
27
67
51
27
67
51
27
67
51
27
67
51
27
67
51
27
67
51
27
67
51
27
67
51
27
67
51
27
67
51
27
67
51
27
67
51
27
0
0
0
163
107
63
0
0
0
0
0
0
0
0
0
163
107
63
0
0
0
0
0
0
75
55
27
255
127
27
255
127
27
255
127
27
255
235
223
255
255
255
255
127
27
255
127
27
75
55
27
255
127
27
255
127
27
255
127
27
255
235
223
255
235
223
255
235
223
255
127
27
167
107
107
167
107
107
167
107
107
167
107
107
167
107
107
167
107
107
167
107
107
167
107
107
167
107
107
167
107
107
167
107
107
167
107
107
167
107
107
167
107
107
167
107
107
167
107
107
167
107
107
167
107
107
167
107
107
167
107
107
167
107
107
167
107
107
167
107
107
43
35
15
0
0
0
95
67
35
75
55
27
75
55
27
63
47
23
0
0
0
0
0
0
63
47
23
75
55
27
75
55
27
75
55
27
75
55
27
63
47
23
0
0
0
0
0
0
63
47
23
75
55
27
75
55
27
75
55
27
0
0
0
43
35
15
167
107
107
167
107
107
167
107
107
167
107
107
167
107
107
167
107
107
167
107
107
167
107
107
167
107
107
167
107
107
167
107
107
167
107
107
167
107
107
167
107
107
167
107
107
167
107
107
167
107
107
167
107
107
167
107
107
255
255
255
255
255
255
0
0
0
0
0
0
255
255
255
255
255
255
0
0
0
0
0
0
167
107
107
167
107
107
167
107
107
167
107
107
167
107
107
167
107
107
167
107
107
167
107
107
167
107
107
167
107
107
167
107
107
167
107
107
167
107
107
167
107
107
167
107
107
167
107
107
167
107
107
167
107
107
167
107
107
167
107
107
167
107
107
167
107
107
167
107
107
167
107
107
167
107
107
167
107
107
167
107
107
167
107
107
167
107
107
167
107
107
167
107
107
167
107
107
167
107
107
167
107
107
167
107
107
167
107
107
167
107
107
167
107
107
167
107
107
167
107
107
167
107
107
167
107
107
167
107
107
167
107
107
167
107
107
167
107
107
167
107
107
167
107
107
167
107
107
167
107
107
167
107
107
167
107
107
167
107
107
167
107
107
167
107
107
167
107
107
167
107
107
167
107
107
167
107
107
167
107
107
167
107
107
167
107
107
167
107
107
167
107
107
67
51
27
0
0
0
0
0
0
0
0
0
0
0
0
0
0
0
0
0
0
0
0
0
167
107
107
167
107
107
167
107
107
167
107
107
167
107
107
167
107
107
167
107
107
167
107
107
167
107
107
167
107
107
167
107
107
167
107
107
167
107
107
167
107
107
167
107
107
167
107
107
167
107
107
167
107
107
167
107
107
167
107
107
167
107
107
167
107
107
167
107
107
167
107
107
167
107
107
167
107
107
167
107
107
167
107
107
167
107
107
167
107
107
167
107
107
167
107
107
167
107
107
167
107
107
167
107
107
167
107
107
167
107
107
167
107
107
167
107
107
167
107
107
167
107
107
167
107
107
167
107
107
167
107
107
167
107
107
167
107
107
167
107
107
167
107
107
167
107
107
167
107
107
167
107
107
167
107
107
167
107
107
167
107
107
167
107
107
167
107
107
167
107
107
167
107
107
167
107
107
167
107
107
167
107
107
167
107
107
167
107
107
167
107
107
67
51
27
0
0
0
0
0
0
0
0
0
0
0
0
0
0
0
0
0
0
0
0
0
167
107
107
167
107
107
167
107
107
167
107
107
167
107
107
167
107
107
167
107
107
167
107
107
167
107
107
167
107
107
167
107
107
167
107
107
167
107
107
167
107
107
167
107
107
167
107
107
167
107
107
167
107
107
167
107
107
167
107
107
167
107
107
167
107
107
167
107
107
167
107
107
167
107
107
167
107
107
167
107
107
167
107
107
167
107
107
103
83
51
63
47
23
83
63
31
167
107
107
167
107
107
167
107
107
167
107
107
167
107
107
167
107
107
167
107
107
167
107
107
167
107
107
167
107
107
167
107
107
167
107
107
167
107
107
167
107
107
167
107
107
167
107
107
167
107
107
167
107
107
167
107
107
167
107
107
167
107
107
167
107
107
167
107
107
167
107
107
167
107
107
167
107
107
167
107
107
167
107
107
167
107
107
167
107
107
167
107
107
167
107
107
67
51
27
0
0
0
0
0
0
0
0
0
0
0
0
0
0
0
0
0
0
0
0
0
67
51
27
0
0
0
0
0
0
0
0
0
0
0
0
0
0
0
0
0
0
0
0
0
0
0
0
163
107
63
0
0
0
0
0
0
0
0
0
163
107
63
0
0
0
0
0
0
75
55
27
255
127
27
255
127
27
255
255
255
255
235
223
255
255
255
255
127
27
255
127
27
75
55
27
255
127
27
255
127
27
255
235
223
255
235
223
255
235
223
255
235
223
255
127
27
167
107
107
167
107
107
167
107
107
167
107
107
167
107
107
167
107
107
167
107
107
167
107
107
167
107
107
167
107
107
167
107
107
167
107
107
167
107
107
167
107
107
167
107
107
167
107
107
167
107
107
167
107
107
167
107
107
167
107
107
167
107
107
167
107
107
167
107
107
43
35
15
63
47
23
91
71
43
75
55
27
75
55
27
63
47
23
103
83
63
95
75
55
51
43
19
75
55
27
75
55
27
75
55
27
75
55
27
63
47
23
103
83
63
95
75
55
51
43
19
75
55
27
75
55
27
75
55
27
31
23
11
43
35
15
167
107
107
167
107
107
167
107
107
167
107
107
167
107
107
167
107
107
167
107
107
167
107
107
167
107
107
167
107
107
167
107
107
167
107
107
167
107
107
167
107
107
167
107
107
167
107
107
167
107
107
167
107
107
167
107
107
255
255
255
255
255
255
0
0
0
0
0
0
0
0
0
255
255
255
255
255
255
0
0
0
167
107
107
167
107
107
167
107
107
167
107
107
167
107
107
167
107
107
167
107
107
167
107
107
167
107
107
167
107
107
167
107
107
167
107
107
167
107
107
167
107
107
167
107
107
167
107
107
167
107
107
167
107
107
167
107
107
167
107
107
167
107
107
167
107
107
167
107
107
167
107
107
167
107
107
167
107
107
167
107
107
167
107
107
167
107
107
167
107
107
167
107
107
167
107
107
167
107
107
167
107
107
167
107
107
167
107
107
167
107
107
167
107
107
167
107
107
167
107
107
167
107
107
167
107
107
167
107
107
167
107
107
167
107
107
167
107
107
167
107
107
167
107
107
167
107
107
167
107
107
167
107
107
167
107
107
167
107
107
167
107
107
167
107
107
167
107
107
167
107
107
167
107
107
167
107
107
167
107
107
167
107
107
167
107
107
167
107
107
167
107
107
67
51
27
0
0
0
0
0
0
0
0
0
0
0
0
0
0
0
0
0
0
0
0
0
167
107
107
167
107
107
167
107
107
167
107
107
167
107
107
167
107
107
167
107
107
167
107
107
167
107
107
167
107
107
167
107
107
167
107
107
167
107
107
167
107
107
167
107
107
167
107
107
167
107
107
167
107
107
167
107
107
167
107
107
167
107
107
167
107
107
167
107
107
167
107
107
167
107
107
167
107
107
167
107
107
167
107
107
167
107
107
167
107
107
167
107
107
167
107
107
167
107
107
167
107
107
167
107
107
167
107
107
167
107
107
167
107
107
167
107
107
167
107
107
167
107
107
167
107
107
167
107
107
167
107
107
167
107
107
167
107
107
167
107
107
167
107
107
167
107
107
167
107
107
167
107
107
167
107
107
167
107
107
167
107
107
167
107
107
167
107
107
167
107
107
167
107
107
167
107
107
167
107
107
167
107
107
167
107
107
167
107
107
167
107
107
67
51
27
0
0
0
0
0
0
0
0
0
0
0
0
0
0
0
0
0
0
0
0
0
167
107
107
167
107
107
167
107
107
167
107
107
167
107
107
167
107
107
167
107
107
167
107
107
167
107
107
167
107
107
167
107
107
167
107
107
167
107
107
167
107
107
167
107
107
167
107
107
167
107
107
167
107
107
167
107
107
167
107
107
167
107
107
167
107
107
167
107
107
167
107
107
167
107
107
167
107
107
167
107
107
167
107
107
167
107
107
103
83
51
63
47
23
83
63
31
167
107
107
167
107
107
167
107
107
167
107
107
167
107
107
167
107
107
167
107
107
167
107
107
167
107
107
167
107
107
167
107
107
167
107
107
167
107
107
167
107
107
167
107
107
167
107
107
167
107
107
167
107
107
167
107
107
167
107
107
167
107
107
167
107
107
167
107
107
167
107
107
167
107
107
167
107
107
167
107
107
167
107
107
167
107
107
167
107
107
167
107
107
167
107
107
67
51
27
0
0
0
0
0
0
0
0
0
0
0
0
0
0
0
0
0
0
0
0
0
67
51
27
0
0
0
0
0
0
0
0
0
0
0
0
0
0
0
0
0
0
0
0
0
0
0
0
163
107
63
163
107
63
163
107
63
163
107
63
163
107
63
0
0
0
0
0
0
75
55
27
255
127
27
255
127
27
255
127
27
255
235
223
255
255
255
255
127
27
255
127
27
75
55
27
255
127
27
255
235
223
255
235
223
255
127
27
255
235
223
255
235
223
255
127
27
167
107
107
167
107
107
167
107
107
167
107
107
167
107
107
167
107
107
167
107
107
167
107
107
167
107
107
167
107
107
167
107
107
167
107
107
167
107
107
167
107
107
167
107
107
167
107
107
167
107
107
167
107
107
167
107
107
167
107
107
167
107
107
167
107
107
167
107
107
43
35
15
63
47
23
79
59
35
75
55
27
75
55
27
63
47
23
95
75
55
87
67
51
51
43
19
75
55
27
75
55
27
75
55
27
75
55
27
63
47
23
95
75
55
83
63
47
51
43
19
75
55
27
75
55
27
79
59
35
31
23
11
43
35
15
167
107
107
167
107
107
167
107
107
167
107
107
167
107
107
167
107
107
167
107
107
167
107
107
167
107
107
167
107
107
167
107
107
167
107
107
167
107
107
167
107
107
167
107
107
167
107
107
167
107
107
167
107
107
167
107
107
67
51
27
0
0
0
0
0
0
0
0
0
0
0
0
0
0
0
0
0
0
0
0
0
167
107
107
167
107
107
167
107
107
167
107
107
167
107
107
167
107
107
167
107
107
167
107
107
167
107
107
167
107
107
167
107
107
167
107
107
167
107
107
167
107
107
167
107
107
167
107
107
167
107
107
167
107
107
167
107
107
167
107
107
167
107
107
167
107
107
167
107
107
167
107
107
167
107
107
167
107
107
167
107
107
167
107
107
167
107
107
167
107
107
167
107
107
167
107
107
167
107
107
167
107
107
167
107
107
167
107
107
167
107
107
167
107
107
167
107
107
167
107
107
167
107
107
167
107
107
167
107
107
167
107
107
167
107
107
167
107
107
167
107
107
167
107
107
167
107
107
167
107
107
167
107
107
167
107
107
167
107
107
167
107
107
167
107
107
167
107
107
167
107
107
167
107
107
167
107
107
167
107
107
167
107
107
167
107
107
167
107
107
167
107
107
67
51
27
0
0
0
0
0
0
0
0
0
0
0
0
0
0
0
0
0
0
0
0
0
167
107
107
167
107
107
167
107
107
167
107
107
167
107
107
167
107
107
167
107
107
167
107
107
167
107
107
167
107
107
167
107
107
167
107
107
167
107
107
167
107
107
167
107
107
167
107
107
167
107
107
167
107
107
167
107
107
167
107
107
167
107
107
167
107
107
167
107
107
167
107
107
167
107
107
167
107
107
167
107
107
167
107
107
167
107
107
167
107
107
167
107
107
167
107
107
167
107
107
167
107
107
167
107
107
167
107
107
167
107
107
167
107
107
167
107
107
167
107
107
167
107
107
167
107
107
167
107
107
167
107
107
167
107
107
167
107
107
167
107
107
167
107
107
167
107
107
167
107
107
167
107
107
167
107
107
167
107
107
167
107
107
167
107
107
167
107
107
167
107
107
167
107
107
167
107
107
167
107
107
167
107
107
167
107
107
167
107
107
167
107
107
67
51
27
0
0
0
0
0
0
0
0
0
0
0
0
0
0
0
0
0
0
0
0
0
167
107
107
167
107
107
167
107
107
167
107
107
167
107
107
167
107
107
167
107
107
167
107
107
167
107
107
167
107
107
167
107
107
167
107
107
167
107
107
167
107
107
167
107
107
167
107
107
167
107
107
167
107
107
167
107
107
167
107
107
167
107
107
167
107
107
167
107
107
167
107
107
167
107
107
167
107
107
167
107
107
167
107
107
167
107
107
103
83
51
63
47
23
83
63
31
167
107
107
167
107
107
167
107
107
167
107
107
167
107
107
167
107
107
167
107
107
167
107
107
167
107
107
167
107
107
167
107
107
167
107
107
167
107
107
167
107
107
167
107
107
167
107
107
167
107
107
167
107
107
167
107
107
167
107
107
167
107
107
167
107
107
167
107
107
167
107
107
167
107
107
167
107
107
167
107
107
167
107
107
167
107
107
167
107
107
167
107
107
167
107
107
67
51
27
0
0
0
0
0
0
0
0
0
0
0
0
0
0
0
0
0
0
0
0
0
67
51
27
0
0
0
0
0
0
0
0
0
0
0
0
0
0
0
0
0
0
0
0
0
0
0
0
0
0
0
163
107
63
163
107
63
163
107
63
0
0
0
0
0
0
0
0
0
75
55
27
255
127
27
255
127
27
255
127
27
255
235
223
255
255
255
255
127
27
255
127
27
75
55
27
255
235
223
255
235
223
255
127
27
255
127
27
255
235
223
255
235
223
255
127
27
167
107
107
167
107
107
167
107
107
167
107
107
167
107
107
167
107
107
167
107
107
167
107
107
167
107
107
167
107
107
167
107
107
167
107
107
167
107
107
167
107
107
167
107
107
167
107
107
167
107
107
167
107
107
167
107
107
167
107
107
167
107
107
167
107
107
167
107
107
43
35
15
63
47
23
67
51
27
79
59
35
79
59
35
51
43
19
87
67
51
83
63
31
51
43
19
79
59
35
79
59
35
79
59
35
79
59
35
51
43
19
87
67
51
83
63
31
51
43
19
79
59
35
79
59
35
67
51
27
31
23
11
43
35
15
167
107
107
167
107
107
167
107
107
167
107
107
167
107
107
167
107
107
167
107
107
167
107
107
167
107
107
167
107
107
167
107
107
167
107
107
167
107
107
167
107
107
167
107
107
167
107
107
167
107
107
167
107
107
167
107
107
67
51
27
0
0
0
0
0
0
0
0
0
0
0
0
0
0
0
0
0
0
0
0
0
167
107
107
167
107
107
167
107
107
167
107
107
167
107
107
167
107
107
167
107
107
167
107
107
167
107
107
167
107
107
167
107
107
167
107
107
167
107
107
167
107
107
167
107
107
167
107
107
167
107
107
167
107
107
167
107
107
167
107
107
167
107
107
167
107
107
167
107
107
167
107
107
167
107
107
167
107
107
167
107
107
167
107
107
167
107
107
167
107
107
167
107
107
167
107
107
167
107
107
167
107
107
167
107
107
167
107
107
167
107
107
167
107
107
167
107
107
167
107
107
167
107
107
167
107
107
167
107
107
167
107
107
167
107
107
167
107
107
167
107
107
167
107
107
167
107
107
167
107
107
167
107
107
167
107
107
167
107
107
167
107
107
167
107
107
167
107
107
167
107
107
167
107
107
167
107
107
167
107
107
167
107
107
167
107
107
167
107
107
167
107
107
67
51
27
0
0
0
0
0
0
0
0
0
0
0
0
0
0
0
0
0
0
0
0
0
167
107
107
167
107
107
167
107
107
167
107
107
167
107
107
167
107
107
167
107
107
167
107
107
167
107
107
167
107
107
167
107
107
167
107
107
167
107
107
167
107
107
167
107
107
167
107
107
167
107
107
167
107
107
167
107
107
167
107
107
167
107
107
167
107
107
167
107
107
167
107
107
167
107
107
167
107
107
167
107
107
167
107
107
167
107
107
167
107
107
167
107
107
167
107
107
167
107
107
167
107
107
167
107
107
167
107
107
167
107
107
167
107
107
167
107
107
167
107
107
167
107
107
167
107
107
167
107
107
167
107
107
167
107
107
167
107
107
167
107
107
167
107
107
167
107
107
167
107
107
167
107
107
167
107
107
167
107
107
167
107
107
167
107
107
167
107
107
167
107
107
167
107
107
167
107
107
167
107
107
167
107
107
167
107
107
167
107
107
167
107
107
67
51
27
0
0
0
0
0
0
0
0
0
0
0
0
0
0
0
0
0
0
0
0
0
167
107
107
167
107
107
167
107
107
167
107
107
167
107
107
167
107
107
167
107
107
167
107
107
167
107
107
167
107
107
167
107
107
167
107
107
167
107
107
167
107
107
167
107
107
167
107
107
167
107
107
167
107
107
167
107
107
167
107
107
167
107
107
167
107
107
167
107
107
167
107
107
167
107
107
167
107
107
167
107
107
167
107
107
167
107
107
103
83
51
63
47
23
75
55
27
167
107
107
167
107
107
167
107
107
167
107
107
167
107
107
167
107
107
167
107
107
167
107
107
167
107
107
167
107
107
167
107
107
167
107
107
167
107
107
167
107
107
167
107
107
167
107
107
167
107
107
167
107
107
167
107
107
167
107
107
167
107
107
167
107
107
167
107
107
167
107
107
167
107
107
167
107
107
167
107
107
167
107
107
167
107
107
167
107
107
167
107
107
167
107
107
67
51
27
0
0
0
0
0
0
0
0
0
0
0
0
0
0
0
0
0
0
0
0
0
67
51
27
0
0
0
0
0
0
0
0
0
0
0
0
0
0
0
0
0
0
0
0
0
0
0
0
0
0
0
0
0
0
0
0
0
0
0
0
0
0
0
0
0
0
0
0
0
75
55
27
255
127
27
255
127
27
255
127
27
255
235
223
255
255
255
255
127
27
255
127
27
75
55
27
255
235
223
255
235
223
255
235
223
255
235
223
255
235
223
255
235
223
255
235
223
167
107
107
167
107
107
167
107
107
167
107
107
167
107
107
167
107
107
167
107
107
167
107
107
167
107
107
167
107
107
167
107
107
167
107
107
167
107
107
167
107
107
167
107
107
167
107
107
167
107
107
167
107
107
167
107
107
167
107
107
167
107
107
167
107
107
167
107
107
43
35
15
63
47
23
43
35
15
43
35
15
31
23
11
31
23
11
75
55
27
83
63
31
31
23
11
31
23
11
43
35
15
43
35
15
31
23
11
31
23
11
83
63
31
75
55
27
31
23
11
31
23
11
43
35
15
43
35
15
31
23
11
43
35
15
167
107
107
167
107
107
167
107
107
167
107
107
167
107
107
167
107
107
167
107
107
167
107
107
167
107
107
167
107
107
167
107
107
167
107
107
167
107
107
167
107
107
167
107
107
167
107
107
167
107
107
167
107
107
167
107
107
67
51
27
0
0
0
0
0
0
0
0
0
0
0
0
0
0
0
0
0
0
0
0
0
167
107
107
167
107
107
167
107
107
167
107
107
167
107
107
167
107
107
167
107
107
167
107
107
167
107
107
167
107
107
167
107
107
167
107
107
167
107
107
167
107
107
167
107
107
167
107
107
167
107
107
167
107
107
167
107
107
167
107
107
167
107
107
167
107
107
167
107
107
167
107
107
167
107
107
167
107
107
167
107
107
167
107
107
167
107
107
167
107
107
167
107
107
167
107
107
167
107
107
167
107
107
167
107
107
167
107
107
167
107
107
167
107
107
167
107
107
167
107
107
167
107
107
167
107
107
167
107
107
167
107
107
167
107
107
167
107
107
167
107
107
167
107
107
167
107
107
167
107
107
167
107
107
167
107
107
167
107
107
167
107
107
167
107
107
167
107
107
167
107
107
167
107
107
167
107
107
167
107
107
167
107
107
167
107
107
167
107
107
167
107
107
67
51
27
0
0
0
0
0
0
0
0
0
0
0
0
0
0
0
0
0
0
0
0
0
167
107
107
167
107
107
167
107
107
167
107
107
167
107
107
167
107
107
167
107
107
167
107
107
167
107
107
167
107
107
167
107
107
167
107
107
167
107
107
167
107
107
167
107
107
167
107
107
167
107
107
167
107
107
167
107
107
167
107
107
167
107
107
167
107
107
167
107
107
167
107
107
167
107
107
167
107
107
167
107
107
167
107
107
167
107
107
167
107
107
167
107
107
167
107
107
167
107
107
167
107
107
167
107
107
167
107
107
167
107
107
167
107
107
167
107
107
167
107
107
167
107
107
167
107
107
167
107
107
167
107
107
167
107
107
167
107
107
167
107
107
167
107
107
167
107
107
167
107
107
167
107
107
167
107
107
167
107
107
167
107
107
167
107
107
167
107
107
167
107
107
167
107
107
167
107
107
167
107
107
167
107
107
167
107
107
167
107
107
167
107
107
67
51
27
0
0
0
0
0
0
0
0
0
0
0
0
0
0
0
0
0
0
0
0
0
167
107
107
167
107
107
167
107
107
167
107
107
167
107
107
167
107
107
167
107
107
167
107
107
167
107
107
167
107
107
167
107
107
167
107
107
167
107
107
167
107
107
167
107
107
167
107
107
167
107
107
167
107
107
167
107
107
167
107
107
167
107
107
167
107
107
167
107
107
167
107
107
167
107
107
167
107
107
167
107
107
167
107
107
167
107
107
103
83
51
63
47
23
75
55
27
167
107
107
167
107
107
167
107
107
167
107
107
167
107
107
167
107
107
167
107
107
167
107
107
167
107
107
167
107
107
167
107
107
167
107
107
167
107
107
167
107
107
167
107
107
167
107
107
167
107
107
167
107
107
167
107
107
167
107
107
167
107
107
167
107
107
167
107
107
167
107
107
167
107
107
167
107
107
167
107
107
167
107
107
167
107
107
167
107
107
167
107
107
167
107
107
67
51
27
0
0
0
0
0
0
0
0
0
0
0
0
0
0
0
0
0
0
0
0
0
67
51
27
0
0
0
0
0
0
0
0
0
0
0
0
0
0
0
0
0
0
0
0
0
0
0
0
0
0
0
0
0
0
0
0
0
0
0
0
0
0
0
0
0
0
0
0
0
75
55
27
255
127
27
255
127
27
255
127
27
255
235
223
255
255
255
255
127
27
255
127
27
75
55
27
255
127
27
255
127
27
255
127
27
255
127
27
255
235
223
255
235
223
255
127
27
167
107
107
167
107
107
167
107
107
167
107
107
167
107
107
167
107
107
167
107
107
167
107
107
167
107
107
167
107
107
167
107
107
167
107
107
167
107
107
167
107
107
167
107
107
167
107
107
167
107
107
167
107
107
167
107
107
167
107
107
167
107
107
167
107
107
167
107
107
43
35
15
63
47
23
43
35
15
51
43
19
51
43
19
43
35
15
63
47
23
75
55
27
31
23
11
51
43
19
51
43
19
51
43
19
51
43
19
43
35
15
75
55
27
63
47
23
31
23
11
51
43
19
51
43
19
43
35
15
31
23
11
43
35
15
167
107
107
167
107
107
167
107
107
167
107
107
167
107
107
167
107
107
167
107
107
167
107
107
167
107
107
167
107
107
167
107
107
167
107
107
167
107
107
167
107
107
167
107
107
167
107
107
167
107
107
167
107
107
167
107
107
67
51
27
0
0
0
0
0
0
0
0
0
0
0
0
0
0
0
0
0
0
0
0
0
167
107
107
167
107
107
167
107
107
167
107
107
167
107
107
167
107
107
167
107
107
167
107
107
167
107
107
167
107
107
167
107
107
167
107
107
167
107
107
167
107
107
167
107
107
167
107
107
167
107
107
167
107
107
167
107
107
167
107
107
167
107
107
167
107
107
167
107
107
167
107
107
167
107
107
167
107
107
167
107
107
167
107
107
167
107
107
167
107
107
167
107
107
167
107
107
167
107
107
167
107
107
167
107
107
167
107
107
167
107
107
167
107
107
167
107
107
167
107
107
167
107
107
167
107
107
167
107
107
167
107
107
167
107
107
167
107
107
167
107
107
167
107
107
167
107
107
167
107
107
167
107
107
167
107
107
167
107
107
167
107
107
167
107
107
167
107
107
167
107
107
167
107
107
167
107
107
167
107
107
167
107
107
167
107
107
167
107
107
167
107
107
67
51
27
0
0
0
0
0
0
0
0
0
0
0
0
0
0
0
0
0
0
0
0
0
167
107
107
167
107
107
167
107
107
167
107
107
167
107
107
167
107
107
167
107
107
167
107
107
167
107
107
167
107
107
167
107
107
167
107
107
167
107
107
167
107
107
167
107
107
167
107
107
167
107
107
167
107
107
167
107
107
167
107
107
167
107
107
167
107
107
167
107
107
167
107
107
167
107
107
167
107
107
167
107
107
167
107
107
167
107
107
167
107
107
167
107
107
167
107
107
167
107
107
167
107
107
167
107
107
167
107
107
167
107
107
167
107
107
167
107
107
167
107
107
167
107
107
167
107
107
167
107
107
167
107
107
167
107
107
167
107
107
167
107
107
167
107
107
167
107
107
167
107
107
167
107
107
167
107
107
167
107
107
167
107
107
167
107
107
167
107
107
167
107
107
167
107
107
167
107
107
167
107
107
167
107
107
167
107
107
167
107
107
167
107
107
67
51
27
0
0
0
0
0
0
0
0
0
0
0
0
0
0
0
0
0
0
0
0
0
167
107
107
167
107
107
167
107
107
167
107
107
167
107
107
167
107
107
167
107
107
167
107
107
167
107
107
167
107
107
167
107
107
167
107
107
167
107
107
167
107
107
167
107
107
167
107
107
167
107
107
167
107
107
167
107
107
167
107
107
167
107
107
167
107
107
167
107
107
167
107
107
167
107
107
167
107
107
167
107
107
167
107
107
167
107
107
103
83
51
63
47
23
75
55
27
167
107
107
167
107
107
167
107
107
167
107
107
167
107
107
167
107
107
167
107
107
167
107
107
167
107
107
167
107
107
167
107
107
167
107
107
167
107
107
167
107
107
167
107
107
167
107
107
167
107
107
167
107
107
167
107
107
167
107
107
167
107
107
167
107
107
167
107
107
167
107
107
167
107
107
167
107
107
167
107
107
167
107
107
167
107
107
167
107
107
167
107
107
167
107
107
67
51
27
0
0
0
0
0
0
0
0
0
0
0
0
0
0
0
0
0
0
0
0
0
67
51
27
0
0
0
0
0
0
0
0
0
0
0
0
0
0
0
0
0
0
0
0
0
0
0
0
163
107
63
163
107
63
163
107
63
163
107
63
163
107
63
0
0
0
0
0
0
75
55
27
255
127
27
255
127
27
255
255
255
255
255
255
255
255
255
255
255
255
255
127
27
75
55
27
255
127
27
255
127
27
255
127
27
255
127
27
255
235
223
255
235
223
255
127
27
167
107
107
167
107
107
167
107
107
167
107
107
167
107
107
167
107
107
167
107
107
167
107
107
167
107
107
167
107
107
167
107
107
167
107
107
167
107
107
167
107
107
167
107
107
167
107
107
167
107
107
167
107
107
167
107
107
167
107
107
167
107
107
167
107
107
167
107
107
43
35
15
63
47
23
43
35
15
63
47
23
43
35
15
59
59
59
39
39
39
23
15
7
55
55
55
47
47
47
63
47
23
63
47
23
43
35
15
59
59
59
39
39
39
23
15
7
55
55
55
47
47
47
43
35
15
43
35
15
31
23
11
43
35
15
167
107
107
167
107
107
167
107
107
167
107
107
167
107
107
167
107
107
167
107
107
167
107
107
167
107
107
167
107
107
167
107
107
167
107
107
167
107
107
167
107
107
167
107
107
167
107
107
167
107
107
167
107
107
167
107
107
67
51
27
0
0
0
0
0
0
0
0
0
0
0
0
0
0
0
0
0
0
0
0
0
167
107
107
167
107
107
167
107
107
167
107
107
167
107
107
167
107
107
167
107
107
167
107
107
167
107
107
167
107
107
167
107
107
167
107
107
167
107
107
167
107
107
167
107
107
167
107
107
167
107
107
167
107
107
167
107
107
167
107
107
167
107
107
167
107
107
167
107
107
167
107
107
167
107
107
167
107
107
167
107
107
167
107
107
167
107
107
167
107
107
167
107
107
167
107
107
167
107
107
167
107
107
167
107
107
167
107
107
167
107
107
167
107
107
167
107
107
167
107
107
167
107
107
167
107
107
167
107
107
167
107
107
167
107
107
167
107
107
167
107
107
167
107
107
167
107
107
167
107
107
167
107
107
167
107
107
167
107
107
167
107
107
167
107
107
167
107
107
167
107
107
167
107
107
167
107
107
167
107
107
167
107
107
167
107
107
167
107
107
167
107
107
67
51
27
0
0
0
0
0
0
0
0
0
0
0
0
0
0
0
0
0
0
0
0
0
167
107
107
167
107
107
167
107
107
167
107
107
167
107
107
167
107
107
167
107
107
167
107
107
167
107
107
167
107
107
167
107
107
167
107
107
167
107
107
167
107
107
167
107
107
167
107
107
167
107
107
167
107
107
167
107
107
167
107
107
167
107
107
167
107
107
167
107
107
167
107
107
167
107
107
167
107
107
167
107
107
167
107
107
167
107
107
167
107
107
167
107
107
167
107
107
167
107
107
167
107
107
167
107
107
167
107
107
167
107
107
167
107
107
167
107
107
167
107
107
167
107
107
167
107
107
167
107
107
167
107
107
167
107
107
167
107
107
167
107
107
167
107
107
167
107
107
167
107
107
167
107
107
167
107
107
167
107
107
167
107
107
167
107
107
167
107
107
167
107
107
167
107
107
167
107
107
167
107
107
167
107
107
167
107
107
167
107
107
167
107
107
67
51
27
0
0
0
0
0
0
0
0
0
0
0
0
0
0
0
0
0
0
0
0
0
167
107
107
167
107
107
167
107
107
167
107
107
167
107
107
167
107
107
167
107
107
167
107
107
167
107
107
167
107
107
167
107
107
167
107
107
167
107
107
167
107
107
167
107
107
167
107
107
167
107
107
167
107
107
167
107
107
167
107
107
167
107
107
167
107
107
167
107
107
167
107
107
167
107
107
167
107
107
167
107
107
167
107
107
167
107
107
103
83
51
63
47
23
75
55
27
167
107
107
167
107
107
167
107
107
167
107
107
167
107
107
167
107
107
167
107
107
167
107
107
167
107
107
167
107
107
167
107
107
167
107
107
167
107
107
167
107
107
167
107
107
167
107
107
167
107
107
167
107
107
167
107
107
167
107
107
167
107
107
167
107
107
167
107
107
167
107
107
167
107
107
167
107
107
167
107
107
167
107
107
167
107
107
167
107
107
167
107
107
167
107
107
67
51
27
0
0
0
0
0
0
0
0
0
0
0
0
0
0
0
0
0
0
0
0
0
67
51
27
0
0
0
0
0
0
0
0
0
0
0
0
0
0
0
0
0
0
0
0
0
0
0
0
163
107
63
163
107
63
163
107
63
163
107
63
163
107
63
0
0
0
0
0
0
75
55
27
75
55
27
75
55
27
75
55
27
67
51
27
67
51
27
67
51
27
67
51
27
75
55
27
75
55
27
75
55
27
75
55
27
67
51
27
67
51
27
67
51
27
67
51
27
167
107
107
167
107
107
167
107
107
167
107
107
167
107
107
167
107
107
167
107
107
167
107
107
167
107
107
167
107
107
167
107
107
167
107
107
167
107
107
167
107
107
167
107
107
167
107
107
167
107
107
167
107
107
167
107
107
167
107
107
167
107
107
167
107
107
167
107
107
43
35
15
63
47
23
43
35
15
63
47
23
63
47
23
43
35
15
87
67
51
83
63
31
31
23
11
51
43
19
43
35
15
63
47
23
63
47
23
43
35
15
87
67
51
83
63
31
31
23
11
51
43
19
63
47
23
43
35
15
31
23
11
43
35
15
167
107
107
167
107
107
167
107
107
167
107
107
167
107
107
167
107
107
167
107
107
167
107
107
167
107
107
167
107
107
167
107
107
167
107
107
167
107
107
167
107
107
167
107
107
167
107
107
167
107
107
167
107
107
167
107
107
67
51
27
67
51
27
67
51
27
67
51
27
67
51
27
67
51
27
67
51
27
67
51
27
167
107
107
167
107
107
167
107
107
167
107
107
167
107
107
167
107
107
167
107
107
167
107
107
167
107
107
167
107
107
167
107
107
167
107
107
167
107
107
167
107
107
167
107
107
167
107
107
167
107
107
167
107
107
167
107
107
167
107
107
167
107
107
167
107
107
167
107
107
167
107
107
167
107
107
167
107
107
167
107
107
167
107
107
167
107
107
167
107
107
167
107
107
167
107
107
167
107
107
167
107
107
167
107
107
167
107
107
167
107
107
167
107
107
167
107
107
167
107
107
167
107
107
167
107
107
167
107
107
167
107
107
167
107
107
167
107
107
167
107
107
167
107
107
167
107
107
167
107
107
167
107
107
167
107
107
167
107
107
167
107
107
167
107
107
167
107
107
167
107
107
167
107
107
167
107
107
167
107
107
167
107
107
167
107
107
167
107
107
167
107
107
67
51
27
67
51
27
67
51
27
67
51
27
67
51
27
67
51
27
67
51
27
67
51
27
167
107
107
167
107
107
167
107
107
167
107
107
167
107
107
167
107
107
167
107
107
167
107
107
167
107
107
167
107
107
167
107
107
167
107
107
167
107
107
167
107
107
167
107
107
167
107
107
167
107
107
167
107
107
167
107
107
167
107
107
167
107
107
167
107
107
167
107
107
167
107
107
167
107
107
167
107
107
167
107
107
167
107
107
167
107
107
167
107
107
167
107
107
167
107
107
167
107
107
167
107
107
167
107
107
167
107
107
167
107
107
167
107
107
167
107
107
167
107
107
167
107
107
167
107
107
167
107
107
167
107
107
167
107
107
167
107
107
167
107
107
167
107
107
167
107
107
167
107
107
167
107
107
167
107
107
167
107
107
167
107
107
167
107
107
167
107
107
167
107
107
167
107
107
167
107
107
167
107
107
167
107
107
167
107
107
167
107
107
167
107
107
67
51
27
67
51
27
67
51
27
67
51
27
67
51
27
67
51
27
67
51
27
67
51
27
167
107
107
167
107
107
167
107
107
167
107
107
167
107
107
167
107
107
167
107
107
167
107
107
167
107
107
167
107
107
167
107
107
167
107
107
167
107
107
167
107
107
167
107
107
167
107
107
167
107
107
167
107
107
167
107
107
167
107
107
167
107
107
167
107
107
167
107
107
167
107
107
167
107
107
167
107
107
167
107
107
167
107
107
167
107
107
103
83
51
63
47
23
75
55
27
167
107
107
167
107
107
167
107
107
167
107
107
167
107
107
167
107
107
167
107
107
167
107
107
167
107
107
167
107
107
167
107
107
167
107
107
167
107
107
167
107
107
167
107
107
167
107
107
167
107
107
167
107
107
167
107
107
167
107
107
167
107
107
167
107
107
167
107
107
167
107
107
167
107
107
167
107
107
167
107
107
167
107
107
167
107
107
167
107
107
167
107
107
167
107
107
67
51
27
67
51
27
67
51
27
67
51
27
67
51
27
67
51
27
67
51
27
67
51
27
67
51
27
67
51
27
67
51
27
67
51
27
67
51
27
67
51
27
67
51
27
67
51
27
0
0
0
0
0
0
0
0
0
0
0
0
163
107
63
0
0
0
0
0
0
0
0
0
75
55
27
255
127
27
255
127
27
255
127
27
255
235
223
255
255
255
255
127
27
255
127
27
75
55
27
255
235
223
255
235
223
255
235
223
255
235
223
255
235
223
255
235
223
255
127
27
167
107
107
167
107
107
167
107
107
167
107
107
167
107
107
167
107
107
167
107
107
167
107
107
167
107
107
167
107
107
167
107
107
167
107
107
167
107
107
167
107
107
167
107
107
167
107
107
167
107
107
167
107
107
167
107
107
167
107
107
167
107
107
167
107
107
167
107
107
43
35
15
63
47
23
43
35
15
43
35
15
43
35
15
43
35
15
43
35
15
43
35
15
43
35
15
43
35
15
0
0
0
43
35
15
43
35
15
43
35
15
43
35
15
43
35
15
43
35
15
43
35
15
43
35
15
43
35
15
31
23
11
43
35
15
167
107
107
167
107
107
167
107
107
167
107
107
167
107
107
167
107
107
167
107
107
167
107
107
167
107
107
167
107
107
167
107
107
167
107
107
167
107
107
167
107
107
167
107
107
167
107
107
167
107
107
167
107
107
167
107
107
67
51
27
0
0
0
0
0
0
0
0
0
0
0
0
0
0
0
0
0
0
0
0
0
167
107
107
167
107
107
167
107
107
167
107
107
167
107
107
167
107
107
167
107
107
167
107
107
167
107
107
167
107
107
167
107
107
167
107
107
167
107
107
167
107
107
167
107
107
167
107
107
167
107
107
167
107
107
167
107
107
167
107
107
167
107
107
167
107
107
167
107
107
167
107
107
167
107
107
167
107
107
167
107
107
167
107
107
167
107
107
167
107
107
167
107
107
167
107
107
167
107
107
167
107
107
167
107
107
167
107
107
167
107
107
167
107
107
167
107
107
167
107
107
167
107
107
167
107
107
167
107
107
167
107
107
167
107
107
167
107
107
167
107
107
167
107
107
167
107
107
167
107
107
167
107
107
167
107
107
167
107
107
167
107
107
167
107
107
167
107
107
167
107
107
167
107
107
167
107
107
167
107
107
167
107
107
167
107
107
167
107
107
167
107
107
67
51
27
0
0
0
0
0
0
0
0
0
0
0
0
0
0
0
0
0
0
0
0
0
167
107
107
167
107
107
167
107
107
167
107
107
167
107
107
167
107
107
167
107
107
167
107
107
167
107
107
167
107
107
167
107
107
167
107
107
167
107
107
167
107
107
167
107
107
167
107
107
167
107
107
167
107
107
167
107
107
167
107
107
167
107
107
167
107
107
167
107
107
167
107
107
167
107
107
167
107
107
167
107
107
167
107
107
167
107
107
167
107
107
167
107
107
167
107
107
167
107
107
167
107
107
167
107
107
167
107
107
167
107
107
167
107
107
167
107
107
167
107
107
167
107
107
167
107
107
167
107
107
167
107
107
167
107
107
167
107
107
167
107
107
167
107
107
167
107
107
167
107
107
167
107
107
167
107
107
167
107
107
167
107
107
167
107
107
167
107
107
167
107
107
167
107
107
167
107
107
167
107
107
167
107
107
167
107
107
167
107
107
167
107
107
67
51
27
0
0
0
0
0
0
0
0
0
0
0
0
0
0
0
0
0
0
0
0
0
167
107
107
167
107
107
167
107
107
167
107
107
167
107
107
167
107
107
167
107
107
167
107
107
167
107
107
167
107
107
167
107
107
167
107
107
167
107
107
167
107
107
167
107
107
167
107
107
167
107
107
167
107
107
167
107
107
167
107
107
167
107
107
167
107
107
167
107
107
167
107
107
167
107
107
167
107
107
167
107
107
167
107
107
167
107
107
103
83
51
63
47
23
75
55
27
167
107
107
167
107
107
167
107
107
167
107
107
167
107
107
167
107
107
167
107
107
167
107
107
167
107
107
167
107
107
167
107
107
167
107
107
167
107
107
167
107
107
167
107
107
167
107
107
167
107
107
167
107
107
167
107
107
167
107
107
167
107
107
167
107
107
167
107
107
167
107
107
167
107
107
167
107
107
167
107
107
167
107
107
167
107
107
167
107
107
167
107
107
167
107
107
67
51
27
0
0
0
0
0
0
0
0
0
0
0
0
0
0
0
0
0
0
0
0
0
67
51
27
0
0
0
0
0
0
0
0
0
0
0
0
0
0
0
0
0
0
0
0
0
0
0
0
0
0
0
0
0
0
0
0
0
0
0
0
163
107
63
0
0
0
0
0
0
75
55
27
255
127
27
255
127
27
255
255
255
255
235
223
255
255
255
255
127
27
255
127
27
75
55
27
255
235
223
255
235
223
255
127
27
255
127
27
255
127
27
255
127
27
255
127
27
167
107
107
167
107
107
167
107
107
167
107
107
167
107
107
167
107
107
167
107
107
167
107
107
167
107
107
167
107
107
167
107
107
167
107
107
167
107
107
167
107
107
167
107
107
167
107
107
167
107
107
167
107
107
167
107
107
167
107
107
167
107
107
167
107
107
167
107
107
43
35
15
63
47
23
95
67
35
119
79
43
107
71
39
95
67
35
83
63
31
83
63
31
75
55
27
63
47
23
0
0
0
0
0
0
95
67
35
119
79
43
107
71
39
95
67
35
83
63
31
75
55
27
75
55
27
75
55
27
31
23
11
43
35
15
167
107
107
167
107
107
167
107
107
167
107
107
167
107
107
167
107
107
167
107
107
167
107
107
167
107
107
167
107
107
167
107
107
167
107
107
167
107
107
167
107
107
167
107
107
167
107
107
167
107
107
167
107
107
167
107
107
67
51
27
0
0
0
0
0
0
0
0
0
0
0
0
0
0
0
0
0
0
0
0
0
167
107
107
167
107
107
167
107
107
167
107
107
167
107
107
167
107
107
167
107
107
167
107
107
167
107
107
167
107
107
167
107
107
167
107
107
167
107
107
167
107
107
167
107
107
167
107
107
167
107
107
167
107
107
167
107
107
167
107
107
167
107
107
167
107
107
167
107
107
167
107
107
167
107
107
167
107
107
167
107
107
167
107
107
167
107
107
167
107
107
167
107
107
167
107
107
167
107
107
167
107
107
167
107
107
167
107
107
167
107
107
167
107
107
167
107
107
167
107
107
167
107
107
167
107
107
167
107
107
167
107
107
167
107
107
167
107
107
167
107
107
167
107
107
167
107
107
167
107
107
167
107
107
167
107
107
167
107
107
167
107
107
167
107
107
167
107
107
167
107
107
167
107
107
167
107
107
167
107
107
167
107
107
167
107
107
167
107
107
167
107
107
67
51
27
0
0
0
0
0
0
0
0
0
0
0
0
0
0
0
0
0
0
0
0
0
167
107
107
167
107
107
167
107
107
167
107
107
167
107
107
167
107
107
167
107
107
167
107
107
167
107
107
167
107
107
167
107
107
167
107
107
167
107
107
167
107
107
167
107
107
167
107
107
167
107
107
167
107
107
167
107
107
167
107
107
167
107
107
167
107
107
167
107
107
167
107
107
167
107
107
167
107
107
167
107
107
167
107
107
167
107
107
167
107
107
167
107
107
167
107
107
167
107
107
167
107
107
167
107
107
167
107
107
167
107
107
167
107
107
167
107
107
167
107
107
167
107
107
167
107
107
167
107
107
167
107
107
167
107
107
167
107
107
167
107
107
167
107
107
167
107
107
167
107
107
167
107
107
167
107
107
167
107
107
167
107
107
167
107
107
167
107
107
167
107
107
167
107
107
167
107
107
167
107
107
167
107
107
167
107
107
167
107
107
167
107
107
67
51
27
0
0
0
0
0
0
0
0
0
0
0
0
0
0
0
0
0
0
0
0
0
167
107
107
167
107
107
167
107
107
167
107
107
167
107
107
167
107
107
167
107
107
167
107
107
167
107
107
167
107
107
167
107
107
167
107
107
167
107
107
167
107
107
167
107
107
167
107
107
167
107
107
167
107
107
167
107
107
167
107
107
167
107
107
167
107
107
167
107
107
167
107
107
167
107
107
167
107
107
167
107
107
167
107
107
167
107
107
103
83
51
63
47
23
75
55
27
167
107
107
167
107
107
167
107
107
167
107
107
167
107
107
167
107
107
167
107
107
167
107
107
167
107
107
167
107
107
167
107
107
167
107
107
167
107
107
167
107
107
167
107
107
167
107
107
167
107
107
167
107
107
167
107
107
167
107
107
167
107
107
167
107
107
167
107
107
167
107
107
167
107
107
167
107
107
167
107
107
167
107
107
167
107
107
167
107
107
167
107
107
167
107
107
67
51
27
0
0
0
0
0
0
0
0
0
0
0
0
0
0
0
0
0
0
0
0
0
67
51
27
0
0
0
0
0
0
0
0
0
0
0
0
0
0
0
0
0
0
0
0
0
0
0
0
0
0
0
0
0
0
0
0
0
0
0
0
163
107
63
0
0
0
0
0
0
75
55
27
255
127
27
255
127
27
255
127
27
255
235
223
255
255
255
255
127
27
255
127
27
75
55
27
255
235
223
255
235
223
255
235
223
255
235
223
255
235
223
255
127
27
255
127
27
167
107
107
167
107
107
167
107
107
167
107
107
167
107
107
167
107
107
167
107
107
167
107
107
167
107
107
167
107
107
167
107
107
167
107
107
167
107
107
167
107
107
167
107
107
167
107
107
167
107
107
167
107
107
167
107
107
167
107
107
167
107
107
167
107
107
167
107
107
43
35
15
63
47
23
51
43
19
75
55
27
83
63
31
75
55
27
75
55
27
63
47
23
63
47
23
43
35
15
0
0
0
43
35
15
51
43
19
75
55
27
83
63
31
75
55
27
75
55
27
63
47
23
63
47
23
51
43
19
31
23
11
43
35
15
167
107
107
167
107
107
167
107
107
167
107
107
167
107
107
167
107
107
167
107
107
167
107
107
167
107
107
167
107
107
167
107
107
167
107
107
167
107
107
167
107
107
167
107
107
167
107
107
167
107
107
167
107
107
167
107
107
67
51
27
0
0
0
0
0
0
0
0
0
0
0
0
0
0
0
0
0
0
0
0
0
167
107
107
167
107
107
167
107
107
167
107
107
167
107
107
167
107
107
167
107
107
167
107
107
167
107
107
167
107
107
167
107
107
167
107
107
167
107
107
167
107
107
167
107
107
167
107
107
167
107
107
167
107
107
167
107
107
167
107
107
167
107
107
167
107
107
167
107
107
167
107
107
167
107
107
167
107
107
167
107
107
167
107
107
167
107
107
167
107
107
167
107
107
167
107
107
167
107
107
167
107
107
167
107
107
167
107
107
167
107
107
167
107
107
167
107
107
167
107
107
167
107
107
167
107
107
167
107
107
167
107
107
167
107
107
167
107
107
167
107
107
167
107
107
167
107
107
167
107
107
167
107
107
167
107
107
167
107
107
167
107
107
167
107
107
167
107
107
167
107
107
167
107
107
167
107
107
167
107
107
167
107
107
167
107
107
167
107
107
167
107
107
67
51
27
0
0
0
0
0
0
0
0
0
0
0
0
0
0
0
0
0
0
0
0
0
167
107
107
167
107
107
167
107
107
167
107
107
167
107
107
167
107
107
167
107
107
167
107
107
167
107
107
167
107
107
167
107
107
167
107
107
167
107
107
167
107
107
167
107
107
167
107
107
167
107
107
167
107
107
167
107
107
167
107
107
167
107
107
167
107
107
167
107
107
167
107
107
167
107
107
167
107
107
167
107
107
167
107
107
167
107
107
167
107
107
167
107
107
167
107
107
167
107
107
167
107
107
167
107
107
167
107
107
167
107
107
167
107
107
167
107
107
167
107
107
167
107
107
167
107
107
167
107
107
167
107
107
167
107
107
167
107
107
167
107
107
167
107
107
167
107
107
167
107
107
167
107
107
167
107
107
167
107
107
167
107
107
167
107
107
167
107
107
167
107
107
167
107
107
167
107
107
167
107
107
167
107
107
167
107
107
167
107
107
167
107
107
67
51
27
0
0
0
0
0
0
0
0
0
0
0
0
0
0
0
0
0
0
0
0
0
167
107
107
167
107
107
167
107
107
167
107
107
167
107
107
167
107
107
167
107
107
167
107
107
167
107
107
167
107
107
167
107
107
167
107
107
167
107
107
167
107
107
167
107
107
167
107
107
167
107
107
167
107
107
167
107
107
167
107
107
167
107
107
167
107
107
167
107
107
167
107
107
167
107
107
167
107
107
167
107
107
167
107
107
167
107
107
103
83
51
63
47
23
75
55
27
167
107
107
167
107
107
167
107
107
167
107
107
167
107
107
167
107
107
167
107
107
167
107
107
167
107
107
167
107
107
167
107
107
167
107
107
167
107
107
167
107
107
167
107
107
167
107
107
167
107
107
167
107
107
167
107
107
167
107
107
167
107
107
167
107
107
167
107
107
167
107
107
167
107
107
167
107
107
167
107
107
167
107
107
167
107
107
167
107
107
167
107
107
167
107
107
67
51
27
0
0
0
0
0
0
0
0
0
0
0
0
0
0
0
0
0
0
0
0
0
67
51
27
0
0
0
0
0
0
0
0
0
0
0
0
0
0
0
0
0
0
0
0
0
0
0
0
0
0
0
0
0
0
0
0
0
0
0
0
163
107
63
0
0
0
0
0
0
75
55
27
255
127
27
255
127
27
255
127
27
255
235
223
255
255
255
255
127
27
255
127
27
75
55
27
255
127
27
255
127
27
255
127
27
255
127
27
255
235
223
255
235
223
255
127
27
167
107
107
167
107
107
167
107
107
167
107
107
167
107
107
167
107
107
167
107
107
167
107
107
167
107
107
167
107
107
167
107
107
167
107
107
167
107
107
167
107
107
167
107
107
167
107
107
167
107
107
167
107
107
167
107
107
167
107
107
167
107
107
167
107
107
167
107
107
43
35
15
63
47
23
95
67
35
43
35
15
43
35
15
59
59
59
47
47
47
43
35
15
43
35
15
75
55
27
0
0
0
43
35
15
95
67
35
43
35
15
43
35
15
59
59
59
47
47
47
43
35
15
43
35
15
75
55
27
31
23
11
43
35
15
167
107
107
167
107
107
167
107
107
167
107
107
167
107
107
167
107
107
167
107
107
167
107
107
167
107
107
167
107
107
167
107
107
167
107
107
167
107
107
167
107
107
167
107
107
167
107
107
167
107
107
167
107
107
167
107
107
67
51
27
0
0
0
0
0
0
0
0
0
0
0
0
0
0
0
0
0
0
0
0
0
167
107
107
167
107
107
167
107
107
167
107
107
167
107
107
167
107
107
167
107
107
167
107
107
167
107
107
167
107
107
167
107
107
167
107
107
167
107
107
167
107
107
167
107
107
167
107
107
167
107
107
167
107
107
167
107
107
167
107
107
167
107
107
167
107
107
167
107
107
167
107
107
167
107
107
167
107
107
167
107
107
167
107
107
167
107
107
167
107
107
167
107
107
167
107
107
167
107
107
167
107
107
167
107
107
167
107
107
167
107
107
167
107
107
167
107
107
167
107
107
167
107
107
167
107
107
167
107
107
167
107
107
167
107
107
167
107
107
167
107
107
167
107
107
167
107
107
167
107
107
167
107
107
167
107
107
167
107
107
167
107
107
167
107
107
167
107
107
167
107
107
167
107
107
167
107
107
167
107
107
167
107
107
167
107
107
167
107
107
167
107
107
67
51
27
0
0
0
0
0
0
0
0
0
0
0
0
0
0
0
0
0
0
0
0
0
167
107
107
167
107
107
167
107
107
167
107
107
167
107
107
167
107
107
167
107
107
167
107
107
167
107
107
167
107
107
167
107
107
167
107
107
167
107
107
167
107
107
167
107
107
167
107
107
167
107
107
167
107
107
167
107
107
167
107
107
167
107
107
167
107
107
167
107
107
167
107
107
167
107
107
167
107
107
167
107
107
167
107
107
167
107
107
167
107
107
167
107
107
167
107
107
167
107
107
167
107
107
167
107
107
167
107
107
167
107
107
167
107
107
167
107
107
167
107
107
167
107
107
167
107
107
167
107
107
167
107
107
167
107
107
167
107
107
167
107
107
167
107
107
167
107
107
167
107
107
167
107
107
167
107
107
167
107
107
167
107
107
167
107
107
167
107
107
167
107
107
167
107
107
167
107
107
167
107
107
167
107
107
167
107
107
167
107
107
167
107
107
67
51
27
0
0
0
0
0
0
0
0
0
0
0
0
0
0
0
0
0
0
0
0
0
167
107
107
167
107
107
167
107
107
167
107
107
167
107
107
167
107
107
167
107
107
167
107
107
167
107
107
167
107
107
167
107
107
167
107
107
167
107
107
167
107
107
167
107
107
167
107
107
167
107
107
167
107
107
167
107
107
167
107
107
167
107
107
167
107
107
167
107
107
167
107
107
167
107
107
167
107
107
167
107
107
167
107
107
167
107
107
103
83
51
63
47
23
75
55
27
167
107
107
167
107
107
167
107
107
167
107
107
167
107
107
167
107
107
167
107
107
167
107
107
167
107
107
167
107
107
167
107
107
167
107
107
167
107
107
167
107
107
167
107
107
167
107
107
167
107
107
167
107
107
167
107
107
167
107
107
167
107
107
167
107
107
167
107
107
167
107
107
167
107
107
167
107
107
167
107
107
167
107
107
167
107
107
167
107
107
167
107
107
167
107
107
67
51
27
0
0
0
0
0
0
0
0
0
0
0
0
0
0
0
0
0
0
0
0
0
67
51
27
0
0
0
0
0
0
0
0
0
0
0
0
0
0
0
0
0
0
0
0
0
0
0
0
0
0
0
0
0
0
0
0
0
0
0
0
0
0
0
0
0
0
0
0
0
75
55
27
255
127
27
255
127
27
255
127
27
255
235
223
255
255
255
255
127
27
255
127
27
75
55
27
255
127
27
255
127
27
255
127
27
255
127
27
255
235
223
255
235
223
255
127
27
167
107
107
167
107
107
167
107
107
167
107
107
167
107
107
167
107
107
167
107
107
167
107
107
167
107
107
167
107
107
167
107
107
167
107
107
167
107
107
167
107
107
167
107
107
167
107
107
167
107
107
167
107
107
167
107
107
167
107
107
167
107
107
167
107
107
167
107
107
43
35
15
63
47
23
83
63
31
75
55
27
63
47
23
47
47
47
39
39
39
63
47
23
63
47
23
75
55
27
0
0
0
43
35
15
83
63
31
75
55
27
63
47
23
47
47
47
39
39
39
63
47
23
63
47
23
75
55
27
31
23
11
43
35
15
167
107
107
167
107
107
167
107
107
167
107
107
167
107
107
167
107
107
167
107
107
167
107
107
167
107
107
167
107
107
167
107
107
167
107
107
167
107
107
167
107
107
167
107
107
167
107
107
167
107
107
167
107
107
167
107
107
67
51
27
0
0
0
0
0
0
0
0
0
0
0
0
0
0
0
0
0
0
0
0
0
167
107
107
167
107
107
167
107
107
167
107
107
167
107
107
167
107
107
167
107
107
167
107
107
167
107
107
167
107
107
167
107
107
167
107
107
167
107
107
167
107
107
167
107
107
167
107
107
167
107
107
167
107
107
167
107
107
167
107
107
167
107
107
167
107
107
167
107
107
167
107
107
167
107
107
167
107
107
167
107
107
167
107
107
167
107
107
167
107
107
167
107
107
167
107
107
167
107
107
167
107
107
167
107
107
167
107
107
167
107
107
167
107
107
167
107
107
167
107
107
167
107
107
167
107
107
167
107
107
167
107
107
167
107
107
167
107
107
167
107
107
167
107
107
167
107
107
167
107
107
167
107
107
167
107
107
167
107
107
167
107
107
167
107
107
167
107
107
167
107
107
167
107
107
167
107
107
167
107
107
167
107
107
167
107
107
167
107
107
167
107
107
67
51
27
0
0
0
0
0
0
0
0
0
0
0
0
0
0
0
0
0
0
0
0
0
167
107
107
167
107
107
167
107
107
167
107
107
167
107
107
167
107
107
167
107
107
167
107
107
167
107
107
167
107
107
167
107
107
167
107
107
167
107
107
167
107
107
167
107
107
167
107
107
167
107
107
167
107
107
167
107
107
167
107
107
167
107
107
167
107
107
167
107
107
167
107
107
167
107
107
167
107
107
167
107
107
167
107
107
167
107
107
167
107
107
167
107
107
167
107
107
167
107
107
167
107
107
167
107
107
167
107
107
167
107
107
167
107
107
167
107
107
167
107
107
167
107
107
167
107
107
167
107
107
167
107
107
167
107
107
167
107
107
167
107
107
167
107
107
167
107
107
167
107
107
167
107
107
167
107
107
167
107
107
167
107
107
167
107
107
167
107
107
167
107
107
167
107
107
167
107
107
167
107
107
167
107
107
167
107
107
167
107
107
167
107
107
67
51
27
0
0
0
0
0
0
0
0
0
0
0
0
0
0
0
0
0
0
0
0
0
167
107
107
167
107
107
167
107
107
167
107
107
167
107
107
167
107
107
167
107
107
167
107
107
167
107
107
167
107
107
167
107
107
167
107
107
167
107
107
167
107
107
167
107
107
167
107
107
167
107
107
167
107
107
167
107
107
167
107
107
167
107
107
167
107
107
167
107
107
167
107
107
167
107
107
167
107
107
167
107
107
167
107
107
167
107
107
103
83
51
63
47
23
75
55
27
167
107
107
167
107
107
167
107
107
167
107
107
167
107
107
167
107
107
167
107
107
167
107
107
167
107
107
167
107
107
167
107
107
167
107
107
167
107
107
167
107
107
167
107
107
167
107
107
167
107
107
167
107
107
167
107
107
167
107
107
167
107
107
167
107
107
167
107
107
167
107
107
167
107
107
167
107
107
167
107
107
167
107
107
167
107
107
167
107
107
167
107
107
167
107
107
67
51
27
0
0
0
0
0
0
0
0
0
0
0
0
0
0
0
0
0
0
0
0
0
67
51
27
0
0
0
0
0
0
0
0
0
0
0
0
0
0
0
0
0
0
0
0
0
0
0
0
0
0
0
0
0
0
0
0
0
0
0
0
0
0
0
0
0
0
0
0
0
75
55
27
255
127
27
255
127
27
255
127
27
255
235
223
255
255
255
255
127
27
255
127
27
75
55
27
255
235
223
255
235
223
255
127
27
255
127
27
255
235
223
255
235
223
255
127
27
167
107
107
167
107
107
167
107
107
167
107
107
167
107
107
167
107
107
167
107
107
167
107
107
167
107
107
167
107
107
167
107
107
167
107
107
167
107
107
167
107
107
167
107
107
167
107
107
167
107
107
167
107
107
167
107
107
167
107
107
167
107
107
167
107
107
167
107
107
43
35
15
63
47
23
83
63
31
83
63
31
75
55
27
75
55
27
63
47
23
63
47
23
63
47
23
75
55
27
0
0
0
43
35
15
83
63
31
83
63
31
75
55
27
75
55
27
51
43
19
63
47
23
63
47
23
75
55
27
31
23
11
43
35
15
167
107
107
167
107
107
167
107
107
167
107
107
167
107
107
167
107
107
167
107
107
167
107
107
167
107
107
167
107
107
167
107
107
167
107
107
167
107
107
167
107
107
167
107
107
167
107
107
167
107
107
167
107
107
167
107
107
67
51
27
0
0
0
0
0
0
0
0
0
0
0
0
0
0
0
0
0
0
0
0
0
167
107
107
167
107
107
167
107
107
167
107
107
167
107
107
167
107
107
167
107
107
167
107
107
167
107
107
167
107
107
167
107
107
167
107
107
167
107
107
167
107
107
167
107
107
167
107
107
167
107
107
167
107
107
167
107
107
167
107
107
167
107
107
167
107
107
167
107
107
167
107
107
167
107
107
167
107
107
167
107
107
167
107
107
167
107
107
167
107
107
167
107
107
167
107
107
167
107
107
167
107
107
167
107
107
167
107
107
167
107
107
167
107
107
167
107
107
167
107
107
167
107
107
167
107
107
167
107
107
167
107
107
167
107
107
167
107
107
167
107
107
167
107
107
167
107
107
167
107
107
167
107
107
167
107
107
167
107
107
167
107
107
167
107
107
167
107
107
167
107
107
167
107
107
167
107
107
167
107
107
167
107
107
167
107
107
167
107
107
167
107
107
67
51
27
0
0
0
0
0
0
0
0
0
0
0
0
0
0
0
0
0
0
0
0
0
167
107
107
167
107
107
167
107
107
167
107
107
167
107
107
167
107
107
167
107
107
167
107
107
167
107
107
167
107
107
167
107
107
167
107
107
167
107
107
167
107
107
167
107
107
167
107
107
167
107
107
167
107
107
167
107
107
167
107
107
167
107
107
167
107
107
167
107
107
167
107
107
167
107
107
167
107
107
167
107
107
167
107
107
167
107
107
167
107
107
167
107
107
167
107
107
167
107
107
167
107
107
167
107
107
167
107
107
167
107
107
167
107
107
167
107
107
167
107
107
167
107
107
167
107
107
167
107
107
167
107
107
167
107
107
167
107
107
167
107
107
167
107
107
167
107
107
167
107
107
167
107
107
167
107
107
167
107
107
167
107
107
167
107
107
167
107
107
167
107
107
167
107
107
167
107
107
167
107
107
167
107
107
167
107
107
167
107
107
167
107
107
67
51
27
0
0
0
0
0
0
0
0
0
0
0
0
0
0
0
0
0
0
0
0
0
167
107
107
167
107
107
167
107
107
167
107
107
167
107
107
167
107
107
167
107
107
167
107
107
167
107
107
167
107
107
167
107
107
167
107
107
167
107
107
167
107
107
167
107
107
167
107
107
167
107
107
167
107
107
167
107
107
167
107
107
167
107
107
167
107
107
167
107
107
167
107
107
167
107
107
167
107
107
167
107
107
167
107
107
167
107
107
103
83
51
63
47
23
75
55
27
167
107
107
167
107
107
167
107
107
167
107
107
167
107
107
167
107
107
167
107
107
167
107
107
167
107
107
167
107
107
167
107
107
167
107
107
167
107
107
167
107
107
167
107
107
167
107
107
167
107
107
167
107
107
167
107
107
167
107
107
167
107
107
167
107
107
167
107
107
167
107
107
167
107
107
167
107
107
167
107
107
167
107
107
167
107
107
167
107
107
167
107
107
167
107
107
67
51
27
0
0
0
0
0
0
0
0
0
0
0
0
0
0
0
0
0
0
0
0
0
67
51
27
0
0
0
0
0
0
0
0
0
0
0
0
0
0
0
0
0
0
0
0
0
0
0
0
163
107
63
163
107
63
163
107
63
163
107
63
163
107
63
0
0
0
163
107
63
75
55
27
255
127
27
255
127
27
255
255
255
255
255
255
255
255
255
255
255
255
255
127
27
75
55
27
255
127
27
255
235
223
255
235
223
255
235
223
255
235
223
255
127
27
255
127
27
167
107
107
167
107
107
167
107
107
167
107
107
167
107
107
167
107
107
167
107
107
167
107
107
167
107
107
167
107
107
167
107
107
167
107
107
167
107
107
167
107
107
167
107
107
167
107
107
167
107
107
167
107
107
167
107
107
167
107
107
167
107
107
167
107
107
167
107
107
43
35
15
63
47
23
43
35
15
43
35
15
43
35
15
43
35
15
43
35
15
43
35
15
43
35
15
63
47
23
0
0
0
43
35
15
43
35
15
43
35
15
43
35
15
43
35
15
43
35
15
43
35
15
43
35
15
63
47
23
0
0
0
43
35
15
167
107
107
167
107
107
167
107
107
167
107
107
167
107
107
167
107
107
167
107
107
167
107
107
167
107
107
167
107
107
167
107
107
167
107
107
167
107
107
167
107
107
167
107
107
167
107
107
167
107
107
167
107
107
167
107
107
67
51
27
0
0
0
0
0
0
0
0
0
0
0
0
0
0
0
0
0
0
0
0
0
167
107
107
167
107
107
167
107
107
167
107
107
167
107
107
167
107
107
167
107
107
167
107
107
167
107
107
167
107
107
167
107
107
167
107
107
167
107
107
167
107
107
167
107
107
167
107
107
167
107
107
167
107
107
167
107
107
167
107
107
167
107
107
167
107
107
167
107
107
167
107
107
167
107
107
167
107
107
167
107
107
167
107
107
167
107
107
167
107
107
167
107
107
167
107
107
167
107
107
167
107
107
167
107
107
167
107
107
167
107
107
167
107
107
167
107
107
167
107
107
167
107
107
167
107
107
167
107
107
167
107
107
167
107
107
167
107
107
167
107
107
167
107
107
167
107
107
167
107
107
167
107
107
167
107
107
167
107
107
167
107
107
167
107
107
167
107
107
167
107
107
167
107
107
167
107
107
167
107
107
167
107
107
167
107
107
167
107
107
167
107
107
67
51
27
0
0
0
0
0
0
0
0
0
0
0
0
0
0
0
0
0
0
0
0
0
167
107
107
167
107
107
167
107
107
167
107
107
167
107
107
167
107
107
167
107
107
167
107
107
167
107
107
167
107
107
167
107
107
167
107
107
167
107
107
167
107
107
167
107
107
167
107
107
167
107
107
167
107
107
167
107
107
167
107
107
167
107
107
167
107
107
167
107
107
167
107
107
167
107
107
167
107
107
167
107
107
167
107
107
167
107
107
167
107
107
167
107
107
167
107
107
167
107
107
167
107
107
167
107
107
167
107
107
167
107
107
167
107
107
167
107
107
167
107
107
167
107
107
167
107
107
167
107
107
167
107
107
167
107
107
167
107
107
167
107
107
167
107
107
167
107
107
167
107
107
167
107
107
167
107
107
167
107
107
167
107
107
167
107
107
167
107
107
167
107
107
167
107
107
167
107
107
167
107
107
167
107
107
167
107
107
167
107
107
167
107
107
67
51
27
0
0
0
0
0
0
0
0
0
0
0
0
0
0
0
0
0
0
0
0
0
167
107
107
167
107
107
167
107
107
167
107
107
167
107
107
167
107
107
167
107
107
167
107
107
167
107
107
167
107
107
167
107
107
167
107
107
167
107
107
167
107
107
167
107
107
167
107
107
167
107
107
167
107
107
167
107
107
167
107
107
167
107
107
167
107
107
167
107
107
167
107
107
167
107
107
167
107
107
167
107
107
167
107
107
167
107
107
103
83
51
63
47
23
75
55
27
167
107
107
167
107
107
167
107
107
167
107
107
167
107
107
167
107
107
167
107
107
167
107
107
167
107
107
167
107
107
167
107
107
167
107
107
167
107
107
167
107
107
167
107
107
167
107
107
167
107
107
167
107
107
167
107
107
167
107
107
167
107
107
167
107
107
167
107
107
167
107
107
167
107
107
167
107
107
167
107
107
167
107
107
167
107
107
167
107
107
167
107
107
167
107
107
67
51
27
0
0
0
0
0
0
0
0
0
0
0
0
0
0
0
0
0
0
0
0
0
67
51
27
0
0
0
0
0
0
0
0
0
0
0
0
0
0
0
0
0
0
0
0
0
0
0
0
163
107
63
163
107
63
163
107
63
163
107
63
163
107
63
0
0
0
163
107
63
75
55
27
75
55
27
75
55
27
75
55
27
67
51
27
67
51
27
67
51
27
67
51
27
75
55
27
75
55
27
75
55
27
75
55
27
67
51
27
67
51
27
67
51
27
67
51
27
167
107
107
167
107
107
167
107
107
167
107
107
167
107
107
167
107
107
167
107
107
167
107
107
167
107
107
167
107
107
167
107
107
167
107
107
167
107
107
167
107
107
167
107
107
167
107
107
167
107
107
167
107
107
167
107
107
167
107
107
167
107
107
167
107
107
167
107
107
43
35
15
43
35
15
0
0
0
31
23
11
43
35
15
51
43
19
51
43
19
43
35
15
31
23
11
0
0
0
31
23
11
0
0
0
31
23
11
43
35
15
51
43
19
51
43
19
51
43
19
43
35
15
31
23
11
0
0
0
23
15
7
43
35
15
167
107
107
167
107
107
167
107
107
167
107
107
167
107
107
167
107
107
167
107
107
167
107
107
167
107
107
167
107
107
167
107
107
167
107
107
167
107
107
167
107
107
167
107
107
167
107
107
167
107
107
167
107
107
167
107
107
67
51
27
67
51
27
67
51
27
67
51
27
67
51
27
67
51
27
67
51
27
67
51
27
167
107
107
167
107
107
167
107
107
167
107
107
167
107
107
167
107
107
167
107
107
167
107
107
167
107
107
167
107
107
167
107
107
167
107
107
167
107
107
167
107
107
167
107
107
167
107
107
167
107
107
167
107
107
167
107
107
167
107
107
167
107
107
167
107
107
167
107
107
167
107
107
167
107
107
167
107
107
167
107
107
167
107
107
167
107
107
167
107
107
167
107
107
167
107
107
167
107
107
167
107
107
167
107
107
167
107
107
167
107
107
167
107
107
167
107
107
167
107
107
167
107
107
167
107
107
167
107
107
167
107
107
167
107
107
167
107
107
167
107
107
167
107
107
167
107
107
167
107
107
167
107
107
167
107
107
167
107
107
167
107
107
167
107
107
167
107
107
167
107
107
167
107
107
167
107
107
167
107
107
167
107
107
167
107
107
167
107
107
167
107
107
67
51
27
67
51
27
67
51
27
67
51
27
67
51
27
67
51
27
67
51
27
67
51
27
167
107
107
167
107
107
167
107
107
167
107
107
167
107
107
167
107
107
167
107
107
167
107
107
167
107
107
167
107
107
167
107
107
167
107
107
167
107
107
167
107
107
167
107
107
167
107
107
167
107
107
167
107
107
167
107
107
167
107
107
167
107
107
167
107
107
167
107
107
167
107
107
167
107
107
167
107
107
167
107
107
167
107
107
167
107
107
167
107
107
167
107
107
167
107
107
167
107
107
167
107
107
167
107
107
167
107
107
167
107
107
167
107
107
167
107
107
167
107
107
167
107
107
167
107
107
167
107
107
167
107
107
167
107
107
167
107
107
167
107
107
167
107
107
167
107
107
167
107
107
167
107
107
167
107
107
167
107
107
167
107
107
167
107
107
167
107
107
167
107
107
167
107
107
167
107
107
167
107
107
167
107
107
167
107
107
167
107
107
167
107
107
67
51
27
67
51
27
67
51
27
67
51
27
67
51
27
67
51
27
67
51
27
67
51
27
167
107
107
167
107
107
167
107
107
167
107
107
167
107
107
167
107
107
167
107
107
167
107
107
167
107
107
167
107
107
167
107
107
167
107
107
167
107
107
167
107
107
167
107
107
167
107
107
167
107
107
167
107
107
167
107
107
167
107
107
167
107
107
167
107
107
167
107
107
167
107
107
167
107
107
167
107
107
167
107
107
167
107
107
167
107
107
103
83
51
63
47
23
67
51
27
167
107
107
167
107
107
167
107
107
167
107
107
167
107
107
167
107
107
167
107
107
167
107
107
167
107
107
167
107
107
167
107
107
167
107
107
167
107
107
167
107
107
167
107
107
167
107
107
167
107
107
167
107
107
167
107
107
167
107
107
167
107
107
167
107
107
167
107
107
167
107
107
167
107
107
167
107
107
167
107
107
167
107
107
167
107
107
167
107
107
167
107
107
167
107
107
67
51
27
67
51
27
67
51
27
67
51
27
67
51
27
67
51
27
67
51
27
67
51
27
67
51
27
67
51
27
67
51
27
67
51
27
67
51
27
67
51
27
67
51
27
67
51
27
0
0
0
0
0
0
0
0
0
0
0
0
0
0
0
0
0
0
0
0
0
0
0
0
75
55
27
255
127
27
255
127
27
255
127
27
255
235
223
255
255
255
255
127
27
255
127
27
75
55
27
255
127
27
255
235
223
255
235
223
255
235
223
255
235
223
255
127
27
255
127
27
167
107
107
167
107
107
167
107
107
167
107
107
167
107
107
167
107
107
167
107
107
167
107
107
167
107
107
167
107
107
167
107
107
167
107
107
167
107
107
167
107
107
167
107
107
167
107
107
167
107
107
167
107
107
167
107
107
167
107
107
167
107
107
167
107
107
167
107
107
43
35
15
23
15
7
23
15
7
0
0
0
0
0
0
0
0
0
0
0
0
0
0
0
31
23
11
43
35
15
43
35
15
43
35
15
31
23
11
0
0
0
0
0
0
0
0
0
0
0
0
0
0
0
0
0
0
23
15
7
23
15
7
43
35
15
167
107
107
167
107
107
167
107
107
167
107
107
167
107
107
167
107
107
167
107
107
167
107
107
167
107
107
167
107
107
167
107
107
167
107
107
167
107
107
167
107
107
167
107
107
167
107
107
167
107
107
167
107
107
167
107
107
67
51
27
0
0
0
0
0
0
0
0
0
0
0
0
0
0
0
0
0
0
0
0
0
167
107
107
167
107
107
167
107
107
167
107
107
167
107
107
167
107
107
167
107
107
167
107
107
167
107
107
167
107
107
167
107
107
167
107
107
167
107
107
167
107
107
167
107
107
167
107
107
167
107
107
167
107
107
167
107
107
167
107
107
167
107
107
167
107
107
167
107
107
167
107
107
167
107
107
167
107
107
167
107
107
167
107
107
167
107
107
167
107
107
167
107
107
167
107
107
167
107
107
167
107
107
167
107
107
167
107
107
167
107
107
167
107
107
167
107
107
167
107
107
167
107
107
167
107
107
167
107
107
167
107
107
167
107
107
167
107
107
167
107
107
167
107
107
167
107
107
167
107
107
167
107
107
167
107
107
167
107
107
167
107
107
167
107
107
167
107
107
167
107
107
167
107
107
167
107
107
167
107
107
167
107
107
167
107
107
167
107
107
167
107
107
67
51
27
0
0
0
0
0
0
0
0
0
0
0
0
0
0
0
0
0
0
0
0
0
167
107
107
167
107
107
167
107
107
167
107
107
167
107
107
167
107
107
167
107
107
167
107
107
167
107
107
167
107
107
167
107
107
167
107
107
167
107
107
167
107
107
167
107
107
167
107
107
167
107
107
167
107
107
167
107
107
167
107
107
167
107
107
167
107
107
167
107
107
167
107
107
167
107
107
167
107
107
167
107
107
167
107
107
167
107
107
167
107
107
167
107
107
167
107
107
167
107
107
167
107
107
167
107
107
167
107
107
167
107
107
167
107
107
167
107
107
167
107
107
167
107
107
167
107
107
167
107
107
167
107
107
167
107
107
167
107
107
167
107
107
167
107
107
167
107
107
167
107
107
167
107
107
167
107
107
167
107
107
167
107
107
167
107
107
167
107
107
167
107
107
167
107
107
167
107
107
167
107
107
167
107
107
167
107
107
167
107
107
167
107
107
67
51
27
0
0
0
0
0
0
0
0
0
0
0
0
0
0
0
0
0
0
0
0
0
167
107
107
167
107
107
167
107
107
167
107
107
167
107
107
167
107
107
167
107
107
167
107
107
167
107
107
167
107
107
167
107
107
167
107
107
167
107
107
167
107
107
167
107
107
167
107
107
167
107
107
167
107
107
167
107
107
167
107
107
167
107
107
167
107
107
167
107
107
167
107
107
167
107
107
167
107
107
167
107
107
167
107
107
167
107
107
103
83
51
63
47
23
67
51
27
167
107
107
167
107
107
167
107
107
167
107
107
167
107
107
167
107
107
167
107
107
167
107
107
167
107
107
167
107
107
167
107
107
167
107
107
167
107
107
167
107
107
167
107
107
167
107
107
167
107
107
167
107
107
167
107
107
167
107
107
167
107
107
167
107
107
167
107
107
167
107
107
167
107
107
167
107
107
167
107
107
167
107
107
167
107
107
167
107
107
167
107
107
167
107
107
67
51
27
0
0
0
0
0
0
0
0
0
0
0
0
0
0
0
0
0
0
0
0
0
67
51
27
0
0
0
0
0
0
0
0
0
0
0
0
0
0
0
0
0
0
0
0
0
0
0
0
0
0
0
0
0
0
0
0
0
0
0
0
0
0
0
0
0
0
0
0
0
75
55
27
255
127
27
255
127
27
255
255
255
255
235
223
255
255
255
255
127
27
255
127
27
75
55
27
255
235
223
255
235
223
255
127
27
255
127
27
255
235
223
255
235
223
255
127
27
167
107
107
167
107
107
167
107
107
167
107
107
167
107
107
167
107
107
167
107
107
167
107
107
167
107
107
167
107
107
167
107
107
167
107
107
167
107
107
167
107
107
167
107
107
167
107
107
167
107
107
167
107
107
167
107
107
167
107
107
167
107
107
167
107
107
167
107
107
27
27
27
43
35
15
51
43
19
51
43
19
51
43
19
51
43
19
51
43
19
51
43
19
51
43
19
51
43
19
51
43
19
51
43
19
51
43
19
51
43
19
51
43
19
51
43
19
51
43
19
51
43
19
51
43
19
51
43
19
43
35
15
27
27
27
167
107
107
167
107
107
167
107
107
167
107
107
167
107
107
167
107
107
167
107
107
167
107
107
167
107
107
167
107
107
167
107
107
167
107
107
167
107
107
167
107
107
167
107
107
167
107
107
167
107
107
167
107
107
167
107
107
67
51
27
0
0
0
0
0
0
0
0
0
0
0
0
0
0
0
0
0
0
0
0
0
167
107
107
167
107
107
167
107
107
167
107
107
167
107
107
167
107
107
167
107
107
167
107
107
167
107
107
167
107
107
167
107
107
167
107
107
167
107
107
167
107
107
167
107
107
167
107
107
167
107
107
167
107
107
167
107
107
167
107
107
167
107
107
167
107
107
167
107
107
167
107
107
167
107
107
167
107
107
167
107
107
167
107
107
167
107
107
167
107
107
167
107
107
167
107
107
167
107
107
167
107
107
167
107
107
167
107
107
167
107
107
167
107
107
167
107
107
167
107
107
167
107
107
167
107
107
167
107
107
167
107
107
167
107
107
167
107
107
167
107
107
167
107
107
167
107
107
167
107
107
167
107
107
167
107
107
167
107
107
167
107
107
167
107
107
167
107
107
167
107
107
167
107
107
167
107
107
167
107
107
167
107
107
167
107
107
167
107
107
167
107
107
67
51
27
0
0
0
0
0
0
0
0
0
0
0
0
0
0
0
0
0
0
0
0
0
167
107
107
167
107
107
167
107
107
167
107
107
167
107
107
167
107
107
167
107
107
167
107
107
167
107
107
167
107
107
167
107
107
167
107
107
167
107
107
167
107
107
167
107
107
167
107
107
167
107
107
167
107
107
167
107
107
167
107
107
167
107
107
167
107
107
167
107
107
167
107
107
167
107
107
167
107
107
167
107
107
167
107
107
167
107
107
167
107
107
167
107
107
167
107
107
167
107
107
167
107
107
167
107
107
0
0
227
0
0
227
0
0
227
0
0
227
0
0
227
0
0
227
0
0
227
0
0
227
0
0
227
0
0
227
0
0
227
0
0
227
0
0
227
0
0
227
0
0
227
0
0
227
0
0
227
0
0
227
0
0
227
167
107
107
167
107
107
167
107
107
167
107
107
167
107
107
167
107
107
167
107
107
167
107
107
167
107
107
167
107
107
67
51
27
0
0
0
0
0
0
0
0
0
0
0
0
0
0
0
0
0
0
0
0
0
167
107
107
167
107
107
167
107
107
167
107
107
167
107
107
167
107
107
167
107
107
167
107
107
167
107
107
167
107
107
167
107
107
167
107
107
167
107
107
167
107
107
167
107
107
167
107
107
167
107
107
167
107
107
167
107
107
167
107
107
167
107
107
167
107
107
167
107
107
167
107
107
167
107
107
35
35
35
35
35
35
27
27
27
27
27
27
91
71
43
63
47
23
67
51
27
0
0
0
0
0
0
0
0
0
0
0
0
167
107
107
167
107
107
167
107
107
167
107
107
167
107
107
167
107
107
167
107
107
167
107
107
167
107
107
167
107
107
167
107
107
167
107
107
167
107
107
167
107
107
167
107
107
167
107
107
167
107
107
167
107
107
167
107
107
167
107
107
167
107
107
167
107
107
167
107
107
167
107
107
167
107
107
167
107
107
167
107
107
167
107
107
67
51
27
0
0
0
0
0
0
0
0
0
0
0
0
0
0
0
0
0
0
0
0
0
67
51
27
0
0
0
0
0
0
0
0
0
0
0
0
0
0
0
0
0
0
0
0
0
0
0
0
0
0
0
0
0
0
0
0
0
0
0
0
163
107
63
0
0
0
0
0
0
75
55
27
255
127
27
255
127
27
255
127
27
255
235
223
255
255
255
255
127
27
255
127
27
75
55
27
255
235
223
255
235
223
255
127
27
255
127
27
255
127
27
255
127
27
255
127
27
167
107
107
167
107
107
167
107
107
167
107
107
167
107
107
167
107
107
167
107
107
167
107
107
167
107
107
167
107
107
167
107
107
167
107
107
167
107
107
167
107
107
167
107
107
167
107
107
167
107
107
167
107
107
167
107
107
167
107
107
167
107
107
167
107
107
167
107
107
23
15
7
51
43
19
75
55
27
75
55
27
75
55
27
75
55
27
75
55
27
75
55
27
75
55
27
75
55
27
75
55
27
75
55
27
75
55
27
75
55
27
75
55
27
75
55
27
75
55
27
75
55
27
75
55
27
75
55
27
51
43
19
23
15
7
167
107
107
167
107
107
167
107
107
167
107
107
167
107
107
167
107
107
167
107
107
167
107
107
167
107
107
167
107
107
167
107
107
167
107
107
167
107
107
167
107
107
167
107
107
167
107
107
167
107
107
167
107
107
167
107
107
67
51
27
0
0
0
0
0
0
0
0
0
0
0
0
0
0
0
0
0
0
0
0
0
167
107
107
167
107
107
167
107
107
167
107
107
167
107
107
167
107
107
167
107
107
167
107
107
167
107
107
167
107
107
167
107
107
167
107
107
167
107
107
167
107
107
167
107
107
167
107
107
167
107
107
167
107
107
167
107
107
167
107
107
167
107
107
167
107
107
167
107
107
167
107
107
167
107
107
167
107
107
167
107
107
167
107
107
167
107
107
167
107
107
167
107
107
167
107
107
167
107
107
167
107
107
167
107
107
167
107
107
167
107
107
167
107
107
167
107
107
167
107
107
167
107
107
167
107
107
167
107
107
167
107
107
167
107
107
167
107
107
167
107
107
167
107
107
167
107
107
167
107
107
167
107
107
167
107
107
167
107
107
167
107
107
167
107
107
167
107
107
167
107
107
167
107
107
167
107
107
167
107
107
167
107
107
167
107
107
167
107
107
167
107
107
67
51
27
0
0
0
0
0
0
0
0
0
0
0
0
0
0
0
0
0
0
0
0
0
167
107
107
167
107
107
167
107
107
167
107
107
167
107
107
167
107
107
167
107
107
167
107
107
167
107
107
167
107
107
167
107
107
167
107
107
167
107
107
167
107
107
167
107
107
0
0
255
0
0
255
0
0
227
0
0
227
0
0
227
0
0
227
0
0
227
0
0
227
0
0
227
0
0
227
0
0
227
0
0
227
0
0
227
0
0
227
0
0
227
0
0
227
0
0
227
0
0
227
0
0
227
0
0
227
0
0
227
0
0
227
0
0
227
0
0
227
0
0
227
0
0
227
0
0
227
0
0
227
0
0
227
0
0
203
0
0
203
0
0
203
0
0
203
0
0
203
0
0
255
0
0
255
0
0
255
0
0
227
0
0
203
0
0
131
167
107
107
167
107
107
167
107
107
167
107
107
167
107
107
167
107
107
167
107
107
167
107
107
167
107
107
67
51
27
0
0
0
0
0
0
0
0
0
0
0
0
0
0
0
0
0
0
0
0
0
167
107
107
167
107
107
167
107
107
167
107
107
167
107
107
167
107
107
167
107
107
167
107
107
167
107
107
167
107
107
167
107
107
167
107
107
167
107
107
167
107
107
167
107
107
167
107
107
167
107
107
167
107
107
167
107
107
167
107
107
167
107
107
167
107
107
55
55
55
47
47
47
47
47
47
39
39
39
39
39
39
35
35
35
0
0
0
79
59
35
51
43
19
51
43
19
0
0
0
11
11
11
11
11
11
11
11
11
11
11
11
27
27
27
27
27
27
167
107
107
167
107
107
167
107
107
167
107
107
167
107
107
167
107
107
167
107
107
167
107
107
167
107
107
167
107
107
167
107
107
167
107
107
167
107
107
167
107
107
167
107
107
167
107
107
167
107
107
167
107
107
167
107
107
167
107
107
167
107
107
167
107
107
167
107
107
167
107
107
167
107
107
67
51
27
0
0
0
0
0
0
0
0
0
0
0
0
0
0
0
0
0
0
0
0
0
67
51
27
0
0
0
0
0
0
0
0
0
0
0
0
0
0
0
0
0
0
0
0
0
0
0
0
0
0
0
163
107
63
163
107
63
163
107
63
163
107
63
163
107
63
163
107
63
75
55
27
255
127
27
255
127
27
255
127
27
255
235
223
255
255
255
255
127
27
255
127
27
75
55
27
255
235
223
255
235
223
255
235
223
255
235
223
255
235
223
255
127
27
255
127
27
167
107
107
167
107
107
167
107
107
167
107
107
167
107
107
167
107
107
167
107
107
167
107
107
167
107
107
167
107
107
167
107
107
167
107
107
167
107
107
167
107
107
167
107
107
167
107
107
167
107
107
167
107
107
167
107
107
167
107
107
167
107
107
167
107
107
167
107
107
23
15
7
23
15
7
27
27
27
51
43
19
51
43
19
51
43
19
51
43
19
51
43
19
51
43
19
51
43
19
51
43
19
51
43
19
51
43
19
51
43
19
51
43
19
51
43
19
51
43
19
51
43
19
51
43
19
27
27
27
23
15
7
23
15
7
167
107
107
167
107
107
167
107
107
167
107
107
167
107
107
167
107
107
167
107
107
167
107
107
167
107
107
167
107
107
167
107
107
167
107
107
167
107
107
167
107
107
167
107
107
167
107
107
167
107
107
167
107
107
167
107
107
67
51
27
0
0
0
0
0
0
0
0
0
0
0
0
0
0
0
0
0
0
0
0
0
167
107
107
167
107
107
167
107
107
167
107
107
167
107
107
167
107
107
167
107
107
167
107
107
167
107
107
167
107
107
167
107
107
167
107
107
167
107
107
167
107
107
167
107
107
167
107
107
167
107
107
167
107
107
167
107
107
167
107
107
167
107
107
167
107
107
167
107
107
167
107
107
167
107
107
167
107
107
167
107
107
167
107
107
167
107
107
167
107
107
167
107
107
167
107
107
167
107
107
167
107
107
167
107
107
167
107
107
167
107
107
167
107
107
167
107
107
167
107
107
167
107
107
167
107
107
167
107
107
167
107
107
167
107
107
167
107
107
167
107
107
167
107
107
167
107
107
167
107
107
167
107
107
167
107
107
167
107
107
167
107
107
167
107
107
167
107
107
167
107
107
167
107
107
167
107
107
167
107
107
167
107
107
167
107
107
167
107
107
167
107
107
67
51
27
0
0
0
0
0
0
0
0
0
0
0
0
0
0
0
0
0
0
0
0
0
167
107
107
167
107
107
167
107
107
167
107
107
167
107
107
167
107
107
167
107
107
167
107
107
167
107
107
55
55
255
55
55
255
55
55
255
0
0
255
0
0
227
0
0
227
0
0
227
0
0
203
0
0
203
0
0
203
0
0
203
0
0
203
0
0
203
0
0
203
0
0
203
0
0
203
0
0
203
0
0
203
0
0
203
0
0
203
0
0
203
0
0
203
0
0
203
0
0
203
0
0
203
0
0
203
0
0
203
0
0
203
0
0
203
0
0
203
0
0
203
0
0
203
0
0
203
0
0
203
0
0
203
0
0
203
0
0
203
0
0
203
0
0
203
0
0
255
0
0
227
0
0
203
0
0
131
0
0
131
0
0
131
167
107
107
167
107
107
167
107
107
167
107
107
167
107
107
167
107
107
167
107
107
167
107
107
167
107
107
167
107
107
67
51
27
0
0
0
0
0
0
0
0
0
0
0
0
0
0
0
0
0
0
0
0
0
167
107
107
167
107
107
167
107
107
167
107
107
167
107
107
167
107
107
167
107
107
167
107
107
167
107
107
167
107
107
167
107
107
167
107
107
167
107
107
167
107
107
167
107
107
167
107
107
167
107
107
167
107
107
167
107
107
167
107
107
167
107
107
67
67
67
59
59
59
59
59
59
59
59
59
67
67
67
55
55
55
39
39
39
43
35
15
43
35
15
43
35
15
43
35
15
11
11
11
11
11
11
27
27
27
27
27
27
27
27
27
35
35
35
35
35
35
35
35
35
167
107
107
167
107
107
167
107
107
167
107
107
167
107
107
167
107
107
167
107
107
167
107
107
167
107
107
167
107
107
167
107
107
167
107
107
167
107
107
167
107
107
167
107
107
167
107
107
167
107
107
167
107
107
167
107
107
167
107
107
167
107
107
167
107
107
167
107
107
167
107
107
67
51
27
0
0
0
0
0
0
0
0
0
0
0
0
0
0
0
0
0
0
0
0
0
67
51
27
0
0
0
0
0
0
0
0
0
0
0
0
0
0
0
0
0
0
0
0
0
0
0
0
163
107
63
163
107
63
163
107
63
163
107
63
163
107
63
163
107
63
163
107
63
75
55
27
255
127
27
255
127
27
255
127
27
255
235
223
255
255
255
255
127
27
255
127
27
75
55
27
255
235
223
255
235
223
255
127
27
255
127
27
255
235
223
255
235
223
255
127
27
167
107
107
167
107
107
167
107
107
167
107
107
167
107
107
167
107
107
167
107
107
167
107
107
167
107
107
167
107
107
167
107
107
167
107
107
167
107
107
167
107
107
167
107
107
167
107
107
167
107
107
167
107
107
167
107
107
167
107
107
167
107
107
167
107
107
167
107
107
23
15
7
23
15
7
23
15
7
23
15
7
23
15
7
23
15
7
23
15
7
23
15
7
23
15
7
23
15
7
23
15
7
23
15
7
23
15
7
23
15
7
23
15
7
23
15
7
23
15
7
23
15
7
23
15
7
23
15
7
23
15
7
23
15
7
167
107
107
167
107
107
167
107
107
167
107
107
167
107
107
167
107
107
167
107
107
167
107
107
167
107
107
167
107
107
167
107
107
167
107
107
167
107
107
167
107
107
167
107
107
167
107
107
167
107
107
167
107
107
167
107
107
67
51
27
0
0
0
0
0
0
0
0
0
0
0
0
0
0
0
0
0
0
0
0
0
167
107
107
167
107
107
167
107
107
167
107
107
167
107
107
167
107
107
167
107
107
167
107
107
167
107
107
167
107
107
167
107
107
167
107
107
167
107
107
167
107
107
167
107
107
167
107
107
167
107
107
167
107
107
167
107
107
167
107
107
167
107
107
167
107
107
167
107
107
167
107
107
167
107
107
167
107
107
167
107
107
167
107
107
167
107
107
167
143
119
215
187
67
215
187
67
215
187
67
215
187
67
159
131
99
167
107
107
167
107
107
167
107
107
167
107
107
167
107
107
167
107
107
167
107
107
167
107
107
167
107
107
167
107
107
167
107
107
167
107
107
167
107
107
167
107
107
167
107
107
167
107
107
167
107
107
167
107
107
167
107
107
167
107
107
167
107
107
167
107
107
167
107
107
167
107
107
167
107
107
167
107
107
167
107
107
167
107
107
167
107
107
67
51
27
0
0
0
0
0
0
0
0
0
0
0
0
0
0
0
0
0
0
0
0
0
167
107
107
167
107
107
167
107
107
167
107
107
167
107
107
167
107
107
167
107
107
167
107
107
0
0
179
0
0
203
55
55
255
55
55
255
55
55
255
0
0
255
0
0
227
0
0
227
0
0
227
0
0
203
0
0
203
0
0
203
0
0
203
0
0
203
0
0
203
0
0
203
0
0
203
0
0
203
0
0
203
0
0
203
0
0
203
0
0
203
0
0
203
0
0
203
0
0
203
0
0
203
0
0
203
0
0
203
0
0
203
0
0
203
0
0
203
0
0
203
0
0
203
0
0
203
0
0
203
0
0
203
0
0
203
0
0
203
0
0
203
0
0
203
0
0
227
0
0
255
0
0
227
167
107
107
167
107
107
167
107
107
167
107
107
167
107
107
167
107
107
167
107
107
167
107
107
167
107
107
167
107
107
167
107
107
167
107
107
167
107
107
67
51
27
0
0
0
0
0
0
0
0
0
0
0
0
0
0
0
0
0
0
0
0
0
167
107
107
167
107
107
167
107
107
167
107
107
167
107
107
167
107
107
167
107
107
167
107
107
167
107
107
167
107
107
167
107
107
167
107
107
167
107
107
167
107
107
167
107
107
167
107
107
167
107
107
167
107
107
167
107
107
167
107
107
167
107
107
71
71
71
71
71
71
71
71
71
79
79
79
87
87
87
79
79
79
67
67
67
59
59
59
47
47
47
35
35
35
27
27
27
27
27
27
35
35
35
39
39
39
39
39
39
39
39
39
39
39
39
39
39
39
71
71
71
167
107
107
167
107
107
167
107
107
167
107
107
167
107
107
167
107
107
167
107
107
167
107
107
167
107
107
167
107
107
167
107
107
167
107
107
167
107
107
167
107
107
167
107
107
167
107
107
167
107
107
167
107
107
167
107
107
167
107
107
167
107
107
167
107
107
167
107
107
167
107
107
67
51
27
0
0
0
0
0
0
0
0
0
0
0
0
0
0
0
0
0
0
0
0
0
67
51
27
0
0
0
0
0
0
0
0
0
0
0
0
0
0
0
0
0
0
0
0
0
0
0
0
163
107
63
0
0
0
0
0
0
0
0
0
163
107
63
0
0
0
0
0
0
75
55
27
255
127
27
255
127
27
255
127
27
255
235
223
255
255
255
255
127
27
255
127
27
75
55
27
255
235
223
255
235
223
255
127
27
255
127
27
255
235
223
255
235
223
255
127
27
167
107
107
167
107
107
167
107
107
167
107
107
167
107
107
167
107
107
167
107
107
167
107
107
167
107
107
167
107
107
167
107
107
167
107
107
167
107
107
167
107
107
167
107
107
167
107
107
167
107
107
167
107
107
167
107
107
167
107
107
167
107
107
167
107
107
167
107
107
167
107
107
23
15
7
51
43
19
51
43
19
51
43
19
51
43
19
51
43
19
51
43
19
51
43
19
51
43
19
51
43
19
51
43
19
51
43
19
51
43
19
51
43
19
51
43
19
51
43
19
51
43
19
51
43
19
51
43
19
23
15
7
167
107
107
167
107
107
167
107
107
167
107
107
167
107
107
167
107
107
167
107
107
167
107
107
167
107
107
167
107
107
167
107
107
167
107
107
167
107
107
167
107
107
167
107
107
167
107
107
167
107
107
167
107
107
167
107
107
167
107
107
67
51
27
0
0
0
0
0
0
0
0
0
0
0
0
0
0
0
0
0
0
0
0
0
167
107
107
167
107
107
167
107
107
167
107
107
167
107
107
167
107
107
167
107
107
167
107
107
167
107
107
167
107
107
167
107
107
167
107
107
167
107
107
167
107
107
167
107
107
167
107
107
167
107
107
167
107
107
167
107
107
167
107
107
167
107
107
167
107
107
167
107
107
167
107
107
167
107
107
167
107
107
167
107
107
167
107
107
159
131
99
215
187
67
235
219
87
235
219
87
215
187
67
215
187
67
215
187
67
167
107
107
167
107
107
167
107
107
167
107
107
167
107
107
167
107
107
167
107
107
167
107
107
167
107
107
167
107
107
167
107
107
167
107
107
167
107
107
167
107
107
167
107
107
167
107
107
167
107
107
167
107
107
167
107
107
167
107
107
167
107
107
167
107
107
167
107
107
167
107
107
167
107
107
167
107
107
167
107
107
167
107
107
167
107
107
67
51
27
0
0
0
0
0
0
0
0
0
0
0
0
0
0
0
0
0
0
0
0
0
167
107
107
167
107
107
167
107
107
167
107
107
167
107
107
167
107
107
167
107
107
167
107
107
167
107
107
0
0
107
0
0
107
55
55
255
55
55
255
55
55
255
55
55
255
0
0
255
0
0
227
0
0
227
0
0
227
0
0
203
0
0
203
0
0
203
0
0
203
0
0
203
0
0
203
0
0
203
0
0
203
0
0
203
0
0
203
0
0
203
0
0
203
0
0
203
0
0
203
0
0
203
0
0
203
0
0
203
0
0
203
0
0
203
0
0
203
0
0
203
0
0
203
0
0
203
0
0
203
0
0
203
0
0
203
0
0
203
0
0
203
0
0
203
0
0
227
0
0
255
0
0
155
167
107
107
167
107
107
167
107
107
167
107
107
167
107
107
167
107
107
167
107
107
167
107
107
167
107
107
167
107
107
167
107
107
167
107
107
167
107
107
67
51
27
0
0
0
0
0
0
0
0
0
0
0
0
0
0
0
0
0
0
0
0
0
167
107
107
167
107
107
167
107
107
167
107
107
167
107
107
167
107
107
167
107
107
167
107
107
167
107
107
167
107
107
167
107
107
167
107
107
167
107
107
167
107
107
167
107
107
167
107
107
167
107
107
167
107
107
167
107
107
167
107
107
167
107
107
167
107
107
79
79
79
79
79
79
79
79
79
79
79
79
87
87
87
79
79
79
71
71
71
59
59
59
55
55
55
47
47
47
47
47
47
55
55
55
55
55
55
55
55
55
55
55
55
59
59
59
71
71
71
167
107
107
167
107
107
167
107
107
167
107
107
167
107
107
167
107
107
167
107
107
167
107
107
167
107
107
167
107
107
167
107
107
167
107
107
167
107
107
167
107
107
167
107
107
167
107
107
167
107
107
167
107
107
167
107
107
167
107
107
167
107
107
167
107
107
167
107
107
167
107
107
167
107
107
67
51
27
0
0
0
0
0
0
0
0
0
0
0
0
0
0
0
0
0
0
0
0
0
67
51
27
0
0
0
0
0
0
0
0
0
0
0
0
0
0
0
0
0
0
0
0
0
0
0
0
163
107
63
0
0
0
0
0
0
0
0
0
163
107
63
0
0
0
0
0
0
75
55
27
255
127
27
255
127
27
255
255
255
255
255
255
255
255
255
255
255
255
255
127
27
75
55
27
255
127
27
255
235
223
255
235
223
255
235
223
255
235
223
255
127
27
255
127
27
167
107
107
167
107
107
167
107
107
167
107
107
167
107
107
167
107
107
167
107
107
167
107
107
167
107
107
167
107
107
167
107
107
167
107
107
167
107
107
167
107
107
167
107
107
167
107
107
167
107
107
167
107
107
167
107
107
167
107
107
167
107
107
167
107
107
167
107
107
167
107
107
167
107
107
167
107
107
167
107
107
167
107
107
167
107
107
167
107
107
167
107
107
167
107
107
167
107
107
167
107
107
167
107
107
167
107
107
167
107
107
167
107
107
167
107
107
167
107
107
167
107
107
167
107
107
167
107
107
167
107
107
167
107
107
167
107
107
167
107
107
167
107
107
167
107
107
167
107
107
167
107
107
167
107
107
167
107
107
167
107
107
167
107
107
167
107
107
167
107
107
167
107
107
167
107
107
167
107
107
167
107
107
167
107
107
167
107
107
167
107
107
67
51
27
0
0
0
0
0
0
0
0
0
0
0
0
0
0
0
0
0
0
0
0
0
167
107
107
167
107
107
167
107
107
167
107
107
167
107
107
167
107
107
167
107
107
167
107
107
167
107
107
167
107
107
167
107
107
167
107
107
167
107
107
167
107
107
167
107
107
167
107
107
167
107
107
167
107
107
167
107
107
167
107
107
167
107
107
167
107
107
167
107
107
167
107
107
167
107
107
167
107
107
167
107
107
167
107
107
159
131
99
215
187
67
215
187
67
215
187
67
215
187
67
215
187
67
215
187
67
159
131
99
167
107
107
167
107
107
167
107
107
167
107
107
167
107
107
167
107
107
167
107
107
167
107
107
167
107
107
167
107
107
167
107
107
167
107
107
167
107
107
167
107
107
167
107
107
167
107
107
167
107
107
167
107
107
167
107
107
167
107
107
167
107
107
167
107
107
167
107
107
167
107
107
167
107
107
167
107
107
167
107
107
167
107
107
67
51
27
0
0
0
0
0
0
0
0
0
0
0
0
0
0
0
0
0
0
0
0
0
167
107
107
167
107
107
167
107
107
167
107
107
167
107
107
167
107
107
167
107
107
167
107
107
167
107
107
167
107
107
167
107
107
0
0
179
0
0
203
55
55
255
55
55
255
55
55
255
55
55
255
55
55
255
55
55
255
55
55
255
55
55
255
55
55
255
0
0
255
0
0
255
0
0
255
0
0
255
0
0
227
0
0
227
0
0
227
0
0
227
0
0
203
0
0
179
0
0
203
0
0
179
0
0
179
0
0
179
0
0
179
0
0
179
0
0
179
0
0
155
0
0
155
0
0
155
0
0
155
0
0
155
0
0
155
0
0
155
0
0
155
0
0
155
0
0
155
0
0
155
167
107
107
167
107
107
167
107
107
167
107
107
167
107
107
167
107
107
167
107
107
167
107
107
167
107
107
167
107
107
167
107
107
167
107
107
167
107
107
167
107
107
67
51
27
0
0
0
0
0
0
0
0
0
0
0
0
0
0
0
0
0
0
0
0
0
167
107
107
167
107
107
167
107
107
167
107
107
167
107
107
167
107
107
167
107
107
167
107
107
167
107
107
167
107
107
167
107
107
167
107
107
167
107
107
167
107
107
167
107
107
167
107
107
167
107
107
167
107
107
167
107
107
167
107
107
167
107
107
167
107
107
167
107
107
167
107
107
167
107
107
79
79
79
79
79
79
79
79
79
79
79
79
79
79
79
71
71
71
71
71
71
71
71
71
71
71
71
71
71
71
55
55
55
167
107
107
167
107
107
167
107
107
167
107
107
167
107
107
167
107
107
167
107
107
167
107
107
167
107
107
167
107
107
167
107
107
167
107
107
167
107
107
167
107
107
167
107
107
167
107
107
167
107
107
167
107
107
167
107
107
167
107
107
167
107
107
167
107
107
167
107
107
167
107
107
167
107
107
167
107
107
167
107
107
167
107
107
67
51
27
0
0
0
0
0
0
0
0
0
0
0
0
0
0
0
0
0
0
0
0
0
67
51
27
0
0
0
0
0
0
0
0
0
0
0
0
0
0
0
0
0
0
0
0
0
0
0
0
163
107
63
0
0
0
0
0
0
0
0
0
163
107
63
0
0
0
0
0
0
75
55
27
75
55
27
75
55
27
75
55
27
67
51
27
67
51
27
67
51
27
67
51
27
75
55
27
75
55
27
75
55
27
75
55
27
67
51
27
67
51
27
67
51
27
67
51
27
167
107
107
167
107
107
167
107
107
167
107
107
167
107
107
167
107
107
167
107
107
167
107
107
167
107
107
167
107
107
167
107
107
167
107
107
167
107
107
167
107
107
167
107
107
167
107
107
167
107
107
167
107
107
167
107
107
167
107
107
167
107
107
167
107
107
167
107
107
167
107
107
167
107
107
167
107
107
167
107
107
167
107
107
167
107
107
167
107
107
167
107
107
167
107
107
167
107
107
167
107
107
167
107
107
167
107
107
167
107
107
167
107
107
167
107
107
167
107
107
167
107
107
167
107
107
167
107
107
167
107
107
167
107
107
167
107
107
167
107
107
167
107
107
167
107
107
167
107
107
167
107
107
167
107
107
167
107
107
167
107
107
167
107
107
167
107
107
167
107
107
167
107
107
167
107
107
167
107
107
167
107
107
167
107
107
167
107
107
167
107
107
67
51
27
67
51
27
67
51
27
67
51
27
67
51
27
67
51
27
67
51
27
67
51
27
167
107
107
167
107
107
167
107
107
167
107
107
167
107
107
167
107
107
167
107
107
167
107
107
167
107
107
167
107
107
167
107
107
167
107
107
167
107
107
167
107
107
167
107
107
167
107
107
167
107
107
167
107
107
167
107
107
167
107
107
167
107
107
167
107
107
167
107
107
167
107
107
167
107
107
167
107
107
167
107
107
167
107
107
167
107
107
159
131
99
167
143
119
159
131
99
159
131
99
159
131
99
159
131
99
167
107
107
167
107
107
167
107
107
167
107
107
167
107
107
167
107
107
167
107
107
167
107
107
167
107
107
167
107
107
167
107
107
167
107
107
167
107
107
167
107
107
167
107
107
167
107
107
167
107
107
167
107
107
167
107
107
167
107
107
167
107
107
167
107
107
167
107
107
167
107
107
167
107
107
167
107
107
167
107
107
167
107
107
167
107
107
67
51
27
67
51
27
67
51
27
67
51
27
67
51
27
67
51
27
67
51
27
67
51
27
167
107
107
67
51
27
67
51
27
67
51
27
67
51
27
67
51
27
67
51
27
67
51
27
67
51
27
67
51
27
67
51
27
67
51
27
67
51
27
67
51
27
67
51
27
67
51
27
67
51
27
67
51
27
67
51
27
67
51
27
67
51
27
67
51
27
67
51
27
67
51
27
67
51
27
67
51
27
67
51
27
67
51
27
67
51
27
67
51
27
67
51
27
67
51
27
67
51
27
67
51
27
67
51
27
67
51
27
67
51
27
67
51
27
67
51
27
67
51
27
67
51
27
67
51
27
67
51
27
67
51
27
67
51
27
67
51
27
67
51
27
67
51
27
67
51
27
67
51
27
67
51
27
67
51
27
67
51
27
67
51
27
67
51
27
67
51
27
67
51
27
67
51
27
67
51
27
67
51
27
67
51
27
67
51
27
67
51
27
67
51
27
67
51
27
67
51
27
67
51
27
67
51
27
67
51
27
67
51
27
67
51
27
67
51
27
167
107
107
67
51
27
67
51
27
67
51
27
67
51
27
67
51
27
67
51
27
67
51
27
67
51
27
67
51
27
67
51
27
67
51
27
67
51
27
67
51
27
67
51
27
67
51
27
67
51
27
67
51
27
67
51
27
67
51
27
67
51
27
67
51
27
67
51
27
67
51
27
67
51
27
67
51
27
67
51
27
67
51
27
67
51
27
67
51
27
67
51
27
67
51
27
67
51
27
67
51
27
67
51
27
67
51
27
67
51
27
67
51
27
67
51
27
67
51
27
67
51
27
67
51
27
67
51
27
67
51
27
67
51
27
67
51
27
67
51
27
67
51
27
67
51
27
67
51
27
67
51
27
67
51
27
67
51
27
67
51
27
67
51
27
67
51
27
67
51
27
67
51
27
67
51
27
67
51
27
67
51
27
67
51
27
67
51
27
67
51
27
67
51
27
67
51
27
67
51
27
67
51
27
67
51
27
67
51
27
67
51
27
67
51
27
67
51
27
67
51
27
67
51
27
67
51
27
67
51
27
67
51
27
67
51
27
67
51
27
0
0
0
0
0
0
0
0
0
0
0
0
0
0
0
0
0
0
0
0
0
0
0
0
75
55
27
255
127
27
255
127
27
255
127
27
255
235
223
255
255
255
255
127
27
255
127
27
75
55
27
255
235
223
255
235
223
255
235
223
255
235
223
255
235
223
255
235
223
255
127
27
67
51
27
0
0
0
0
0
0
0
0
0
0
0
0
0
0
0
0
0
0
0
0
0
67
51
27
0
0
0
0
0
0
0
0
0
0
0
0
0
0
0
0
0
0
0
0
0
67
51
27
0
0
0
0
0
0
0
0
0
0
0
0
0
0
0
0
0
0
0
0
0
67
51
27
0
0
0
0
0
0
0
0
0
0
0
0
0
0
0
0
0
0
0
0
0
67
51
27
0
0
0
0
0
0
0
0
0
0
0
0
0
0
0
0
0
0
0
0
0
67
51
27
0
0
0
0
0
0
0
0
0
0
0
0
0
0
0
0
0
0
0
0
0
67
51
27
0
0
0
0
0
0
0
0
0
0
0
0
0
0
0
0
0
0
0
0
0
67
51
27
0
0
0
0
0
0
0
0
0
0
0
0
0
0
0
0
0
0
0
0
0
67
51
27
0
0
0
0
0
0
0
0
0
0
0
0
0
0
0
0
0
0
0
0
0
67
51
27
0
0
0
0
0
0
0
0
0
0
0
0
0
0
0
0
0
0
0
0
0
67
51
27
0
0
0
0
0
0
0
0
0
0
0
0
0
0
0
0
0
0
0
0
0
67
51
27
0
0
0
0
0
0
0
0
0
0
0
0
0
0
0
0
0
0
0
0
0
67
51
27
0
0
0
0
0
0
0
0
0
0
0
0
0
0
0
0
0
0
0
0
0
67
51
27
0
0
0
0
0
0
0
0
0
0
0
0
0
0
0
0
0
0
0
0
0
67
51
27
0
0
0
0
0
0
0
0
0
0
0
0
0
0
0
0
0
0
0
0
0
67
51
27
0
0
0
0
0
0
0
0
0
0
0
0
0
0
0
0
0
0
0
0
0
67
51
27
0
0
0
0
0
0
0
0
0
0
0
0
0
0
0
0
0
0
0
0
0
67
51
27
0
0
0
0
0
0
0
0
0
0
0
0
0
0
0
0
0
0
0
0
0
67
51
27
0
0
0
0
0
0
0
0
0
0
0
0
0
0
0
0
0
0
0
0
0
67
51
27
0
0
0
0
0
0
0
0
0
0
0
0
0
0
0
0
0
0
0
0
0
67
51
27
0
0
0
0
0
0
0
0
0
0
0
0
0
0
0
0
0
0
0
0
0
67
51
27
0
0
0
0
0
0
0
0
0
0
0
0
0
0
0
0
0
0
0
0
0
67
51
27
0
0
0
0
0
0
0
0
0
0
0
0
0
0
0
0
0
0
0
0
0
67
51
27
0
0
0
0
0
0
0
0
0
0
0
0
0
0
0
0
0
0
0
0
0
67
51
27
0
0
0
0
0
0
0
0
0
0
0
0
0
0
0
0
0
0
0
0
0
67
51
27
0
0
0
0
0
0
0
0
0
0
0
0
0
0
0
0
0
0
0
0
0
67
51
27
0
0
0
0
0
0
0
0
0
0
0
0
0
0
0
0
0
0
0
0
0
67
51
27
0
0
0
0
0
0
0
0
0
0
0
0
0
0
0
0
0
0
0
0
0
67
51
27
0
0
0
0
0
0
0
0
0
0
0
0
0
0
0
0
0
0
0
0
0
67
51
27
0
0
0
0
0
0
0
0
0
0
0
0
0
0
0
0
0
0
0
0
0
67
51
27
0
0
0
0
0
0
0
0
0
0
0
0
0
0
0
0
0
0
0
0
0
67
51
27
0
0
0
0
0
0
0
0
0
0
0
0
0
0
0
0
0
0
0
0
0
67
51
27
0
0
0
0
0
0
0
0
0
0
0
0
0
0
0
0
0
0
0
0
0
67
51
27
0
0
0
0
0
0
0
0
0
0
0
0
0
0
0
0
0
0
0
0
0
67
51
27
0
0
0
0
0
0
0
0
0
0
0
0
0
0
0
0
0
0
0
0
0
67
51
27
0
0
0
0
0
0
0
0
0
0
0
0
0
0
0
0
0
0
0
0
0
67
51
27
0
0
0
0
0
0
0
0
0
0
0
0
0
0
0
0
0
0
0
0
0
0
0
0
0
0
0
163
107
63
163
107
63
163
107
63
0
0
0
0
0
0
0
0
0
75
55
27
255
127
27
255
127
27
255
255
255
255
235
223
255
255
255
255
127
27
255
127
27
75
55
27
255
235
223
255
235
223
255
127
27
255
127
27
255
235
223
255
235
223
255
127
27
67
51
27
0
0
0
0
0
0
0
0
0
0
0
0
0
0
0
0
0
0
0
0
0
67
51
27
0
0
0
0
0
0
0
0
0
0
0
0
0
0
0
0
0
0
0
0
0
67
51
27
0
0
0
0
0
0
0
0
0
0
0
0
0
0
0
0
0
0
0
0
0
67
51
27
0
0
0
0
0
0
0
0
0
0
0
0
0
0
0
0
0
0
0
0
0
67
51
27
0
0
0
0
0
0
0
0
0
0
0
0
0
0
0
0
0
0
0
0
0
67
51
27
0
0
0
0
0
0
0
0
0
0
0
0
0
0
0
0
0
0
0
0
0
67
51
27
0
0
0
0
0
0
0
0
0
0
0
0
0
0
0
0
0
0
0
0
0
67
51
27
0
0
0
0
0
0
0
0
0
0
0
0
0
0
0
0
0
0
0
0
0
67
51
27
0
0
0
0
0
0
0
0
0
0
0
0
0
0
0
0
0
0
0
0
0
67
51
27
0
0
0
0
0
0
0
0
0
0
0
0
0
0
0
0
0
0
0
0
0
67
51
27
0
0
0
0
0
0
0
0
0
0
0
0
0
0
0
0
0
0
0
0
0
67
51
27
0
0
0
0
0
0
0
0
0
0
0
0
0
0
0
0
0
0
0
0
0
67
51
27
0
0
0
0
0
0
0
0
0
0
0
0
0
0
0
0
0
0
0
0
0
67
51
27
0
0
0
0
0
0
0
0
0
0
0
0
0
0
0
0
0
0
0
0
0
67
51
27
0
0
0
0
0
0
0
0
0
0
0
0
0
0
0
0
0
0
0
0
0
67
51
27
0
0
0
0
0
0
0
0
0
0
0
0
0
0
0
0
0
0
0
0
0
67
51
27
0
0
0
0
0
0
0
0
0
0
0
0
0
0
0
0
0
0
0
0
0
67
51
27
0
0
0
0
0
0
0
0
0
0
0
0
0
0
0
0
0
0
0
0
0
67
51
27
0
0
0
0
0
0
0
0
0
0
0
0
0
0
0
0
0
0
0
0
0
67
51
27
0
0
0
0
0
0
0
0
0
0
0
0
0
0
0
0
0
0
0
0
0
67
51
27
0
0
0
0
0
0
0
0
0
0
0
0
0
0
0
0
0
0
0
0
0
67
51
27
0
0
0
0
0
0
0
0
0
0
0
0
0
0
0
0
0
0
0
0
0
67
51
27
0
0
0
0
0
0
0
0
0
0
0
0
0
0
0
0
0
0
0
0
0
67
51
27
0
0
0
0
0
0
0
0
0
0
0
0
0
0
0
0
0
0
0
0
0
67
51
27
0
0
0
0
0
0
0
0
0
0
0
0
0
0
0
0
0
0
0
0
0
67
51
27
0
0
0
0
0
0
0
0
0
0
0
0
0
0
0
0
0
0
0
0
0
67
51
27
0
0
0
0
0
0
0
0
0
0
0
0
0
0
0
0
0
0
0
0
0
67
51
27
0
0
0
0
0
0
0
0
0
0
0
0
0
0
0
0
0
0
0
0
0
67
51
27
0
0
0
0
0
0
0
0
0
0
0
0
0
0
0
0
0
0
0
0
0
67
51
27
0
0
0
0
0
0
0
0
0
0
0
0
0
0
0
0
0
0
0
0
0
67
51
27
0
0
0
0
0
0
0
0
0
0
0
0
0
0
0
0
0
0
0
0
0
67
51
27
0
0
0
0
0
0
0
0
0
0
0
0
0
0
0
0
0
0
0
0
0
67
51
27
0
0
0
0
0
0
0
0
0
0
0
0
0
0
0
0
0
0
0
0
0
67
51
27
0
0
0
0
0
0
0
0
0
0
0
0
0
0
0
0
0
0
0
0
0
67
51
27
0
0
0
0
0
0
0
0
0
0
0
0
0
0
0
0
0
0
0
0
0
67
51
27
0
0
0
0
0
0
0
0
0
0
0
0
0
0
0
0
0
0
0
0
0
67
51
27
0
0
0
0
0
0
0
0
0
0
0
0
0
0
0
0
0
0
0
0
0
0
0
0
163
107
63
163
107
63
163
107
63
163
107
63
163
107
63
0
0
0
0
0
0
75
55
27
255
127
27
255
127
27
255
127
27
255
235
223
255
255
255
255
127
27
255
127
27
75
55
27
255
127
27
255
127
27
255
127
27
255
235
223
255
235
223
255
127
27
255
127
27
67
51
27
0
0
0
0
0
0
0
0
0
0
0
0
0
0
0
0
0
0
0
0
0
67
51
27
0
0
0
0
0
0
0
0
0
0
0
0
0
0
0
0
0
0
0
0
0
67
51
27
0
0
0
0
0
0
0
0
0
0
0
0
0
0
0
0
0
0
0
0
0
67
51
27
0
0
0
0
0
0
0
0
0
0
0
0
0
0
0
0
0
0
0
0
0
67
51
27
0
0
0
0
0
0
0
0
0
0
0
0
0
0
0
0
0
0
0
0
0
67
51
27
0
0
0
0
0
0
0
0
0
0
0
0
0
0
0
0
0
0
0
0
0
67
51
27
0
0
0
0
0
0
0
0
0
0
0
0
0
0
0
0
0
0
0
0
0
67
51
27
0
0
0
0
0
0
0
0
0
0
0
0
0
0
0
0
0
0
0
0
0
67
51
27
0
0
0
0
0
0
0
0
0
0
0
0
0
0
0
0
0
0
0
0
0
67
51
27
0
0
0
0
0
0
0
0
0
0
0
0
0
0
0
0
0
0
0
0
0
67
51
27
0
0
0
0
0
0
0
0
0
0
0
0
0
0
0
0
0
0
0
0
0
67
51
27
0
0
0
0
0
0
0
0
0
0
0
0
0
0
0
0
0
0
0
0
0
67
51
27
0
0
0
0
0
0
0
0
0
0
0
0
0
0
0
0
0
0
0
0
0
67
51
27
0
0
0
0
0
0
0
0
0
0
0
0
0
0
0
0
0
0
0
0
0
67
51
27
0
0
0
0
0
0
0
0
0
0
0
0
0
0
0
0
0
0
0
0
0
67
51
27
0
0
0
0
0
0
0
0
0
0
0
0
0
0
0
0
0
0
0
0
0
67
51
27
0
0
0
0
0
0
0
0
0
0
0
0
0
0
0
0
0
0
0
0
0
67
51
27
0
0
0
0
0
0
0
0
0
0
0
0
0
0
0
0
0
0
0
0
0
67
51
27
0
0
0
0
0
0
0
0
0
0
0
0
0
0
0
0
0
0
0
0
0
67
51
27
0
0
0
0
0
0
0
0
0
0
0
0
0
0
0
0
0
0
0
0
0
67
51
27
0
0
0
0
0
0
0
0
0
0
0
0
0
0
0
0
0
0
0
0
0
67
51
27
0
0
0
0
0
0
0
0
0
0
0
0
0
0
0
0
0
0
0
0
0
67
51
27
0
0
0
0
0
0
0
0
0
0
0
0
0
0
0
0
0
0
0
0
0
67
51
27
0
0
0
0
0
0
0
0
0
0
0
0
0
0
0
0
0
0
0
0
0
67
51
27
0
0
0
0
0
0
0
0
0
0
0
0
0
0
0
0
0
0
0
0
0
67
51
27
0
0
0
0
0
0
0
0
0
0
0
0
0
0
0
0
0
0
0
0
0
67
51
27
0
0
0
0
0
0
0
0
0
0
0
0
0
0
0
0
0
0
0
0
0
67
51
27
0
0
0
0
0
0
0
0
0
0
0
0
0
0
0
0
0
0
0
0
0
67
51
27
0
0
0
0
0
0
0
0
0
0
0
0
0
0
0
0
0
0
0
0
0
67
51
27
0
0
0
0
0
0
0
0
0
0
0
0
0
0
0
0
0
0
0
0
0
67
51
27
0
0
0
0
0
0
0
0
0
0
0
0
0
0
0
0
0
0
0
0
0
67
51
27
0
0
0
0
0
0
0
0
0
0
0
0
0
0
0
0
0
0
0
0
0
67
51
27
0
0
0
0
0
0
0
0
0
0
0
0
0
0
0
0
0
0
0
0
0
67
51
27
0
0
0
0
0
0
0
0
0
0
0
0
0
0
0
0
0
0
0
0
0
67
51
27
0
0
0
0
0
0
0
0
0
0
0
0
0
0
0
0
0
0
0
0
0
67
51
27
0
0
0
0
0
0
0
0
0
0
0
0
0
0
0
0
0
0
0
0
0
67
51
27
0
0
0
0
0
0
0
0
0
0
0
0
0
0
0
0
0
0
0
0
0
0
0
0
163
107
63
0
0
0
163
107
63
0
0
0
163
107
63
0
0
0
0
0
0
75
55
27
255
127
27
255
127
27
255
127
27
255
235
223
255
255
255
255
127
27
255
127
27
75
55
27
255
127
27
255
127
27
255
235
223
255
235
223
255
127
27
255
127
27
255
127
27
67
51
27
0
0
0
0
0
0
0
0
0
0
0
0
0
0
0
0
0
0
0
0
0
67
51
27
0
0
0
0
0
0
0
0
0
0
0
0
0
0
0
0
0
0
0
0
0
67
51
27
0
0
0
0
0
0
0
0
0
0
0
0
0
0
0
0
0
0
0
0
0
67
51
27
0
0
0
0
0
0
0
0
0
0
0
0
0
0
0
0
0
0
0
0
0
67
51
27
0
0
0
0
0
0
0
0
0
0
0
0
0
0
0
0
0
0
0
0
0
67
51
27
0
0
0
0
0
0
0
0
0
0
0
0
0
0
0
0
0
0
0
0
0
67
51
27
0
0
0
0
0
0
0
0
0
0
0
0
0
0
0
0
0
0
0
0
0
67
51
27
0
0
0
0
0
0
0
0
0
0
0
0
0
0
0
0
0
0
0
0
0
67
51
27
0
0
0
0
0
0
0
0
0
0
0
0
0
0
0
0
0
0
0
0
0
67
51
27
0
0
0
0
0
0
0
0
0
0
0
0
0
0
0
0
0
0
0
0
0
67
51
27
0
0
0
0
0
0
0
0
0
0
0
0
0
0
0
0
0
0
0
0
0
67
51
27
0
0
0
0
0
0
0
0
0
0
0
0
0
0
0
0
0
0
0
0
0
67
51
27
0
0
0
0
0
0
0
0
0
0
0
0
0
0
0
0
0
0
0
0
0
67
51
27
0
0
0
0
0
0
0
0
0
0
0
0
0
0
0
0
0
0
0
0
0
67
51
27
0
0
0
0
0
0
0
0
0
0
0
0
0
0
0
0
0
0
0
0
0
67
51
27
0
0
0
0
0
0
0
0
0
0
0
0
0
0
0
0
0
0
0
0
0
67
51
27
0
0
0
0
0
0
0
0
0
0
0
0
0
0
0
0
0
0
0
0
0
67
51
27
0
0
0
0
0
0
0
0
0
0
0
0
0
0
0
0
0
0
0
0
0
67
51
27
0
0
0
0
0
0
0
0
0
0
0
0
0
0
0
0
0
0
0
0
0
67
51
27
0
0
0
0
0
0
0
0
0
0
0
0
0
0
0
0
0
0
0
0
0
67
51
27
0
0
0
0
0
0
0
0
0
0
0
0
0
0
0
0
0
0
0
0
0
67
51
27
0
0
0
0
0
0
0
0
0
0
0
0
0
0
0
0
0
0
0
0
0
67
51
27
0
0
0
0
0
0
0
0
0
0
0
0
0
0
0
0
0
0
0
0
0
67
51
27
0
0
0
0
0
0
0
0
0
0
0
0
0
0
0
0
0
0
0
0
0
67
51
27
0
0
0
0
0
0
0
0
0
0
0
0
0
0
0
0
0
0
0
0
0
67
51
27
0
0
0
0
0
0
0
0
0
0
0
0
0
0
0
0
0
0
0
0
0
67
51
27
0
0
0
0
0
0
0
0
0
0
0
0
0
0
0
0
0
0
0
0
0
67
51
27
0
0
0
0
0
0
0
0
0
0
0
0
0
0
0
0
0
0
0
0
0
67
51
27
0
0
0
0
0
0
0
0
0
0
0
0
0
0
0
0
0
0
0
0
0
67
51
27
0
0
0
0
0
0
0
0
0
0
0
0
0
0
0
0
0
0
0
0
0
67
51
27
0
0
0
0
0
0
0
0
0
0
0
0
0
0
0
0
0
0
0
0
0
67
51
27
0
0
0
0
0
0
0
0
0
0
0
0
0
0
0
0
0
0
0
0
0
67
51
27
0
0
0
0
0
0
0
0
0
0
0
0
0
0
0
0
0
0
0
0
0
67
51
27
0
0
0
0
0
0
0
0
0
0
0
0
0
0
0
0
0
0
0
0
0
67
51
27
0
0
0
0
0
0
0
0
0
0
0
0
0
0
0
0
0
0
0
0
0
67
51
27
0
0
0
0
0
0
0
0
0
0
0
0
0
0
0
0
0
0
0
0
0
67
51
27
0
0
0
0
0
0
0
0
0
0
0
0
0
0
0
0
0
0
0
0
0
0
0
0
163
107
63
0
0
0
163
107
63
0
0
0
163
107
63
0
0
0
0
0
0
75
55
27
255
127
27
255
127
27
255
127
27
255
235
223
255
255
255
255
127
27
255
127
27
75
55
27
255
127
27
255
127
27
255
235
223
255
235
223
255
127
27
255
127
27
255
127
27
67
51
27
0
0
0
0
0
0
0
0
0
0
0
0
0
0
0
0
0
0
0
0
0
67
51
27
0
0
0
0
0
0
0
0
0
0
0
0
0
0
0
0
0
0
0
0
0
67
51
27
0
0
0
0
0
0
0
0
0
0
0
0
0
0
0
0
0
0
0
0
0
67
51
27
0
0
0
0
0
0
0
0
0
0
0
0
0
0
0
0
0
0
0
0
0
67
51
27
0
0
0
0
0
0
0
0
0
0
0
0
0
0
0
0
0
0
0
0
0
67
51
27
0
0
0
0
0
0
0
0
0
0
0
0
0
0
0
0
0
0
0
0
0
67
51
27
0
0
0
0
0
0
0
0
0
0
0
0
0
0
0
0
0
0
0
0
0
67
51
27
0
0
0
0
0
0
0
0
0
0
0
0
0
0
0
0
0
0
0
0
0
67
51
27
0
0
0
0
0
0
0
0
0
0
0
0
0
0
0
0
0
0
0
0
0
67
51
27
0
0
0
0
0
0
0
0
0
0
0
0
0
0
0
0
0
0
0
0
0
67
51
27
0
0
0
0
0
0
0
0
0
0
0
0
0
0
0
0
0
0
0
0
0
67
51
27
0
0
0
0
0
0
0
0
0
0
0
0
0
0
0
0
0
0
0
0
0
67
51
27
0
0
0
0
0
0
0
0
0
0
0
0
0
0
0
0
0
0
0
0
0
67
51
27
0
0
0
0
0
0
0
0
0
0
0
0
0
0
0
0
0
0
0
0
0
67
51
27
0
0
0
0
0
0
0
0
0
0
0
0
0
0
0
0
0
0
0
0
0
67
51
27
0
0
0
0
0
0
0
0
0
0
0
0
0
0
0
0
0
0
0
0
0
67
51
27
0
0
0
0
0
0
0
0
0
0
0
0
0
0
0
0
0
0
0
0
0
67
51
27
0
0
0
0
0
0
0
0
0
0
0
0
0
0
0
0
0
0
0
0
0
67
51
27
0
0
0
0
0
0
0
0
0
0
0
0
0
0
0
0
0
0
0
0
0
67
51
27
0
0
0
0
0
0
0
0
0
0
0
0
0
0
0
0
0
0
0
0
0
67
51
27
0
0
0
0
0
0
0
0
0
0
0
0
0
0
0
0
0
0
0
0
0
67
51
27
0
0
0
0
0
0
0
0
0
0
0
0
0
0
0
0
0
0
0
0
0
67
51
27
0
0
0
0
0
0
0
0
0
0
0
0
0
0
0
0
0
0
0
0
0
67
51
27
0
0
0
0
0
0
0
0
0
0
0
0
0
0
0
0
0
0
0
0
0
67
51
27
0
0
0
0
0
0
0
0
0
0
0
0
0
0
0
0
0
0
0
0
0
67
51
27
0
0
0
0
0
0
0
0
0
0
0
0
0
0
0
0
0
0
0
0
0
67
51
27
0
0
0
0
0
0
0
0
0
0
0
0
0
0
0
0
0
0
0
0
0
67
51
27
0
0
0
0
0
0
0
0
0
0
0
0
0
0
0
0
0
0
0
0
0
67
51
27
0
0
0
0
0
0
0
0
0
0
0
0
0
0
0
0
0
0
0
0
0
67
51
27
0
0
0
0
0
0
0
0
0
0
0
0
0
0
0
0
0
0
0
0
0
67
51
27
0
0
0
0
0
0
0
0
0
0
0
0
0
0
0
0
0
0
0
0
0
67
51
27
0
0
0
0
0
0
0
0
0
0
0
0
0
0
0
0
0
0
0
0
0
67
51
27
0
0
0
0
0
0
0
0
0
0
0
0
0
0
0
0
0
0
0
0
0
67
51
27
0
0
0
0
0
0
0
0
0
0
0
0
0
0
0
0
0
0
0
0
0
67
51
27
0
0
0
0
0
0
0
0
0
0
0
0
0
0
0
0
0
0
0
0
0
67
51
27
0
0
0
0
0
0
0
0
0
0
0
0
0
0
0
0
0
0
0
0
0
67
51
27
0
0
0
0
0
0
0
0
0
0
0
0
0
0
0
0
0
0
0
0
0
0
0
0
163
107
63
0
0
0
163
107
63
163
107
63
163
107
63
0
0
0
0
0
0
75
55
27
255
127
27
255
127
27
255
127
27
255
235
223
255
255
255
255
127
27
255
127
27
75
55
27
255
127
27
255
127
27
255
235
223
255
235
223
255
127
27
255
127
27
255
127
27
67
51
27
0
0
0
0
0
0
0
0
0
0
0
0
0
0
0
0
0
0
0
0
0
67
51
27
0
0
0
0
0
0
0
0
0
0
0
0
0
0
0
0
0
0
0
0
0
67
51
27
0
0
0
0
0
0
0
0
0
0
0
0
0
0
0
0
0
0
0
0
0
67
51
27
0
0
0
0
0
0
0
0
0
0
0
0
0
0
0
0
0
0
0
0
0
67
51
27
0
0
0
0
0
0
0
0
0
0
0
0
0
0
0
0
0
0
0
0
0
67
51
27
0
0
0
0
0
0
0
0
0
0
0
0
0
0
0
0
0
0
0
0
0
67
51
27
0
0
0
0
0
0
0
0
0
0
0
0
0
0
0
0
0
0
0
0
0
67
51
27
0
0
0
0
0
0
0
0
0
0
0
0
0
0
0
0
0
0
0
0
0
67
51
27
0
0
0
0
0
0
0
0
0
0
0
0
0
0
0
0
0
0
0
0
0
67
51
27
0
0
0
0
0
0
0
0
0
0
0
0
0
0
0
0
0
0
0
0
0
67
51
27
0
0
0
0
0
0
0
0
0
0
0
0
0
0
0
0
0
0
0
0
0
67
51
27
0
0
0
0
0
0
0
0
0
0
0
0
0
0
0
0
0
0
0
0
0
67
51
27
0
0
0
0
0
0
0
0
0
0
0
0
0
0
0
0
0
0
0
0
0
67
51
27
0
0
0
0
0
0
0
0
0
0
0
0
0
0
0
0
0
0
0
0
0
67
51
27
0
0
0
0
0
0
0
0
0
0
0
0
0
0
0
0
0
0
0
0
0
67
51
27
0
0
0
0
0
0
0
0
0
0
0
0
0
0
0
0
0
0
0
0
0
67
51
27
0
0
0
0
0
0
0
0
0
0
0
0
0
0
0
0
0
0
0
0
0
67
51
27
0
0
0
0
0
0
0
0
0
0
0
0
0
0
0
0
0
0
0
0
0
67
51
27
0
0
0
0
0
0
0
0
0
0
0
0
0
0
0
0
0
0
0
0
0
67
51
27
0
0
0
0
0
0
0
0
0
0
0
0
0
0
0
0
0
0
0
0
0
67
51
27
0
0
0
0
0
0
0
0
0
0
0
0
0
0
0
0
0
0
0
0
0
67
51
27
0
0
0
0
0
0
0
0
0
0
0
0
0
0
0
0
0
0
0
0
0
67
51
27
0
0
0
0
0
0
0
0
0
0
0
0
0
0
0
0
0
0
0
0
0
67
51
27
0
0
0
0
0
0
0
0
0
0
0
0
0
0
0
0
0
0
0
0
0
67
51
27
0
0
0
0
0
0
0
0
0
0
0
0
0
0
0
0
0
0
0
0
0
67
51
27
0
0
0
0
0
0
0
0
0
0
0
0
0
0
0
0
0
0
0
0
0
67
51
27
0
0
0
0
0
0
0
0
0
0
0
0
0
0
0
0
0
0
0
0
0
67
51
27
0
0
0
0
0
0
0
0
0
0
0
0
0
0
0
0
0
0
0
0
0
67
51
27
0
0
0
0
0
0
0
0
0
0
0
0
0
0
0
0
0
0
0
0
0
67
51
27
0
0
0
0
0
0
0
0
0
0
0
0
0
0
0
0
0
0
0
0
0
67
51
27
0
0
0
0
0
0
0
0
0
0
0
0
0
0
0
0
0
0
0
0
0
67
51
27
0
0
0
0
0
0
0
0
0
0
0
0
0
0
0
0
0
0
0
0
0
67
51
27
0
0
0
0
0
0
0
0
0
0
0
0
0
0
0
0
0
0
0
0
0
67
51
27
0
0
0
0
0
0
0
0
0
0
0
0
0
0
0
0
0
0
0
0
0
67
51
27
0
0
0
0
0
0
0
0
0
0
0
0
0
0
0
0
0
0
0
0
0
67
51
27
0
0
0
0
0
0
0
0
0
0
0
0
0
0
0
0
0
0
0
0
0
67
51
27
0
0
0
0
0
0
0
0
0
0
0
0
0
0
0
0
0
0
0
0
0
0
0
0
163
107
63
0
0
0
163
107
63
163
107
63
0
0
0
0
0
0
0
0
0
75
55
27
255
127
27
255
127
27
255
255
255
255
255
255
255
255
255
255
255
255
255
127
27
75
55
27
255
127
27
255
127
27
255
235
223
255
235
223
255
127
27
255
127
27
255
127
27
67
51
27
0
0
0
0
0
0
0
0
0
0
0
0
0
0
0
0
0
0
0
0
0
67
51
27
0
0
0
0
0
0
0
0
0
0
0
0
0
0
0
0
0
0
0
0
0
67
51
27
0
0
0
0
0
0
0
0
0
0
0
0
0
0
0
0
0
0
0
0
0
67
51
27
0
0
0
0
0
0
0
0
0
0
0
0
0
0
0
0
0
0
0
0
0
67
51
27
0
0
0
0
0
0
0
0
0
0
0
0
0
0
0
0
0
0
0
0
0
67
51
27
0
0
0
0
0
0
0
0
0
0
0
0
0
0
0
0
0
0
0
0
0
67
51
27
0
0
0
0
0
0
0
0
0
0
0
0
0
0
0
0
0
0
0
0
0
67
51
27
0
0
0
0
0
0
0
0
0
0
0
0
0
0
0
0
0
0
0
0
0
67
51
27
0
0
0
0
0
0
0
0
0
0
0
0
0
0
0
0
0
0
0
0
0
67
51
27
0
0
0
0
0
0
0
0
0
0
0
0
0
0
0
0
0
0
0
0
0
67
51
27
0
0
0
0
0
0
0
0
0
0
0
0
0
0
0
0
0
0
0
0
0
67
51
27
0
0
0
0
0
0
0
0
0
0
0
0
0
0
0
0
0
0
0
0
0
67
51
27
0
0
0
0
0
0
0
0
0
0
0
0
0
0
0
0
0
0
0
0
0
67
51
27
0
0
0
0
0
0
0
0
0
0
0
0
0
0
0
0
0
0
0
0
0
67
51
27
0
0
0
0
0
0
0
0
0
0
0
0
0
0
0
0
0
0
0
0
0
67
51
27
0
0
0
0
0
0
0
0
0
0
0
0
0
0
0
0
0
0
0
0
0
67
51
27
0
0
0
0
0
0
0
0
0
0
0
0
0
0
0
0
0
0
0
0
0
67
51
27
0
0
0
0
0
0
0
0
0
0
0
0
0
0
0
0
0
0
0
0
0
67
51
27
0
0
0
0
0
0
0
0
0
0
0
0
0
0
0
0
0
0
0
0
0
67
51
27
0
0
0
0
0
0
0
0
0
0
0
0
0
0
0
0
0
0
0
0
0
67
51
27
0
0
0
0
0
0
0
0
0
0
0
0
0
0
0
0
0
0
0
0
0
67
51
27
0
0
0
0
0
0
0
0
0
0
0
0
0
0
0
0
0
0
0
0
0
67
51
27
0
0
0
0
0
0
0
0
0
0
0
0
0
0
0
0
0
0
0
0
0
67
51
27
0
0
0
0
0
0
0
0
0
0
0
0
0
0
0
0
0
0
0
0
0
67
51
27
0
0
0
0
0
0
0
0
0
0
0
0
0
0
0
0
0
0
0
0
0
67
51
27
0
0
0
0
0
0
0
0
0
0
0
0
0
0
0
0
0
0
0
0
0
67
51
27
0
0
0
0
0
0
0
0
0
0
0
0
0
0
0
0
0
0
0
0
0
67
51
27
0
0
0
0
0
0
0
0
0
0
0
0
0
0
0
0
0
0
0
0
0
67
51
27
0
0
0
0
0
0
0
0
0
0
0
0
0
0
0
0
0
0
0
0
0
67
51
27
0
0
0
0
0
0
0
0
0
0
0
0
0
0
0
0
0
0
0
0
0
67
51
27
0
0
0
0
0
0
0
0
0
0
0
0
0
0
0
0
0
0
0
0
0
67
51
27
0
0
0
0
0
0
0
0
0
0
0
0
0
0
0
0
0
0
0
0
0
67
51
27
0
0
0
0
0
0
0
0
0
0
0
0
0
0
0
0
0
0
0
0
0
67
51
27
0
0
0
0
0
0
0
0
0
0
0
0
0
0
0
0
0
0
0
0
0
67
51
27
0
0
0
0
0
0
0
0
0
0
0
0
0
0
0
0
0
0
0
0
0
67
51
27
0
0
0
0
0
0
0
0
0
0
0
0
0
0
0
0
0
0
0
0
0
67
51
27
0
0
0
0
0
0
0
0
0
0
0
0
0
0
0
0
0
0
0
0
0
0
0
0
0
0
0
0
0
0
0
0
0
0
0
0
0
0
0
0
0
0
0
0
0
75
55
27
75
55
27
75
55
27
75
55
27
67
51
27
67
51
27
67
51
27
67
51
27
75
55
27
75
55
27
75
55
27
75
55
27
67
51
27
67
51
27
67
51
27
67
51
27
167
107
107
167
107
107
167
107
107
167
107
107
167
107
107
167
107
107
167
107
107
167
107
107
167
107
107
167
107
107
167
107
107
167
107
107
167
107
107
167
107
107
167
107
107
167
107
107
167
107
107
167
107
107
167
107
107
167
107
107
167
107
107
167
107
107
167
107
107
167
107
107
167
107
107
167
107
107
167
107
107
167
107
107
167
107
107
167
107
107
167
107
107
167
107
107
167
107
107
167
107
107
167
107
107
167
107
107
167
107
107
167
107
107
167
107
107
167
107
107
167
107
107
167
107
107
167
107
107
167
107
107
167
107
107
167
107
107
167
107
107
167
107
107
167
107
107
167
107
107
167
107
107
167
107
107
167
107
107
167
107
107
167
107
107
167
107
107
167
107
107
167
107
107
167
107
107
167
107
107
167
107
107
167
107
107
167
107
107
167
107
107
67
51
27
67
51
27
67
51
27
67
51
27
67
51
27
67
51
27
67
51
27
67
51
27
167
107
107
167
107
107
167
107
107
167
107
107
167
107
107
167
107
107
167
107
107
167
107
107
167
107
107
167
107
107
167
107
107
167
107
107
167
107
107
167
107
107
167
107
107
167
107
107
167
107
107
167
107
107
167
107
107
167
107
107
167
107
107
167
107
107
167
107
107
167
107
107
167
107
107
167
107
107
167
107
107
167
107
107
167
107
107
167
107
107
167
107
107
167
107
107
167
107
107
167
107
107
167
107
107
167
107
107
167
107
107
167
107
107
167
107
107
167
107
107
167
107
107
167
107
107
167
107
107
167
107
107
167
107
107
167
107
107
167
107
107
167
107
107
167
107
107
167
107
107
167
107
107
167
107
107
167
107
107
167
107
107
167
107
107
167
107
107
167
107
107
167
107
107
167
107
107
167
107
107
167
107
107
167
107
107
167
107
107
167
107
107
67
51
27
67
51
27
67
51
27
67
51
27
67
51
27
67
51
27
67
51
27
67
51
27
167
107
107
167
107
107
167
107
107
167
107
107
167
107
107
167
107
107
167
107
107
167
107
107
167
107
107
167
107
107
167
107
107
167
107
107
167
107
107
167
107
107
167
107
107
167
107
107
167
107
107
167
107
107
167
107
107
167
107
107
167
107
107
167
107
107
167
107
107
167
107
107
167
107
107
167
107
107
167
107
107
167
107
107
167
107
107
167
107
107
167
107
107
167
107
107
167
107
107
167
107
107
167
107
107
167
107
107
167
107
107
167
107
107
167
107
107
167
107
107
167
107
107
167
107
107
167
107
107
167
107
107
167
107
107
167
107
107
167
107
107
167
107
107
167
107
107
167
107
107
167
107
107
167
107
107
167
107
107
167
107
107
167
107
107
167
107
107
167
107
107
167
107
107
167
107
107
167
107
107
167
107
107
167
107
107
167
107
107
167
107
107
67
51
27
67
51
27
67
51
27
67
51
27
67
51
27
67
51
27
67
51
27
67
51
27
167
107
107
167
107
107
167
107
107
167
107
107
167
107
107
167
107
107
167
107
107
167
107
107
167
107
107
167
107
107
167
107
107
167
107
107
167
107
107
167
107
107
167
107
107
167
107
107
167
107
107
167
107
107
167
107
107
167
107
107
167
107
107
167
107
107
167
107
107
167
107
107
167
107
107
167
107
107
167
107
107
167
107
107
167
107
107
167
107
107
167
107
107
167
107
107
167
107
107
167
107
107
167
107
107
167
107
107
167
107
107
167
107
107
167
107
107
167
107
107
167
107
107
167
107
107
167
107
107
167
107
107
167
107
107
167
107
107
167
107
107
167
107
107
167
107
107
167
107
107
167
107
107
167
107
107
167
107
107
167
107
107
167
107
107
167
107
107
167
107
107
167
107
107
167
107
107
167
107
107
167
107
107
167
107
107
167
107
107
167
107
107
67
51
27
255
255
255
255
255
255
255
255
255
255
255
255
255
255
255
0
0
0
67
51
27
67
51
27
67
51
27
67
51
27
67
51
27
67
51
27
67
51
27
67
51
27
67
51
27
0
0
0
0
0
0
0
0
0
0
0
0
0
0
0
0
0
0
0
0
0
0
0
0
75
55
27
255
127
27
255
127
27
255
127
27
255
235
223
255
255
255
255
127
27
255
127
27
75
55
27
255
127
27
255
235
223
255
235
223
255
235
223
255
235
223
255
127
27
255
127
27
167
107
107
167
107
107
167
107
107
167
107
107
167
107
107
167
107
107
167
107
107
167
107
107
167
107
107
167
107
107
167
107
107
167
107
107
167
107
107
167
107
107
167
107
107
167
107
107
167
107
107
167
107
107
167
107
107
167
107
107
167
107
107
167
107
107
167
107
107
167
107
107
167
107
107
167
107
107
167
107
107
167
107
107
167
107
107
167
107
107
167
107
107
167
107
107
167
107
107
167
107
107
167
107
107
167
107
107
167
107
107
167
107
107
167
107
107
167
107
107
167
107
107
167
107
107
167
107
107
167
107
107
167
107
107
167
107
107
167
107
107
167
107
107
167
107
107
167
107
107
167
107
107
167
107
107
167
107
107
167
107
107
167
107
107
167
107
107
167
107
107
167
107
107
167
107
107
167
107
107
167
107
107
167
107
107
167
107
107
167
107
107
67
51
27
0
0
0
0
0
0
0
0
0
0
0
0
0
0
0
0
0
0
0
0
0
167
107
107
167
107
107
167
107
107
167
107
107
167
107
107
167
107
107
167
107
107
167
107
107
167
107
107
167
107
107
167
107
107
167
107
107
167
107
107
167
107
107
167
107
107
167
107
107
167
107
107
167
107
107
167
107
107
167
107
107
167
107
107
167
107
107
167
107
107
167
107
107
167
107
107
167
107
107
167
107
107
167
107
107
167
107
107
167
107
107
167
107
107
167
107
107
167
107
107
167
107
107
167
107
107
167
107
107
167
107
107
167
107
107
167
107
107
167
107
107
167
107
107
167
107
107
167
107
107
167
107
107
167
107
107
167
107
107
167
107
107
167
107
107
167
107
107
167
107
107
167
107
107
167
107
107
167
107
107
167
107
107
167
107
107
167
107
107
167
107
107
167
107
107
167
107
107
167
107
107
167
107
107
167
107
107
167
107
107
167
107
107
67
51
27
0
0
0
0
0
0
0
0
0
0
0
0
0
0
0
0
0
0
0
0
0
167
107
107
167
107
107
167
107
107
167
107
107
167
107
107
167
107
107
167
107
107
167
107
107
167
107
107
167
107
107
167
107
107
167
107
107
167
107
107
167
107
107
167
107
107
167
107
107
167
107
107
167
107
107
167
107
107
167
107
107
167
107
107
167
107
107
167
107
107
167
107
107
167
107
107
167
107
107
167
107
107
167
107
107
167
107
107
167
107
107
167
107
107
167
107
107
167
107
107
167
107
107
167
107
107
167
107
107
167
107
107
167
107
107
167
107
107
167
107
107
167
107
107
167
107
107
167
107
107
167
107
107
167
107
107
167
107
107
167
107
107
167
107
107
167
107
107
167
107
107
167
107
107
167
107
107
167
107
107
167
107
107
167
107
107
167
107
107
167
107
107
167
107
107
167
107
107
167
107
107
167
107
107
167
107
107
167
107
107
167
107
107
67
51
27
0
0
0
0
0
0
0
0
0
0
0
0
0
0
0
0
0
0
0
0
0
167
107
107
167
107
107
167
107
107
167
107
107
167
107
107
167
107
107
167
107
107
167
107
107
167
107
107
167
107
107
167
107
107
167
107
107
167
107
107
167
107
107
167
107
107
167
107
107
167
107
107
167
107
107
167
107
107
167
107
107
167
107
107
167
107
107
167
107
107
167
107
107
167
107
107
167
107
107
167
107
107
167
107
107
167
107
107
167
107
107
167
107
107
167
107
107
167
107
107
167
107
107
167
107
107
167
107
107
167
107
107
167
107
107
167
107
107
167
107
107
167
107
107
167
107
107
167
107
107
167
107
107
167
107
107
167
107
107
167
107
107
167
107
107
167
107
107
167
107
107
167
107
107
167
107
107
167
107
107
167
107
107
167
107
107
167
107
107
167
107
107
167
107
107
167
107
107
167
107
107
167
107
107
167
107
107
167
107
107
167
107
107
67
51
27
255
255
255
255
255
255
0
0
0
0
0
0
255
255
255
255
255
255
0
0
0
67
51
27
0
0
0
0
0
0
0
0
0
0
0
0
0
0
0
0
0
0
0
0
0
0
0
0
163
107
63
0
0
0
0
0
0
163
107
63
0
0
0
0
0
0
0
0
0
75
55
27
255
127
27
255
127
27
255
255
255
255
235
223
255
255
255
255
127
27
255
127
27
75
55
27
255
235
223
255
235
223
255
127
27
255
127
27
255
235
223
255
235
223
255
127
27
167
107
107
167
107
107
167
107
107
167
107
107
167
107
107
167
107
107
167
107
107
167
107
107
167
107
107
167
107
107
167
107
107
167
107
107
167
107
107
167
107
107
167
107
107
167
107
107
167
107
107
167
107
107
167
107
107
167
107
107
167
107
107
167
107
107
167
107
107
167
107
107
167
107
107
167
107
107
167
107
107
167
107
107
167
107
107
167
107
107
167
107
107
167
107
107
167
107
107
167
107
107
167
107
107
167
107
107
167
107
107
167
107
107
167
107
107
167
107
107
167
107
107
167
107
107
167
107
107
167
107
107
167
107
107
167
107
107
167
107
107
167
107
107
167
107
107
167
107
107
167
107
107
167
107
107
167
107
107
167
107
107
167
107
107
167
107
107
167
107
107
167
107
107
167
107
107
167
107
107
167
107
107
167
107
107
167
107
107
167
107
107
67
51
27
0
0
0
0
0
0
0
0
0
0
0
0
0
0
0
0
0
0
0
0
0
167
107
107
167
107
107
167
107
107
167
107
107
167
107
107
167
107
107
167
107
107
167
107
107
167
107
107
167
107
107
167
107
107
167
107
107
167
107
107
167
107
107
167
107
107
167
107
107
167
107
107
167
107
107
167
107
107
167
107
107
167
107
107
167
107
107
167
107
107
167
107
107
167
107
107
167
107
107
167
107
107
167
107
107
167
107
107
167
107
107
167
107
107
167
107
107
167
107
107
167
107
107
167
107
107
167
107
107
167
107
107
167
107
107
167
107
107
167
107
107
167
107
107
167
107
107
167
107
107
167
107
107
167
107
107
167
107
107
167
107
107
167
107
107
167
107
107
167
107
107
167
107
107
167
107
107
167
107
107
167
107
107
167
107
107
167
107
107
167
107
107
167
107
107
167
107
107
167
107
107
167
107
107
167
107
107
167
107
107
167
107
107
67
51
27
0
0
0
0
0
0
0
0
0
0
0
0
0
0
0
0
0
0
0
0
0
167
107
107
167
107
107
167
107
107
167
107
107
167
107
107
167
107
107
167
107
107
167
107
107
167
107
107
167
107
107
167
107
107
167
107
107
167
107
107
167
107
107
167
107
107
167
107
107
167
107
107
167
107
107
167
107
107
167
107
107
167
107
107
167
107
107
167
107
107
167
107
107
167
107
107
167
107
107
167
107
107
167
107
107
167
107
107
167
107
107
167
107
107
167
107
107
167
107
107
167
107
107
167
107
107
167
107
107
167
107
107
167
107
107
167
107
107
167
107
107
167
107
107
167
107
107
167
107
107
167
107
107
167
107
107
167
107
107
167
107
107
167
107
107
167
107
107
167
107
107
167
107
107
167
107
107
167
107
107
167
107
107
167
107
107
167
107
107
167
107
107
167
107
107
167
107
107
167
107
107
167
107
107
167
107
107
167
107
107
167
107
107
67
51
27
0
0
0
0
0
0
0
0
0
0
0
0
0
0
0
0
0
0
0
0
0
167
107
107
167
107
107
167
107
107
167
107
107
167
107
107
167
107
107
167
107
107
167
107
107
167
107
107
167
107
107
167
107
107
167
107
107
167
107
107
167
107
107
167
107
107
167
107
107
167
107
107
167
107
107
167
107
107
167
107
107
167
107
107
167
107
107
167
107
107
167
107
107
167
107
107
167
107
107
167
107
107
167
107
107
167
107
107
167
107
107
167
107
107
167
107
107
167
107
107
167
107
107
167
107
107
167
107
107
167
107
107
167
107
107
167
107
107
167
107
107
167
107
107
167
107
107
167
107
107
167
107
107
167
107
107
167
107
107
167
107
107
167
107
107
167
107
107
167
107
107
167
107
107
167
107
107
167
107
107
167
107
107
167
107
107
167
107
107
167
107
107
167
107
107
167
107
107
167
107
107
167
107
107
167
107
107
167
107
107
167
107
107
67
51
27
255
255
255
255
255
255
0
0
0
0
0
0
255
255
255
255
255
255
0
0
0
67
51
27
0
0
0
0
0
0
0
0
0
0
0
0
0
0
0
0
0
0
0
0
0
0
0
0
163
107
63
0
0
0
163
107
63
163
107
63
163
107
63
0
0
0
0
0
0
75
55
27
255
127
27
255
127
27
255
127
27
255
235
223
255
255
255
255
127
27
255
127
27
75
55
27
255
235
223
255
235
223
255
127
27
255
127
27
255
235
223
255
235
223
255
127
27
167
107
107
167
107
107
167
107
107
167
107
107
167
107
107
167
107
107
167
107
107
167
107
107
167
107
107
167
107
107
167
107
107
167
107
107
167
107
107
167
107
107
167
107
107
167
107
107
167
107
107
167
107
107
167
107
107
167
107
107
167
107
107
167
107
107
167
107
107
167
107
107
167
107
107
167
107
107
167
107
107
167
107
107
167
107
107
167
107
107
167
107
107
167
107
107
167
107
107
167
107
107
167
107
107
167
107
107
167
107
107
167
107
107
167
107
107
167
107
107
167
107
107
167
107
107
167
107
107
167
107
107
167
107
107
167
107
107
167
107
107
167
107
107
167
107
107
167
107
107
167
107
107
167
107
107
167
107
107
167
107
107
167
107
107
167
107
107
167
107
107
167
107
107
167
107
107
167
107
107
167
107
107
167
107
107
167
107
107
167
107
107
67
51
27
0
0
0
0
0
0
0
0
0
0
0
0
0
0
0
0
0
0
0
0
0
167
107
107
167
107
107
167
107
107
167
107
107
167
107
107
167
107
107
167
107
107
167
107
107
167
107
107
167
107
107
167
107
107
167
107
107
167
107
107
167
107
107
167
107
107
167
107
107
167
107
107
167
107
107
167
107
107
167
107
107
167
107
107
167
107
107
167
107
107
167
107
107
167
107
107
167
107
107
167
107
107
167
107
107
167
107
107
167
107
107
167
107
107
167
107
107
167
107
107
167
107
107
167
107
107
167
107
107
167
107
107
167
107
107
167
107
107
167
107
107
167
107
107
167
107
107
167
107
107
167
107
107
167
107
107
167
107
107
167
107
107
167
107
107
167
107
107
167
107
107
167
107
107
167
107
107
167
107
107
167
107
107
167
107
107
167
107
107
167
107
107
167
107
107
167
107
107
167
107
107
167
107
107
167
107
107
167
107
107
167
107
107
67
51
27
0
0
0
0
0
0
0
0
0
0
0
0
0
0
0
0
0
0
0
0
0
167
107
107
167
107
107
167
107
107
167
107
107
167
107
107
167
107
107
167
107
107
167
107
107
167
107
107
167
107
107
167
107
107
167
107
107
167
107
107
167
107
107
167
107
107
167
107
107
167
107
107
167
107
107
167
107
107
167
107
107
167
107
107
167
107
107
167
107
107
167
107
107
167
107
107
167
107
107
167
107
107
167
107
107
167
107
107
167
107
107
167
107
107
167
107
107
167
107
107
167
107
107
167
107
107
167
107
107
167
107
107
167
107
107
167
107
107
167
107
107
167
107
107
167
107
107
167
107
107
167
107
107
167
107
107
167
107
107
167
107
107
167
107
107
167
107
107
167
107
107
167
107
107
167
107
107
167
107
107
167
107
107
167
107
107
167
107
107
167
107
107
167
107
107
167
107
107
167
107
107
167
107
107
167
107
107
167
107
107
167
107
107
67
51
27
0
0
0
0
0
0
0
0
0
0
0
0
0
0
0
0
0
0
0
0
0
167
107
107
167
107
107
167
107
107
167
107
107
167
107
107
167
107
107
167
107
107
167
107
107
167
107
107
167
107
107
167
107
107
167
107
107
167
107
107
167
107
107
167
107
107
167
107
107
167
107
107
167
107
107
167
107
107
167
107
107
167
107
107
167
107
107
167
107
107
167
107
107
167
107
107
167
107
107
167
107
107
167
107
107
167
107
107
167
107
107
167
107
107
167
107
107
167
107
107
167
107
107
167
107
107
167
107
107
167
107
107
167
107
107
167
107
107
167
107
107
167
107
107
167
107
107
167
107
107
167
107
107
167
107
107
167
107
107
167
107
107
167
107
107
167
107
107
167
107
107
167
107
107
167
107
107
167
107
107
167
107
107
167
107
107
167
107
107
167
107
107
167
107
107
167
107
107
167
107
107
167
107
107
167
107
107
167
107
107
167
107
107
67
51
27
255
255
255
255
255
255
255
255
255
255
255
255
255
255
255
0
0
0
0
0
0
67
51
27
0
0
0
0
0
0
0
0
0
0
0
0
0
0
0
0
0
0
0
0
0
0
0
0
163
107
63
0
0
0
163
107
63
0
0
0
163
107
63
0
0
0
0
0
0
75
55
27
255
127
27
255
127
27
255
127
27
255
235
223
255
255
255
255
127
27
255
127
27
75
55
27
255
127
27
255
235
223
255
235
223
255
235
223
255
235
223
255
127
27
255
127
27
167
107
107
167
107
107
167
107
107
167
107
107
167
107
107
167
107
107
167
107
107
167
107
107
167
107
107
167
107
107
167
107
107
167
107
107
167
107
107
167
107
107
167
107
107
167
107
107
167
107
107
167
107
107
167
107
107
167
107
107
167
107
107
167
107
107
167
107
107
167
107
107
167
107
107
167
107
107
167
107
107
167
107
107
167
107
107
167
107
107
167
107
107
167
107
107
167
107
107
167
107
107
167
107
107
167
107
107
167
107
107
167
107
107
167
107
107
167
107
107
167
107
107
167
107
107
167
107
107
167
107
107
167
107
107
167
107
107
167
107
107
167
107
107
167
107
107
167
107
107
167
107
107
167
107
107
167
107
107
167
107
107
167
107
107
167
107
107
167
107
107
167
107
107
167
107
107
167
107
107
167
107
107
167
107
107
167
107
107
167
107
107
67
51
27
0
0
0
0
0
0
0
0
0
0
0
0
0
0
0
0
0
0
0
0
0
167
107
107
167
107
107
167
107
107
167
107
107
167
107
107
167
107
107
167
107
107
167
107
107
167
107
107
167
107
107
167
107
107
167
107
107
167
107
107
167
107
107
167
107
107
167
107
107
167
107
107
167
107
107
167
107
107
167
107
107
167
107
107
167
107
107
167
107
107
167
107
107
167
107
107
167
107
107
167
107
107
167
107
107
167
107
107
167
107
107
167
107
107
167
107
107
167
107
107
167
107
107
167
107
107
167
107
107
167
107
107
167
107
107
167
107
107
167
107
107
167
107
107
167
107
107
167
107
107
167
107
107
167
107
107
167
107
107
167
107
107
167
107
107
167
107
107
167
107
107
167
107
107
167
107
107
167
107
107
167
107
107
167
107
107
167
107
107
167
107
107
167
107
107
167
107
107
167
107
107
167
107
107
167
107
107
167
107
107
167
107
107
67
51
27
0
0
0
0
0
0
0
0
0
0
0
0
0
0
0
0
0
0
0
0
0
167
107
107
167
107
107
167
107
107
167
107
107
167
107
107
167
107
107
167
107
107
167
107
107
167
107
107
167
107
107
167
107
107
167
107
107
167
107
107
167
107
107
167
107
107
167
107
107
167
107
107
167
107
107
167
107
107
167
107
107
167
107
107
167
107
107
167
107
107
167
107
107
167
107
107
167
107
107
167
107
107
167
107
107
167
107
107
167
107
107
167
107
107
167
107
107
167
107
107
167
107
107
167
107
107
167
107
107
167
107
107
167
107
107
167
107
107
167
107
107
167
107
107
167
107
107
167
107
107
167
107
107
167
107
107
167
107
107
167
107
107
167
107
107
167
107
107
167
107
107
167
107
107
167
107
107
167
107
107
167
107
107
167
107
107
167
107
107
167
107
107
167
107
107
167
107
107
167
107
107
167
107
107
167
107
107
167
107
107
167
107
107
67
51
27
0
0
0
0
0
0
0
0
0
0
0
0
0
0
0
0
0
0
0
0
0
167
107
107
167
107
107
167
107
107
167
107
107
167
107
107
167
107
107
167
107
107
167
107
107
167
107
107
167
107
107
167
107
107
167
107
107
167
107
107
167
107
107
167
107
107
167
107
107
167
107
107
167
107
107
167
107
107
167
107
107
167
107
107
167
107
107
167
107
107
167
107
107
167
107
107
167
107
107
167
107
107
167
107
107
167
107
107
167
107
107
167
107
107
167
107
107
167
107
107
167
107
107
167
107
107
167
107
107
167
107
107
167
107
107
167
107
107
167
107
107
167
107
107
167
107
107
167
107
107
167
107
107
167
107
107
167
107
107
167
107
107
167
107
107
167
107
107
167
107
107
167
107
107
167
107
107
167
107
107
167
107
107
167
107
107
167
107
107
167
107
107
167
107
107
167
107
107
167
107
107
167
107
107
167
107
107
167
107
107
167
107
107
67
51
27
255
255
255
255
255
255
0
0
0
0
0
0
255
255
255
255
255
255
0
0
0
67
51
27
0
0
0
0
0
0
0
0
0
0
0
0
0
0
0
0
0
0
0
0
0
0
0
0
163
107
63
0
0
0
163
107
63
0
0
0
163
107
63
0
0
0
0
0
0
75
55
27
255
127
27
255
127
27
255
127
27
255
235
223
255
255
255
255
127
27
255
127
27
75
55
27
255
235
223
255
235
223
255
127
27
255
127
27
255
235
223
255
235
223
255
127
27
167
107
107
167
107
107
167
107
107
167
107
107
167
107
107
167
107
107
167
107
107
167
107
107
167
107
107
167
107
107
167
107
107
167
107
107
167
107
107
167
107
107
167
107
107
167
107
107
167
107
107
167
107
107
167
107
107
167
107
107
167
107
107
167
107
107
167
107
107
167
107
107
167
107
107
167
107
107
167
107
107
167
107
107
167
107
107
167
107
107
167
107
107
167
107
107
167
107
107
167
107
107
167
107
107
167
107
107
167
107
107
167
107
107
167
107
107
167
107
107
167
107
107
167
107
107
167
107
107
167
107
107
167
107
107
167
107
107
167
107
107
167
107
107
167
107
107
167
107
107
167
107
107
167
107
107
167
107
107
167
107
107
167
107
107
167
107
107
167
107
107
167
107
107
167
107
107
167
107
107
167
107
107
167
107
107
167
107
107
167
107
107
67
51
27
0
0
0
0
0
0
0
0
0
0
0
0
0
0
0
0
0
0
0
0
0
167
107
107
167
107
107
167
107
107
167
107
107
167
107
107
167
107
107
167
107
107
167
107
107
167
107
107
167
107
107
167
107
107
167
107
107
167
107
107
167
107
107
167
107
107
167
107
107
167
107
107
167
107
107
167
107
107
167
107
107
167
107
107
167
107
107
167
107
107
167
107
107
167
107
107
167
107
107
167
107
107
167
107
107
167
107
107
167
107
107
167
107
107
167
107
107
167
107
107
167
107
107
167
107
107
167
107
107
167
107
107
167
107
107
167
107
107
167
107
107
167
107
107
167
107
107
167
107
107
167
107
107
167
107
107
167
107
107
167
107
107
167
107
107
167
107
107
167
107
107
167
107
107
167
107
107
167
107
107
167
107
107
167
107
107
167
107
107
167
107
107
167
107
107
167
107
107
167
107
107
167
107
107
167
107
107
167
107
107
167
107
107
67
51
27
0
0
0
0
0
0
0
0
0
0
0
0
0
0
0
0
0
0
0
0
0
167
107
107
167
107
107
167
107
107
167
107
107
167
107
107
167
107
107
167
107
107
167
107
107
167
107
107
167
107
107
167
107
107
167
107
107
167
107
107
167
107
107
167
107
107
167
107
107
167
107
107
167
107
107
167
107
107
167
107
107
167
107
107
167
107
107
167
107
107
167
107
107
167
107
107
167
107
107
167
107
107
167
107
107
167
107
107
167
107
107
167
107
107
167
107
107
167
107
107
167
107
107
167
107
107
167
107
107
167
107
107
167
107
107
167
107
107
167
107
107
167
107
107
167
107
107
167
107
107
167
107
107
167
107
107
167
107
107
167
107
107
167
107
107
167
107
107
167
107
107
167
107
107
167
107
107
167
107
107
167
107
107
167
107
107
167
107
107
167
107
107
167
107
107
167
107
107
167
107
107
167
107
107
167
107
107
167
107
107
167
107
107
67
51
27
0
0
0
0
0
0
0
0
0
0
0
0
0
0
0
0
0
0
0
0
0
167
107
107
167
107
107
167
107
107
167
107
107
167
107
107
167
107
107
167
107
107
167
107
107
167
107
107
167
107
107
167
107
107
167
107
107
167
107
107
167
107
107
167
107
107
167
107
107
167
107
107
167
107
107
167
107
107
167
107
107
167
107
107
167
107
107
167
107
107
167
107
107
167
107
107
167
107
107
167
107
107
167
107
107
167
107
107
167
107
107
167
107
107
167
107
107
167
107
107
167
107
107
167
107
107
167
107
107
167
107
107
167
107
107
167
107
107
167
107
107
167
107
107
167
107
107
167
107
107
167
107
107
167
107
107
167
107
107
167
107
107
167
107
107
167
107
107
167
107
107
167
107
107
167
107
107
167
107
107
167
107
107
167
107
107
167
107
107
167
107
107
167
107
107
167
107
107
167
107
107
167
107
107
167
107
107
167
107
107
167
107
107
67
51
27
255
255
255
255
255
255
67
51
27
67
51
27
255
255
255
255
255
255
0
0
0
67
51
27
0
0
0
0
0
0
0
0
0
0
0
0
0
0
0
0
0
0
0
0
0
0
0
0
163
107
63
163
107
63
163
107
63
0
0
0
163
107
63
0
0
0
0
0
0
75
55
27
255
127
27
255
127
27
255
127
27
255
235
223
255
255
255
255
127
27
255
127
27
75
55
27
255
235
223
255
235
223
255
127
27
255
127
27
255
235
223
255
235
223
255
127
27
167
107
107
167
107
107
167
107
107
167
107
107
167
107
107
167
107
107
167
107
107
167
107
107
167
107
107
167
107
107
167
107
107
167
107
107
167
107
107
167
107
107
167
107
107
167
107
107
167
107
107
167
107
107
167
107
107
167
107
107
167
107
107
167
107
107
167
107
107
167
107
107
167
107
107
167
107
107
167
107
107
167
107
107
167
107
107
167
107
107
167
107
107
167
107
107
167
107
107
167
107
107
167
107
107
167
107
107
167
107
107
167
107
107
167
107
107
167
107
107
167
107
107
167
107
107
167
107
107
167
107
107
167
107
107
167
107
107
167
107
107
167
107
107
167
107
107
167
107
107
167
107
107
167
107
107
167
107
107
167
107
107
167
107
107
167
107
107
167
107
107
167
107
107
167
107
107
167
107
107
167
107
107
167
107
107
167
107
107
167
107
107
67
51
27
0
0
0
0
0
0
0
0
0
0
0
0
0
0
0
0
0
0
0
0
0
167
107
107
167
107
107
167
107
107
167
107
107
167
107
107
167
107
107
167
107
107
167
107
107
167
107
107
167
107
107
167
107
107
167
107
107
167
107
107
167
107
107
167
107
107
167
107
107
167
107
107
167
107
107
167
107
107
167
107
107
167
107
107
167
107
107
167
107
107
167
107
107
167
107
107
167
107
107
167
107
107
167
107
107
167
107
107
167
107
107
167
107
107
167
107
107
167
107
107
167
107
107
167
107
107
167
107
107
167
107
107
167
107
107
167
107
107
167
107
107
167
107
107
167
107
107
167
107
107
167
107
107
167
107
107
167
107
107
167
107
107
167
107
107
167
107
107
167
107
107
167
107
107
167
107
107
167
107
107
167
107
107
167
107
107
167
107
107
167
107
107
167
107
107
167
107
107
167
107
107
167
107
107
167
107
107
167
107
107
167
107
107
67
51
27
0
0
0
0
0
0
0
0
0
0
0
0
0
0
0
0
0
0
0
0
0
167
107
107
167
107
107
167
107
107
167
107
107
167
107
107
167
107
107
167
107
107
167
107
107
167
107
107
167
107
107
167
107
107
167
107
107
167
107
107
167
107
107
167
107
107
167
107
107
167
107
107
167
107
107
167
107
107
167
107
107
167
107
107
167
107
107
167
107
107
167
107
107
167
107
107
167
107
107
167
107
107
167
107
107
167
107
107
167
107
107
167
107
107
167
107
107
167
107
107
167
107
107
167
107
107
167
107
107
167
107
107
167
107
107
167
107
107
167
107
107
167
107
107
167
107
107
167
107
107
167
107
107
167
107
107
167
107
107
167
107
107
167
107
107
167
107
107
167
107
107
167
107
107
167
107
107
167
107
107
167
107
107
167
107
107
167
107
107
167
107
107
167
107
107
167
107
107
167
107
107
167
107
107
167
107
107
167
107
107
167
107
107
67
51
27
0
0
0
0
0
0
0
0
0
0
0
0
0
0
0
0
0
0
0
0
0
167
107
107
167
107
107
167
107
107
167
107
107
167
107
107
167
107
107
167
107
107
167
107
107
167
107
107
167
107
107
167
107
107
167
107
107
167
107
107
167
107
107
167
107
107
167
107
107
167
107
107
167
107
107
167
107
107
167
107
107
167
107
107
167
107
107
167
107
107
167
107
107
167
107
107
167
107
107
167
107
107
167
107
107
167
107
107
167
107
107
167
107
107
167
107
107
167
107
107
167
107
107
167
107
107
167
107
107
167
107
107
167
107
107
167
107
107
167
107
107
167
107
107
167
107
107
167
107
107
167
107
107
167
107
107
167
107
107
167
107
107
167
107
107
167
107
107
167
107
107
167
107
107
167
107
107
167
107
107
167
107
107
167
107
107
167
107
107
167
107
107
167
107
107
167
107
107
167
107
107
167
107
107
167
107
107
167
107
107
167
107
107
67
51
27
255
255
255
255
255
255
255
255
255
255
255
255
255
255
255
0
0
0
0
0
0
67
51
27
0
0
0
0
0
0
0
0
0
0
0
0
0
0
0
0
0
0
0
0
0
0
0
0
0
0
0
163
107
63
0
0
0
0
0
0
163
107
63
0
0
0
0
0
0
75
55
27
255
127
27
255
127
27
255
255
255
255
255
255
255
255
255
255
255
255
255
127
27
75
55
27
255
127
27
255
235
223
255
235
223
255
235
223
255
235
223
255
127
27
255
127
27
167
107
107
167
107
107
167
107
107
167
107
107
167
107
107
167
107
107
167
107
107
167
107
107
167
107
107
167
107
107
167
107
107
167
107
107
167
107
107
167
107
107
167
107
107
167
107
107
167
107
107
167
107
107
167
107
107
167
107
107
167
107
107
167
107
107
167
107
107
167
107
107
167
107
107
167
107
107
167
107
107
167
107
107
167
107
107
167
107
107
167
107
107
167
107
107
167
107
107
167
107
107
167
107
107
167
107
107
167
107
107
167
107
107
167
107
107
167
107
107
167
107
107
167
107
107
167
107
107
167
107
107
167
107
107
167
107
107
167
107
107
167
107
107
167
107
107
167
107
107
167
107
107
167
107
107
167
107
107
167
107
107
167
107
107
167
107
107
167
107
107
167
107
107
167
107
107
167
107
107
167
107
107
167
107
107
167
107
107
167
107
107
67
51
27
0
0
0
0
0
0
0
0
0
0
0
0
0
0
0
0
0
0
0
0
0
167
107
107
167
107
107
167
107
107
167
107
107
167
107
107
167
107
107
167
107
107
167
107
107
167
107
107
167
107
107
167
107
107
167
107
107
167
107
107
167
107
107
167
107
107
167
107
107
167
107
107
167
107
107
167
107
107
167
107
107
167
107
107
167
107
107
167
107
107
167
107
107
167
107
107
167
107
107
167
107
107
167
107
107
167
107
107
167
107
107
167
107
107
167
107
107
167
107
107
167
107
107
167
107
107
167
107
107
167
107
107
167
107
107
167
107
107
167
107
107
167
107
107
167
107
107
167
107
107
167
107
107
167
107
107
167
107
107
167
107
107
167
107
107
167
107
107
167
107
107
167
107
107
167
107
107
167
107
107
167
107
107
167
107
107
167
107
107
167
107
107
167
107
107
167
107
107
167
107
107
167
107
107
167
107
107
167
107
107
167
107
107
67
51
27
0
0
0
0
0
0
0
0
0
0
0
0
0
0
0
0
0
0
0
0
0
167
107
107
167
107
107
167
107
107
167
107
107
167
107
107
167
107
107
167
107
107
167
107
107
167
107
107
167
107
107
167
107
107
167
107
107
167
107
107
167
107
107
167
107
107
167
107
107
167
107
107
167
107
107
167
107
107
167
107
107
167
107
107
167
107
107
167
107
107
167
107
107
167
107
107
167
107
107
167
107
107
167
107
107
167
107
107
167
107
107
167
107
107
167
107
107
167
107
107
167
107
107
167
107
107
167
107
107
167
107
107
167
107
107
167
107
107
167
107
107
167
107
107
167
107
107
167
107
107
167
107
107
167
107
107
167
107
107
167
107
107
167
107
107
167
107
107
167
107
107
167
107
107
167
107
107
167
107
107
167
107
107
167
107
107
167
107
107
167
107
107
167
107
107
167
107
107
167
107
107
167
107
107
167
107
107
167
107
107
167
107
107
67
51
27
0
0
0
0
0
0
0
0
0
0
0
0
0
0
0
0
0
0
0
0
0
167
107
107
167
107
107
167
107
107
167
107
107
167
107
107
167
107
107
167
107
107
167
107
107
167
107
107
167
107
107
167
107
107
167
107
107
167
107
107
167
107
107
167
107
107
167
107
107
167
107
107
167
107
107
167
107
107
167
107
107
167
107
107
167
107
107
167
107
107
167
107
107
167
107
107
167
107
107
167
107
107
167
107
107
167
107
107
167
107
107
167
107
107
167
107
107
167
107
107
167
107
107
167
107
107
167
107
107
167
107
107
167
107
107
167
107
107
167
107
107
167
107
107
167
107
107
167
107
107
167
107
107
167
107
107
167
107
107
167
107
107
167
107
107
167
107
107
167
107
107
167
107
107
167
107
107
167
107
107
167
107
107
167
107
107
167
107
107
167
107
107
167
107
107
167
107
107
167
107
107
167
107
107
167
107
107
167
107
107
167
107
107
67
51
27
67
51
27
0
0
0
0
0
0
0
0
0
0
0
0
0
0
0
0
0
0
67
51
27
0
0
0
0
0
0
0
0
0
0
0
0
0
0
0
0
0
0
0
0
0
0
0
0
0
0
0
0
0
0
0
0
0
0
0
0
0
0
0
0
0
0
0
0
0
75
55
27
75
55
27
75
55
27
75
55
27
67
51
27
67
51
27
67
51
27
67
51
27
75
55
27
75
55
27
75
55
27
75
55
27
67
51
27
67
51
27
67
51
27
67
51
27
167
107
107
167
107
107
167
107
107
167
107
107
167
107
107
167
107
107
167
107
107
167
107
107
167
107
107
167
107
107
167
107
107
167
107
107
167
107
107
167
107
107
167
107
107
167
107
107
167
107
107
167
107
107
167
107
107
167
107
107
167
107
107
167
107
107
167
107
107
167
107
107
167
107
107
167
107
107
167
107
107
167
107
107
167
107
107
167
107
107
167
107
107
167
107
107
167
107
107
167
107
107
167
107
107
167
107
107
167
107
107
167
107
107
167
107
107
167
107
107
167
107
107
167
107
107
167
107
107
167
107
107
167
107
107
167
107
107
167
107
107
167
107
107
167
107
107
167
107
107
167
107
107
167
107
107
167
107
107
167
107
107
167
107
107
167
107
107
167
107
107
167
107
107
167
107
107
167
107
107
167
107
107
167
107
107
167
107
107
167
107
107
67
51
27
67
51
27
67
51
27
67
51
27
67
51
27
67
51
27
67
51
27
67
51
27
167
107
107
167
107
107
167
107
107
167
107
107
167
107
107
167
107
107
167
107
107
167
107
107
167
107
107
167
107
107
167
107
107
167
107
107
167
107
107
167
107
107
167
107
107
167
107
107
167
107
107
167
107
107
167
107
107
167
107
107
167
107
107
167
107
107
167
107
107
167
107
107
167
107
107
167
107
107
167
107
107
167
107
107
167
107
107
167
107
107
167
107
107
167
107
107
167
107
107
167
107
107
167
107
107
167
107
107
167
107
107
167
107
107
167
107
107
167
107
107
167
107
107
167
107
107
167
107
107
167
107
107
167
107
107
167
107
107
167
107
107
167
107
107
167
107
107
167
107
107
167
107
107
167
107
107
167
107
107
167
107
107
167
107
107
167
107
107
167
107
107
167
107
107
167
107
107
167
107
107
167
107
107
167
107
107
167
107
107
167
107
107
67
51
27
67
51
27
67
51
27
67
51
27
67
51
27
67
51
27
67
51
27
67
51
27
167
107
107
167
107
107
167
107
107
167
107
107
167
107
107
167
107
107
167
107
107
167
107
107
167
107
107
167
107
107
167
107
107
167
107
107
167
107
107
167
107
107
167
107
107
167
107
107
167
107
107
167
107
107
167
107
107
167
107
107
167
107
107
167
107
107
167
107
107
167
107
107
167
107
107
167
107
107
167
107
107
167
107
107
167
107
107
167
107
107
167
107
107
167
107
107
167
107
107
167
107
107
167
107
107
167
107
107
167
107
107
167
107
107
167
107
107
167
107
107
167
107
107
167
107
107
167
107
107
167
107
107
167
107
107
167
107
107
167
107
107
167
107
107
167
107
107
167
107
107
167
107
107
167
107
107
167
107
107
167
107
107
167
107
107
167
107
107
167
107
107
167
107
107
167
107
107
167
107
107
167
107
107
167
107
107
167
107
107
167
107
107
67
51
27
67
51
27
67
51
27
67
51
27
67
51
27
67
51
27
67
51
27
67
51
27
167
107
107
167
107
107
167
107
107
167
107
107
167
107
107
167
107
107
167
107
107
167
107
107
167
107
107
167
107
107
167
107
107
167
107
107
167
107
107
167
107
107
167
107
107
167
107
107
167
107
107
167
107
107
167
107
107
167
107
107
167
107
107
167
107
107
167
107
107
167
107
107
167
107
107
167
107
107
167
107
107
167
107
107
167
107
107
167
107
107
167
107
107
167
107
107
167
107
107
167
107
107
167
107
107
167
107
107
167
107
107
167
107
107
167
107
107
167
107
107
167
107
107
167
107
107
167
107
107
167
107
107
167
107
107
167
107
107
167
107
107
167
107
107
167
107
107
167
107
107
167
107
107
167
107
107
167
107
107
167
107
107
167
107
107
167
107
107
167
107
107
167
107
107
167
107
107
167
107
107
167
107
107
167
107
107
167
107
107
167
107
107
67
51
27
67
51
27
67
51
27
67
51
27
67
51
27
67
51
27
67
51
27
67
51
27
67
51
27
67
51
27
67
51
27
67
51
27
67
51
27
67
51
27
67
51
27
67
51
27
0
0
0
0
0
0
0
0
0
0
0
0
0
0
0
0
0
0
0
0
0
0
0
0
75
55
27
255
127
27
255
127
27
255
127
27
255
235
223
255
255
255
255
127
27
255
127
27
75
55
27
255
127
27
255
235
223
255
235
223
255
235
223
255
235
223
255
127
27
255
127
27
167
107
107
167
107
107
167
107
107
167
107
107
167
107
107
167
107
107
167
107
107
167
107
107
167
107
107
167
107
107
167
107
107
167
107
107
167
107
107
167
107
107
167
107
107
167
107
107
167
107
107
167
107
107
167
107
107
167
107
107
167
107
107
167
107
107
167
107
107
167
107
107
167
107
107
167
107
107
167
107
107
167
107
107
167
107
107
167
107
107
167
107
107
167
107
107
167
107
107
167
107
107
167
107
107
167
107
107
167
107
107
167
107
107
167
107
107
167
107
107
167
107
107
167
107
107
167
107
107
167
107
107
167
107
107
167
107
107
167
107
107
167
107
107
167
107
107
167
107
107
167
107
107
167
107
107
167
107
107
167
107
107
167
107
107
167
107
107
167
107
107
167
107
107
167
107
107
167
107
107
167
107
107
167
107
107
167
107
107
167
107
107
67
51
27
0
0
0
0
0
0
0
0
0
0
0
0
0
0
0
0
0
0
0
0
0
167
107
107
167
107
107
167
107
107
167
107
107
167
107
107
167
107
107
167
107
107
167
107
107
167
107
107
167
107
107
167
107
107
167
107
107
167
107
107
167
107
107
167
107
107
167
107
107
167
107
107
167
107
107
167
107
107
167
107
107
167
107
107
167
107
107
167
107
107
167
107
107
167
107
107
167
107
107
167
107
107
167
107
107
167
107
107
167
107
107
167
107
107
167
107
107
167
107
107
167
107
107
167
107
107
167
107
107
167
107
107
167
107
107
167
107
107
167
107
107
167
107
107
167
107
107
167
107
107
167
107
107
167
107
107
167
107
107
167
107
107
167
107
107
167
107
107
167
107
107
167
107
107
167
107
107
167
107
107
167
107
107
167
107
107
167
107
107
167
107
107
167
107
107
167
107
107
167
107
107
167
107
107
167
107
107
167
107
107
167
107
107
67
51
27
0
0
0
0
0
0
0
0
0
0
0
0
0
0
0
0
0
0
0
0
0
167
107
107
167
107
107
167
107
107
167
107
107
167
107
107
167
107
107
167
107
107
167
107
107
167
107
107
167
107
107
167
107
107
167
107
107
167
107
107
167
107
107
167
107
107
167
107
107
167
107
107
167
107
107
167
107
107
167
107
107
167
107
107
167
107
107
167
107
107
167
107
107
167
107
107
167
107
107
167
107
107
167
107
107
167
107
107
167
107
107
167
107
107
167
107
107
167
107
107
167
107
107
167
107
107
167
107
107
167
107
107
167
107
107
167
107
107
167
107
107
167
107
107
167
107
107
167
107
107
167
107
107
167
107
107
167
107
107
167
107
107
167
107
107
167
107
107
167
107
107
167
107
107
167
107
107
167
107
107
167
107
107
167
107
107
167
107
107
167
107
107
167
107
107
167
107
107
167
107
107
167
107
107
167
107
107
167
107
107
167
107
107
67
51
27
0
0
0
0
0
0
0
0
0
0
0
0
0
0
0
0
0
0
0
0
0
167
107
107
167
107
107
167
107
107
167
107
107
167
107
107
167
107
107
167
107
107
167
107
107
167
107
107
167
107
107
167
107
107
167
107
107
167
107
107
167
107
107
167
107
107
167
107
107
167
107
107
167
107
107
167
107
107
167
107
107
167
107
107
167
107
107
167
107
107
167
107
107
167
107
107
167
107
107
167
107
107
167
107
107
167
107
107
167
107
107
167
107
107
167
107
107
167
107
107
167
107
107
167
107
107
167
107
107
167
107
107
167
107
107
167
107
107
167
107
107
167
107
107
167
107
107
167
107
107
167
107
107
167
107
107
167
107
107
167
107
107
167
107
107
167
107
107
167
107
107
167
107
107
167
107
107
167
107
107
167
107
107
167
107
107
167
107
107
167
107
107
167
107
107
167
107
107
167
107
107
167
107
107
167
107
107
167
107
107
167
107
107
67
51
27
67
51
27
0
0
0
255
255
255
255
255
255
0
0
0
0
0
0
0
0
0
67
51
27
0
0
0
0
0
0
0
0
0
0
0
0
0
0
0
0
0
0
0
0
0
0
0
0
0
0
0
0
0
0
0
0
0
0
0
0
0
0
0
0
0
0
0
0
0
75
55
27
255
127
27
255
127
27
255
255
255
255
235
223
255
255
255
255
127
27
255
127
27
75
55
27
255
235
223
255
235
223
255
127
27
255
127
27
255
235
223
255
235
223
255
127
27
167
107
107
167
107
107
167
107
107
167
107
107
167
107
107
167
107
107
167
107
107
167
107
107
167
107
107
167
107
107
167
107
107
167
107
107
167
107
107
167
107
107
167
107
107
167
107
107
167
107
107
167
107
107
167
107
107
167
107
107
167
107
107
167
107
107
167
107
107
167
107
107
255
0
0
255
0
0
167
107
107
167
107
107
167
107
107
255
0
0
255
0
0
167
107
107
167
107
107
255
0
0
255
0
0
255
0
0
255
0
0
255
0
0
167
107
107
167
107
107
167
107
107
167
107
107
167
107
107
167
107
107
167
107
107
167
107
107
167
107
107
167
107
107
167
107
107
167
107
107
167
107
107
167
107
107
167
107
107
167
107
107
167
107
107
167
107
107
167
107
107
167
107
107
167
107
107
167
107
107
167
107
107
167
107
107
167
107
107
167
107
107
67
51
27
0
0
0
0
0
0
0
0
0
0
0
0
0
0
0
0
0
0
0
0
0
167
107
107
167
107
107
167
107
107
167
107
107
167
107
107
167
107
107
167
107
107
167
107
107
167
107
107
167
107
107
167
107
107
167
107
107
167
107
107
167
107
107
167
107
107
167
107
107
167
107
107
167
107
107
167
107
107
167
107
107
167
107
107
167
107
107
167
107
107
167
107
107
255
0
0
255
0
0
167
107
107
167
107
107
167
107
107
255
0
0
255
0
0
167
107
107
167
107
107
255
0
0
255
0
0
255
0
0
255
0
0
255
0
0
167
107
107
167
107
107
167
107
107
167
107
107
167
107
107
167
107
107
167
107
107
167
107
107
167
107
107
167
107
107
167
107
107
167
107
107
167
107
107
167
107
107
167
107
107
167
107
107
167
107
107
167
107
107
167
107
107
167
107
107
167
107
107
167
107
107
167
107
107
167
107
107
167
107
107
167
107
107
67
51
27
0
0
0
0
0
0
0
0
0
0
0
0
0
0
0
0
0
0
0
0
0
167
107
107
167
107
107
167
107
107
167
107
107
167
107
107
167
107
107
167
107
107
167
107
107
167
107
107
167
107
107
167
107
107
167
107
107
167
107
107
167
107
107
167
107
107
167
107
107
167
107
107
167
107
107
167
107
107
167
107
107
167
107
107
167
107
107
167
107
107
167
107
107
167
107
107
167
107
107
167
107
107
167
107
107
167
107
107
167
107
107
167
107
107
167
107
107
167
107
107
167
107
107
167
107
107
167
107
107
167
107
107
167
107
107
167
107
107
167
107
107
167
107
107
167
107
107
167
107
107
167
107
107
167
107
107
167
107
107
167
107
107
167
107
107
167
107
107
167
107
107
167
107
107
167
107
107
167
107
107
167
107
107
167
107
107
167
107
107
167
107
107
167
107
107
167
107
107
167
107
107
167
107
107
167
107
107
167
107
107
167
107
107
67
51
27
0
0
0
0
0
0
0
0
0
0
0
0
0
0
0
0
0
0
0
0
0
167
107
107
167
107
107
167
107
107
167
107
107
167
107
107
167
107
107
167
107
107
167
107
107
167
107
107
167
107
107
167
107
107
167
107
107
167
107
107
167
107
107
167
107
107
167
107
107
167
107
107
167
107
107
167
107
107
167
107
107
167
107
107
167
107
107
167
107
107
167
107
107
167
107
107
167
107
107
167
107
107
167
107
107
167
107
107
167
107
107
167
107
107
167
107
107
167
107
107
167
107
107
167
107
107
167
107
107
167
107
107
167
107
107
167
107
107
167
107
107
167
107
107
167
107
107
167
107
107
167
107
107
167
107
107
167
107
107
167
107
107
167
107
107
167
107
107
167
107
107
167
107
107
167
107
107
167
107
107
167
107
107
167
107
107
167
107
107
167
107
107
167
107
107
167
107
107
167
107
107
167
107
107
167
107
107
167
107
107
167
107
107
67
51
27
67
51
27
255
255
255
255
255
255
255
255
255
255
255
255
0
0
0
0
0
0
67
51
27
0
0
0
0
0
0
0
0
0
0
0
0
0
0
0
0
0
0
0
0
0
0
0
0
0
0
0
0
0
0
0
0
0
0
0
0
0
0
0
0
0
0
0
0
0
75
55
27
255
127
27
255
127
27
255
127
27
255
235
223
255
255
255
255
127
27
255
127
27
75
55
27
255
235
223
255
235
223
255
127
27
255
127
27
255
235
223
255
235
223
255
127
27
167
107
107
167
107
107
167
107
107
167
107
107
167
107
107
167
107
107
167
107
107
167
107
107
167
107
107
167
107
107
167
107
107
167
107
107
167
107
107
167
107
107
167
107
107
167
107
107
167
107
107
167
107
107
167
107
107
167
107
107
167
107
107
167
107
107
167
107
107
167
107
107
255
0
0
255
0
0
255
0
0
167
107
107
167
107
107
255
0
0
255
0
0
167
107
107
255
0
0
255
0
0
167
107
107
167
107
107
167
107
107
167
107
107
167
107
107
167
107
107
167
107
107
167
107
107
167
107
107
167
107
107
167
107
107
167
107
107
167
107
107
167
107
107
167
107
107
167
107
107
167
107
107
167
107
107
167
107
107
167
107
107
167
107
107
167
107
107
167
107
107
167
107
107
167
107
107
167
107
107
167
107
107
167
107
107
167
107
107
167
107
107
67
51
27
0
0
0
0
0
0
0
0
0
0
0
0
0
0
0
0
0
0
0
0
0
167
107
107
167
107
107
167
107
107
167
107
107
167
107
107
167
107
107
167
107
107
167
107
107
167
107
107
167
107
107
167
107
107
167
107
107
167
107
107
167
107
107
167
107
107
167
107
107
167
107
107
167
107
107
167
107
107
167
107
107
167
107
107
167
107
107
167
107
107
167
107
107
255
0
0
255
0
0
255
0
0
167
107
107
167
107
107
255
0
0
255
0
0
167
107
107
255
0
0
255
0
0
167
107
107
167
107
107
167
107
107
167
107
107
167
107
107
167
107
107
167
107
107
167
107
107
167
107
107
167
107
107
167
107
107
167
107
107
167
107
107
167
107
107
167
107
107
167
107
107
167
107
107
167
107
107
167
107
107
167
107
107
167
107
107
167
107
107
167
107
107
167
107
107
167
107
107
167
107
107
167
107
107
167
107
107
167
107
107
167
107
107
67
51
27
0
0
0
0
0
0
0
0
0
0
0
0
0
0
0
0
0
0
0
0
0
167
107
107
167
107
107
167
107
107
167
107
107
167
107
107
167
107
107
167
107
107
167
107
107
167
107
107
167
107
107
167
107
107
167
107
107
167
107
107
167
107
107
167
107
107
167
107
107
167
107
107
167
107
107
167
107
107
167
107
107
167
107
107
167
107
107
167
107
107
167
107
107
255
0
0
255
0
0
167
107
107
167
107
107
167
107
107
255
0
0
255
0
0
167
107
107
167
107
107
255
0
0
255
0
0
255
0
0
255
0
0
255
0
0
167
107
107
167
107
107
167
107
107
167
107
107
167
107
107
167
107
107
167
107
107
167
107
107
167
107
107
167
107
107
167
107
107
167
107
107
167
107
107
167
107
107
167
107
107
167
107
107
167
107
107
167
107
107
167
107
107
167
107
107
167
107
107
167
107
107
167
107
107
167
107
107
167
107
107
167
107
107
67
51
27
0
0
0
0
0
0
0
0
0
0
0
0
0
0
0
0
0
0
0
0
0
167
107
107
167
107
107
167
107
107
167
107
107
167
107
107
167
107
107
167
107
107
167
107
107
167
107
107
167
107
107
167
107
107
167
107
107
167
107
107
167
107
107
167
107
107
167
107
107
167
107
107
167
107
107
167
107
107
167
107
107
167
107
107
167
107
107
167
107
107
167
107
107
167
107
107
167
107
107
167
107
107
167
107
107
167
107
107
167
107
107
167
107
107
167
107
107
167
107
107
167
107
107
167
107
107
167
107
107
167
107
107
167
107
107
167
107
107
167
107
107
167
107
107
167
107
107
167
107
107
167
107
107
167
107
107
167
107
107
167
107
107
167
107
107
167
107
107
167
107
107
167
107
107
167
107
107
167
107
107
167
107
107
167
107
107
167
107
107
167
107
107
167
107
107
167
107
107
167
107
107
167
107
107
167
107
107
167
107
107
167
107
107
67
51
27
255
255
255
255
255
255
0
0
0
0
0
0
255
255
255
255
255
255
0
0
0
67
51
27
0
0
0
0
0
0
0
0
0
0
0
0
0
0
0
0
0
0
0
0
0
0
0
0
0
0
0
0
0
0
0
0
0
0
0
0
0
0
0
0
0
0
0
0
0
75
55
27
255
127
27
255
127
27
255
127
27
255
235
223
255
255
255
255
127
27
255
127
27
75
55
27
255
127
27
255
235
223
255
235
223
255
235
223
255
235
223
255
235
223
255
127
27
167
107
107
167
107
107
167
107
107
167
107
107
167
107
107
167
107
107
167
107
107
167
107
107
167
107
107
167
107
107
167
107
107
167
107
107
167
107
107
167
107
107
167
107
107
167
107
107
167
107
107
167
107
107
167
107
107
167
107
107
167
107
107
167
107
107
167
107
107
167
107
107
255
0
0
255
0
0
255
0
0
255
0
0
167
107
107
255
0
0
255
0
0
167
107
107
255
0
0
255
0
0
167
107
107
167
107
107
167
107
107
167
107
107
167
107
107
167
107
107
167
107
107
167
107
107
167
107
107
167
107
107
167
107
107
167
107
107
167
107
107
167
107
107
167
107
107
167
107
107
167
107
107
167
107
107
167
107
107
167
107
107
167
107
107
167
107
107
167
107
107
167
107
107
167
107
107
167
107
107
167
107
107
167
107
107
167
107
107
167
107
107
67
51
27
0
0
0
0
0
0
0
0
0
0
0
0
0
0
0
0
0
0
0
0
0
167
107
107
167
107
107
167
107
107
167
107
107
167
107
107
167
107
107
167
107
107
167
107
107
167
107
107
167
107
107
167
107
107
167
107
107
167
107
107
167
107
107
167
107
107
167
107
107
167
107
107
167
107
107
167
107
107
167
107
107
167
107
107
167
107
107
167
107
107
167
107
107
255
0
0
255
0
0
255
0
0
255
0
0
167
107
107
255
0
0
255
0
0
167
107
107
255
0
0
255
0
0
167
107
107
167
107
107
167
107
107
167
107
107
167
107
107
167
107
107
167
107
107
167
107
107
167
107
107
167
107
107
167
107
107
167
107
107
167
107
107
167
107
107
167
107
107
167
107
107
167
107
107
167
107
107
167
107
107
167
107
107
167
107
107
167
107
107
167
107
107
167
107
107
167
107
107
167
107
107
167
107
107
167
107
107
167
107
107
167
107
107
67
51
27
0
0
0
0
0
0
0
0
0
0
0
0
0
0
0
0
0
0
0
0
0
167
107
107
167
107
107
167
107
107
167
107
107
167
107
107
167
107
107
167
107
107
167
107
107
167
107
107
167
107
107
167
107
107
167
107
107
167
107
107
167
107
107
167
107
107
167
107
107
167
107
107
167
107
107
167
107
107
167
107
107
167
107
107
167
107
107
167
107
107
167
107
107
255
0
0
255
0
0
255
0
0
167
107
107
167
107
107
255
0
0
255
0
0
167
107
107
255
0
0
255
0
0
167
107
107
167
107
107
167
107
107
167
107
107
167
107
107
167
107
107
167
107
107
167
107
107
167
107
107
167
107
107
167
107
107
167
107
107
167
107
107
167
107
107
167
107
107
167
107
107
167
107
107
167
107
107
167
107
107
167
107
107
167
107
107
167
107
107
167
107
107
167
107
107
167
107
107
167
107
107
167
107
107
167
107
107
167
107
107
167
107
107
67
51
27
0
0
0
0
0
0
0
0
0
0
0
0
0
0
0
0
0
0
0
0
0
167
107
107
167
107
107
167
107
107
167
107
107
167
107
107
167
107
107
167
107
107
167
107
107
167
107
107
167
107
107
167
107
107
167
107
107
167
107
107
167
107
107
167
107
107
167
107
107
167
107
107
167
107
107
167
107
107
167
107
107
167
107
107
167
107
107
167
107
107
167
107
107
167
107
107
167
107
107
167
107
107
167
107
107
167
107
107
167
107
107
167
107
107
167
107
107
167
107
107
167
107
107
167
107
107
167
107
107
167
107
107
167
107
107
167
107
107
167
107
107
167
107
107
167
107
107
167
107
107
167
107
107
167
107
107
167
107
107
167
107
107
167
107
107
167
107
107
167
107
107
167
107
107
167
107
107
167
107
107
167
107
107
167
107
107
167
107
107
167
107
107
167
107
107
167
107
107
167
107
107
167
107
107
167
107
107
167
107
107
167
107
107
67
51
27
255
255
255
255
255
255
0
0
0
0
0
0
255
255
255
255
255
255
0
0
0
67
51
27
0
0
0
0
0
0
0
0
0
0
0
0
0
0
0
0
0
0
0
0
0
0
0
0
0
0
0
0
0
0
0
0
0
0
0
0
0
0
0
0
0
0
0
0
0
75
55
27
255
127
27
255
127
27
255
127
27
255
235
223
255
255
255
255
127
27
255
127
27
75
55
27
255
127
27
255
127
27
255
127
27
255
127
27
255
235
223
255
235
223
255
127
27
167
107
107
167
107
107
167
107
107
167
107
107
167
107
107
167
107
107
167
107
107
167
107
107
167
107
107
167
107
107
167
107
107
167
107
107
167
107
107
167
107
107
167
107
107
167
107
107
167
107
107
167
107
107
167
107
107
167
107
107
167
107
107
167
107
107
167
107
107
167
107
107
255
0
0
255
0
0
167
107
107
255
0
0
255
0
0
255
0
0
255
0
0
167
107
107
255
0
0
255
0
0
167
107
107
167
107
107
167
107
107
167
107
107
167
107
107
167
107
107
167
107
107
167
107
107
167
107
107
167
107
107
167
107
107
167
107
107
167
107
107
167
107
107
167
107
107
167
107
107
167
107
107
167
107
107
167
107
107
167
107
107
167
107
107
167
107
107
167
107
107
167
107
107
167
107
107
167
107
107
167
107
107
167
107
107
167
107
107
167
107
107
67
51
27
0
0
0
0
0
0
0
0
0
0
0
0
0
0
0
0
0
0
0
0
0
167
107
107
167
107
107
167
107
107
167
107
107
167
107
107
167
107
107
167
107
107
167
107
107
167
107
107
167
107
107
167
107
107
167
107
107
167
107
107
167
107
107
167
107
107
167
107
107
167
107
107
167
107
107
167
107
107
167
107
107
167
107
107
167
107
107
167
107
107
167
107
107
255
0
0
255
0
0
167
107
107
255
0
0
255
0
0
255
0
0
255
0
0
167
107
107
255
0
0
255
0
0
167
107
107
167
107
107
167
107
107
167
107
107
167
107
107
167
107
107
167
107
107
167
107
107
167
107
107
167
107
107
167
107
107
167
107
107
167
107
107
167
107
107
167
107
107
167
107
107
167
107
107
167
107
107
167
107
107
167
107
107
167
107
107
167
107
107
167
107
107
167
107
107
167
107
107
167
107
107
167
107
107
167
107
107
167
107
107
167
107
107
67
51
27
0
0
0
0
0
0
0
0
0
0
0
0
0
0
0
0
0
0
0
0
0
167
107
107
167
107
107
167
107
107
167
107
107
167
107
107
167
107
107
167
107
107
167
107
107
167
107
107
167
107
107
167
107
107
167
107
107
167
107
107
167
107
107
167
107
107
167
107
107
167
107
107
167
107
107
167
107
107
167
107
107
167
107
107
167
107
107
167
107
107
167
107
107
255
0
0
255
0
0
255
0
0
255
0
0
167
107
107
255
0
0
255
0
0
167
107
107
255
0
0
255
0
0
167
107
107
167
107
107
167
107
107
167
107
107
167
107
107
167
107
107
167
107
107
167
107
107
167
107
107
167
107
107
167
107
107
167
107
107
167
107
107
167
107
107
167
107
107
167
107
107
167
107
107
167
107
107
167
107
107
167
107
107
167
107
107
167
107
107
167
107
107
167
107
107
167
107
107
167
107
107
167
107
107
167
107
107
167
107
107
167
107
107
67
51
27
0
0
0
0
0
0
0
0
0
0
0
0
0
0
0
0
0
0
0
0
0
167
107
107
167
107
107
167
107
107
167
107
107
167
107
107
167
107
107
167
107
107
167
107
107
167
107
107
167
107
107
167
107
107
167
107
107
167
107
107
167
107
107
167
107
107
167
107
107
167
107
107
167
107
107
167
107
107
167
107
107
167
107
107
167
107
107
167
107
107
167
107
107
167
107
107
167
107
107
167
107
107
167
107
107
167
107
107
167
107
107
167
107
107
167
107
107
167
107
107
167
107
107
167
107
107
167
107
107
167
107
107
167
107
107
167
107
107
167
107
107
167
107
107
167
107
107
167
107
107
167
107
107
167
107
107
167
107
107
167
107
107
167
107
107
167
107
107
167
107
107
167
107
107
167
107
107
167
107
107
167
107
107
167
107
107
167
107
107
167
107
107
167
107
107
167
107
107
167
107
107
167
107
107
167
107
107
167
107
107
167
107
107
67
51
27
255
255
255
255
255
255
255
255
255
255
255
255
255
255
255
255
255
255
0
0
0
67
51
27
0
0
0
0
0
0
0
0
0
0
0
0
0
0
0
0
0
0
0
0
0
0
0
0
0
0
0
0
0
0
0
0
0
0
0
0
0
0
0
0
0
0
0
0
0
75
55
27
255
127
27
255
127
27
255
127
27
255
235
223
255
255
255
255
127
27
255
127
27
75
55
27
255
127
27
255
127
27
255
127
27
255
235
223
255
235
223
255
127
27
255
127
27
167
107
107
167
107
107
167
107
107
167
107
107
167
107
107
167
107
107
167
107
107
167
107
107
167
107
107
167
107
107
167
107
107
167
107
107
167
107
107
167
107
107
167
107
107
167
107
107
167
107
107
167
107
107
167
107
107
167
107
107
167
107
107
167
107
107
167
107
107
167
107
107
255
0
0
255
0
0
167
107
107
167
107
107
255
0
0
255
0
0
255
0
0
167
107
107
255
0
0
255
0
0
167
107
107
255
0
0
255
0
0
255
0
0
167
107
107
167
107
107
167
107
107
167
107
107
167
107
107
167
107
107
167
107
107
167
107
107
167
107
107
167
107
107
167
107
107
167
107
107
167
107
107
167
107
107
167
107
107
167
107
107
167
107
107
167
107
107
167
107
107
167
107
107
167
107
107
167
107
107
167
107
107
167
107
107
167
107
107
167
107
107
67
51
27
0
0
0
0
0
0
0
0
0
0
0
0
0
0
0
0
0
0
0
0
0
167
107
107
167
107
107
167
107
107
167
107
107
167
107
107
167
107
107
167
107
107
167
107
107
167
107
107
167
107
107
167
107
107
167
107
107
167
107
107
167
107
107
167
107
107
167
107
107
167
107
107
167
107
107
167
107
107
167
107
107
167
107
107
167
107
107
167
107
107
167
107
107
255
0
0
255
0
0
167
107
107
167
107
107
255
0
0
255
0
0
255
0
0
167
107
107
255
0
0
255
0
0
167
107
107
255
0
0
255
0
0
255
0
0
167
107
107
167
107
107
167
107
107
167
107
107
167
107
107
167
107
107
167
107
107
167
107
107
167
107
107
167
107
107
167
107
107
167
107
107
167
107
107
167
107
107
167
107
107
167
107
107
167
107
107
167
107
107
167
107
107
167
107
107
167
107
107
167
107
107
167
107
107
167
107
107
167
107
107
167
107
107
67
51
27
0
0
0
0
0
0
0
0
0
0
0
0
0
0
0
0
0
0
0
0
0
167
107
107
167
107
107
167
107
107
167
107
107
167
107
107
167
107
107
167
107
107
167
107
107
167
107
107
167
107
107
167
107
107
167
107
107
167
107
107
167
107
107
167
107
107
167
107
107
167
107
107
167
107
107
167
107
107
167
107
107
167
107
107
167
107
107
167
107
107
167
107
107
255
0
0
255
0
0
167
107
107
255
0
0
255
0
0
255
0
0
255
0
0
167
107
107
255
0
0
255
0
0
167
107
107
167
107
107
167
107
107
167
107
107
167
107
107
167
107
107
167
107
107
167
107
107
167
107
107
167
107
107
167
107
107
167
107
107
167
107
107
167
107
107
167
107
107
167
107
107
167
107
107
167
107
107
167
107
107
167
107
107
167
107
107
167
107
107
167
107
107
167
107
107
167
107
107
167
107
107
167
107
107
167
107
107
167
107
107
167
107
107
67
51
27
0
0
0
0
0
0
0
0
0
0
0
0
0
0
0
0
0
0
0
0
0
167
107
107
167
107
107
167
107
107
167
107
107
167
107
107
167
107
107
167
107
107
167
107
107
167
107
107
167
107
107
167
107
107
167
107
107
167
107
107
167
107
107
167
107
107
167
107
107
167
107
107
167
107
107
167
107
107
167
107
107
167
107
107
167
107
107
167
107
107
167
107
107
167
107
107
167
107
107
167
107
107
167
107
107
167
107
107
167
107
107
167
107
107
167
107
107
167
107
107
167
107
107
167
107
107
167
107
107
167
107
107
167
107
107
167
107
107
167
107
107
167
107
107
167
107
107
167
107
107
167
107
107
167
107
107
167
107
107
167
107
107
167
107
107
167
107
107
167
107
107
167
107
107
167
107
107
167
107
107
167
107
107
167
107
107
167
107
107
167
107
107
167
107
107
167
107
107
167
107
107
167
107
107
167
107
107
167
107
107
167
107
107
67
51
27
255
255
255
255
255
255
0
0
0
0
0
0
255
255
255
255
255
255
0
0
0
67
51
27
0
0
0
0
0
0
0
0
0
0
0
0
0
0
0
0
0
0
0
0
0
0
0
0
0
0
0
0
0
0
0
0
0
0
0
0
0
0
0
0
0
0
0
0
0
75
55
27
255
127
27
255
127
27
255
255
255
255
255
255
255
255
255
255
255
255
255
127
27
75
55
27
255
127
27
255
235
223
255
235
223
255
235
223
255
127
27
255
127
27
255
127
27
167
107
107
167
107
107
167
107
107
167
107
107
167
107
107
167
107
107
167
107
107
167
107
107
167
107
107
167
107
107
167
107
107
167
107
107
167
107
107
167
107
107
167
107
107
167
107
107
167
107
107
167
107
107
167
107
107
167
107
107
167
107
107
167
107
107
167
107
107
167
107
107
255
0
0
255
0
0
167
107
107
167
107
107
167
107
107
255
0
0
255
0
0
167
107
107
255
0
0
255
0
0
167
107
107
167
107
107
255
0
0
255
0
0
167
107
107
167
107
107
167
107
107
167
107
107
167
107
107
167
107
107
167
107
107
167
107
107
167
107
107
167
107
107
167
107
107
167
107
107
167
107
107
167
107
107
167
107
107
167
107
107
167
107
107
167
107
107
167
107
107
167
107
107
167
107
107
167
107
107
167
107
107
167
107
107
167
107
107
167
107
107
67
51
27
0
0
0
0
0
0
0
0
0
0
0
0
0
0
0
0
0
0
0
0
0
167
107
107
167
107
107
167
107
107
167
107
107
167
107
107
167
107
107
167
107
107
167
107
107
167
107
107
167
107
107
167
107
107
167
107
107
167
107
107
167
107
107
167
107
107
167
107
107
167
107
107
167
107
107
167
107
107
167
107
107
167
107
107
167
107
107
167
107
107
167
107
107
255
0
0
255
0
0
167
107
107
167
107
107
167
107
107
255
0
0
255
0
0
167
107
107
255
0
0
255
0
0
167
107
107
167
107
107
255
0
0
255
0
0
167
107
107
167
107
107
167
107
107
167
107
107
167
107
107
167
107
107
167
107
107
167
107
107
167
107
107
167
107
107
167
107
107
167
107
107
167
107
107
167
107
107
167
107
107
167
107
107
167
107
107
167
107
107
167
107
107
167
107
107
167
107
107
167
107
107
167
107
107
167
107
107
167
107
107
167
107
107
67
51
27
0
0
0
0
0
0
0
0
0
0
0
0
0
0
0
0
0
0
0
0
0
167
107
107
167
107
107
167
107
107
167
107
107
167
107
107
167
107
107
167
107
107
167
107
107
167
107
107
167
107
107
167
107
107
167
107
107
167
107
107
167
107
107
167
107
107
167
107
107
167
107
107
167
107
107
167
107
107
167
107
107
167
107
107
167
107
107
167
107
107
167
107
107
255
0
0
255
0
0
167
107
107
167
107
107
255
0
0
255
0
0
255
0
0
167
107
107
255
0
0
255
0
0
167
107
107
255
0
0
255
0
0
255
0
0
167
107
107
167
107
107
167
107
107
167
107
107
167
107
107
167
107
107
167
107
107
167
107
107
167
107
107
167
107
107
167
107
107
167
107
107
167
107
107
167
107
107
167
107
107
167
107
107
167
107
107
167
107
107
167
107
107
167
107
107
167
107
107
167
107
107
167
107
107
167
107
107
167
107
107
167
107
107
67
51
27
0
0
0
0
0
0
0
0
0
0
0
0
0
0
0
0
0
0
0
0
0
167
107
107
167
107
107
167
107
107
167
107
107
167
107
107
167
107
107
167
107
107
167
107
107
167
107
107
167
107
107
167
107
107
167
107
107
167
107
107
167
107
107
167
107
107
167
107
107
167
107
107
167
107
107
167
107
107
167
107
107
167
107
107
167
107
107
167
107
107
167
107
107
167
107
107
167
107
107
167
107
107
167
107
107
167
107
107
167
107
107
167
107
107
167
107
107
167
107
107
167
107
107
167
107
107
167
107
107
167
107
107
167
107
107
167
107
107
167
107
107
167
107
107
167
107
107
167
107
107
167
107
107
167
107
107
167
107
107
167
107
107
167
107
107
167
107
107
167
107
107
167
107
107
167
107
107
167
107
107
167
107
107
167
107
107
167
107
107
167
107
107
167
107
107
167
107
107
167
107
107
167
107
107
167
107
107
167
107
107
167
107
107
67
51
27
255
255
255
255
255
255
0
0
0
0
0
0
255
255
255
255
255
255
0
0
0
67
51
27
0
0
0
0
0
0
0
0
0
0
0
0
0
0
0
0
0
0
0
0
0
0
0
0
0
0
0
0
0
0
0
0
0
0
0
0
0
0
0
0
0
0
0
0
0
75
55
27
75
55
27
75
55
27
75
55
27
67
51
27
67
51
27
67
51
27
67
51
27
75
55
27
75
55
27
75
55
27
75
55
27
75
55
27
75
55
27
75
55
27
75
55
27
167
107
107
167
107
107
167
107
107
167
107
107
167
107
107
167
107
107
167
107
107
167
107
107
167
107
107
167
107
107
167
107
107
167
107
107
167
107
107
167
107
107
167
107
107
167
107
107
167
107
107
167
107
107
167
107
107
167
107
107
167
107
107
167
107
107
167
107
107
167
107
107
255
0
0
255
0
0
167
107
107
167
107
107
167
107
107
255
0
0
255
0
0
167
107
107
167
107
107
255
0
0
255
0
0
255
0
0
255
0
0
255
0
0
167
107
107
167
107
107
167
107
107
167
107
107
167
107
107
167
107
107
167
107
107
167
107
107
167
107
107
167
107
107
167
107
107
167
107
107
167
107
107
167
107
107
167
107
107
167
107
107
167
107
107
167
107
107
167
107
107
167
107
107
167
107
107
167
107
107
167
107
107
167
107
107
167
107
107
167
107
107
67
51
27
67
51
27
67
51
27
67
51
27
67
51
27
67
51
27
67
51
27
67
51
27
167
107
107
167
107
107
167
107
107
167
107
107
167
107
107
167
107
107
167
107
107
167
107
107
167
107
107
167
107
107
167
107
107
167
107
107
167
107
107
167
107
107
167
107
107
167
107
107
167
107
107
167
107
107
167
107
107
167
107
107
167
107
107
167
107
107
167
107
107
167
107
107
255
0
0
255
0
0
167
107
107
167
107
107
167
107
107
255
0
0
255
0
0
167
107
107
167
107
107
255
0
0
255
0
0
255
0
0
255
0
0
255
0
0
167
107
107
167
107
107
167
107
107
167
107
107
167
107
107
167
107
107
167
107
107
167
107
107
167
107
107
167
107
107
167
107
107
167
107
107
167
107
107
167
107
107
167
107
107
167
107
107
167
107
107
167
107
107
167
107
107
167
107
107
167
107
107
167
107
107
167
107
107
167
107
107
167
107
107
167
107
107
67
51
27
67
51
27
67
51
27
67
51
27
67
51
27
67
51
27
67
51
27
67
51
27
167
107
107
167
107
107
167
107
107
167
107
107
167
107
107
167
107
107
167
107
107
167
107
107
167
107
107
167
107
107
167
107
107
167
107
107
167
107
107
167
107
107
167
107
107
167
107
107
167
107
107
167
107
107
167
107
107
167
107
107
167
107
107
167
107
107
167
107
107
167
107
107
255
0
0
255
0
0
167
107
107
167
107
107
167
107
107
255
0
0
255
0
0
167
107
107
255
0
0
255
0
0
167
107
107
167
107
107
255
0
0
255
0
0
167
107
107
167
107
107
167
107
107
167
107
107
167
107
107
167
107
107
167
107
107
167
107
107
167
107
107
167
107
107
167
107
107
167
107
107
167
107
107
167
107
107
167
107
107
167
107
107
167
107
107
167
107
107
167
107
107
167
107
107
167
107
107
167
107
107
167
107
107
167
107
107
167
107
107
167
107
107
67
51
27
67
51
27
67
51
27
67
51
27
67
51
27
67
51
27
67
51
27
67
51
27
167
107
107
167
107
107
167
107
107
167
107
107
167
107
107
167
107
107
167
107
107
167
107
107
167
107
107
167
107
107
167
107
107
167
107
107
167
107
107
167
107
107
167
107
107
167
107
107
167
107
107
167
107
107
167
107
107
167
107
107
167
107
107
167
107
107
167
107
107
167
107
107
167
107
107
167
107
107
167
107
107
167
107
107
167
107
107
167
107
107
167
107
107
167
107
107
167
107
107
167
107
107
167
107
107
167
107
107
167
107
107
167
107
107
167
107
107
167
107
107
167
107
107
167
107
107
167
107
107
167
107
107
167
107
107
167
107
107
167
107
107
167
107
107
167
107
107
167
107
107
167
107
107
167
107
107
167
107
107
167
107
107
167
107
107
167
107
107
167
107
107
167
107
107
167
107
107
167
107
107
167
107
107
167
107
107
167
107
107
167
107
107
67
51
27
67
51
27
67
51
27
67
51
27
67
51
27
67
51
27
67
51
27
67
51
27
67
51
27
67
51
27
67
51
27
67
51
27
67
51
27
67
51
27
67
51
27
67
51
27
0
0
0
0
0
0
0
0
0
0
0
0
0
0
0
0
0
0
0
0
0
0
0
0
75
55
27
255
127
27
255
235
223
255
235
223
255
235
223
255
235
223
255
127
27
255
127
27
75
55
27
255
127
27
255
235
223
255
235
223
255
235
223
255
235
223
255
127
27
255
127
27
167
107
107
167
107
107
167
107
107
167
107
107
167
107
107
167
107
107
167
107
107
167
107
107
167
107
107
167
107
107
167
107
107
167
107
107
167
107
107
167
107
107
167
107
107
167
107
107
167
107
107
167
107
107
167
107
107
167
107
107
167
107
107
167
107
107
167
107
107
167
107
107
167
107
107
167
107
107
167
107
107
167
107
107
167
107
107
167
107
107
167
107
107
167
107
107
167
107
107
167
107
107
167
107
107
167
107
107
167
107
107
167
107
107
167
107
107
167
107
107
167
107
107
167
107
107
167
107
107
167
107
107
167
107
107
167
107
107
167
107
107
167
107
107
167
107
107
167
107
107
167
107
107
167
107
107
167
107
107
167
107
107
167
107
107
167
107
107
167
107
107
167
107
107
167
107
107
167
107
107
167
107
107
167
107
107
167
107
107
167
107
107
67
51
27
0
0
0
0
0
0
0
0
0
0
0
0
0
0
0
0
0
0
0
0
0
167
107
107
167
107
107
167
107
107
167
107
107
167
107
107
167
107
107
167
107
107
167
107
107
167
107
107
167
107
107
167
107
107
167
107
107
167
107
107
167
107
107
167
107
107
167
107
107
167
107
107
167
107
107
167
107
107
167
107
107
167
107
107
167
107
107
167
107
107
167
107
107
167
107
107
167
107
107
167
107
107
167
107
107
167
107
107
167
107
107
167
107
107
167
107
107
167
107
107
167
107
107
167
107
107
167
107
107
167
107
107
167
107
107
167
107
107
167
107
107
167
107
107
167
107
107
167
107
107
167
107
107
167
107
107
167
107
107
167
107
107
167
107
107
167
107
107
167
107
107
167
107
107
167
107
107
167
107
107
167
107
107
167
107
107
167
107
107
167
107
107
167
107
107
167
107
107
167
107
107
167
107
107
167
107
107
167
107
107
167
107
107
67
51
27
0
0
0
0
0
0
0
0
0
0
0
0
0
0
0
0
0
0
0
0
0
167
107
107
167
107
107
167
107
107
167
107
107
167
107
107
167
107
107
167
107
107
167
107
107
167
107
107
167
107
107
167
107
107
167
107
107
167
107
107
167
107
107
167
107
107
167
107
107
167
107
107
167
107
107
167
107
107
167
107
107
167
107
107
167
107
107
167
107
107
167
107
107
255
0
0
255
0
0
167
107
107
167
107
107
167
107
107
255
0
0
255
0
0
167
107
107
167
107
107
255
0
0
255
0
0
255
0
0
255
0
0
255
0
0
167
107
107
167
107
107
167
107
107
167
107
107
167
107
107
167
107
107
167
107
107
167
107
107
167
107
107
167
107
107
167
107
107
167
107
107
167
107
107
167
107
107
167
107
107
167
107
107
167
107
107
167
107
107
167
107
107
167
107
107
167
107
107
167
107
107
167
107
107
167
107
107
167
107
107
167
107
107
67
51
27
0
0
0
0
0
0
0
0
0
0
0
0
0
0
0
0
0
0
0
0
0
167
107
107
167
107
107
167
107
107
167
107
107
167
107
107
167
107
107
167
107
107
167
107
107
167
107
107
167
107
107
167
107
107
167
107
107
167
107
107
167
107
107
167
107
107
167
107
107
167
107
107
167
107
107
167
107
107
167
107
107
167
107
107
167
107
107
167
107
107
167
107
107
167
107
107
167
107
107
167
107
107
167
107
107
167
107
107
167
107
107
167
107
107
167
107
107
167
107
107
167
107
107
167
107
107
167
107
107
167
107
107
167
107
107
167
107
107
167
107
107
167
107
107
167
107
107
167
107
107
167
107
107
167
107
107
167
107
107
167
107
107
167
107
107
167
107
107
167
107
107
167
107
107
167
107
107
167
107
107
167
107
107
167
107
107
167
107
107
167
107
107
167
107
107
167
107
107
167
107
107
167
107
107
167
107
107
167
107
107
167
107
107
67
51
27
67
51
27
0
0
0
0
0
0
0
0
0
0
0
0
0
0
0
0
0
0
67
51
27
0
0
0
0
0
0
0
0
0
0
0
0
0
0
0
0
0
0
0
0
0
0
0
0
0
0
0
0
0
0
0
0
0
0
0
0
0
0
0
0
0
0
0
0
0
75
55
27
255
235
223
255
235
223
255
127
27
255
127
27
255
235
223
255
235
223
255
127
27
75
55
27
255
235
223
255
235
223
255
127
27
255
127
27
255
235
223
255
235
223
255
127
27
167
107
107
167
107
107
167
107
107
167
107
107
167
107
107
167
107
107
167
107
107
167
107
107
167
107
107
167
107
107
167
107
107
167
107
107
167
107
107
167
107
107
167
107
107
167
107
107
167
107
107
167
107
107
167
107
107
167
107
107
167
107
107
167
107
107
167
107
107
167
107
107
167
107
107
167
107
107
167
107
107
167
107
107
167
107
107
167
107
107
167
107
107
167
107
107
167
107
107
167
107
107
167
107
107
167
107
107
167
107
107
167
107
107
167
107
107
167
107
107
167
107
107
167
107
107
167
107
107
167
107
107
167
107
107
167
107
107
167
107
107
167
107
107
167
107
107
167
107
107
167
107
107
167
107
107
167
107
107
167
107
107
167
107
107
167
107
107
167
107
107
167
107
107
167
107
107
167
107
107
167
107
107
167
107
107
167
107
107
167
107
107
67
51
27
0
0
0
0
0
0
0
0
0
0
0
0
0
0
0
0
0
0
0
0
0
167
107
107
167
107
107
167
107
107
167
107
107
167
107
107
167
107
107
167
107
107
167
107
107
167
107
107
167
107
107
167
107
107
167
107
107
167
107
107
167
107
107
167
107
107
167
107
107
167
107
107
167
107
107
167
107
107
167
107
107
167
107
107
167
107
107
167
107
107
167
107
107
167
107
107
167
107
107
167
107
107
167
107
107
167
107
107
167
107
107
167
107
107
167
107
107
167
107
107
167
107
107
167
107
107
167
107
107
167
107
107
167
107
107
167
107
107
167
107
107
167
107
107
167
107
107
167
107
107
167
107
107
167
107
107
167
107
107
167
107
107
167
107
107
167
107
107
167
107
107
167
107
107
167
107
107
167
107
107
167
107
107
167
107
107
167
107
107
167
107
107
167
107
107
167
107
107
167
107
107
167
107
107
167
107
107
167
107
107
167
107
107
67
51
27
0
0
0
0
0
0
0
0
0
0
0
0
0
0
0
0
0
0
0
0
0
167
107
107
167
107
107
167
107
107
167
107
107
167
107
107
167
107
107
167
107
107
167
107
107
167
107
107
167
107
107
167
107
107
167
107
107
167
107
107
167
107
107
167
107
107
167
107
107
167
107
107
167
107
107
167
107
107
167
107
107
167
107
107
167
107
107
167
107
107
167
107
107
167
107
107
167
107
107
167
107
107
167
107
107
167
107
107
167
107
107
167
107
107
167
107
107
167
107
107
167
107
107
167
107
107
167
107
107
167
107
107
167
107
107
167
107
107
167
107
107
167
107
107
167
107
107
167
107
107
167
107
107
167
107
107
167
107
107
167
107
107
167
107
107
167
107
107
167
107
107
167
107
107
167
107
107
167
107
107
167
107
107
167
107
107
167
107
107
167
107
107
167
107
107
167
107
107
167
107
107
167
107
107
167
107
107
167
107
107
167
107
107
67
51
27
0
0
0
0
0
0
0
0
0
0
0
0
0
0
0
0
0
0
0
0
0
167
107
107
167
107
107
167
107
107
167
107
107
167
107
107
167
107
107
167
107
107
167
107
107
167
107
107
167
107
107
167
107
107
167
107
107
167
107
107
167
107
107
167
107
107
167
107
107
167
107
107
167
107
107
167
107
107
167
107
107
167
107
107
167
107
107
167
107
107
167
107
107
167
107
107
167
107
107
167
107
107
167
107
107
167
107
107
167
107
107
167
107
107
167
107
107
167
107
107
167
107
107
167
107
107
167
107
107
167
107
107
167
107
107
167
107
107
167
107
107
167
107
107
167
107
107
167
107
107
167
107
107
167
107
107
167
107
107
167
107
107
167
107
107
167
107
107
167
107
107
167
107
107
167
107
107
167
107
107
167
107
107
167
107
107
167
107
107
167
107
107
167
107
107
167
107
107
167
107
107
167
107
107
167
107
107
167
107
107
167
107
107
67
51
27
255
255
255
255
255
255
255
255
255
255
255
255
255
255
255
0
0
0
0
0
0
67
51
27
0
0
0
0
0
0
0
0
0
0
0
0
0
0
0
0
0
0
0
0
0
0
0
0
0
0
0
0
0
0
0
0
0
0
0
0
0
0
0
0
0
0
0
0
0
75
55
27
255
127
27
255
127
27
255
127
27
255
127
27
255
235
223
255
235
223
255
127
27
75
55
27
255
235
223
255
235
223
255
127
27
255
127
27
255
235
223
255
235
223
255
127
27
167
107
107
167
107
107
167
107
107
167
107
107
167
107
107
167
107
107
167
107
107
167
107
107
167
107
107
167
107
107
167
107
107
167
107
107
167
107
107
167
107
107
167
107
107
167
107
107
167
107
107
167
107
107
167
107
107
167
107
107
167
107
107
167
107
107
167
107
107
167
107
107
167
107
107
167
107
107
167
107
107
167
107
107
167
107
107
167
107
107
167
107
107
167
107
107
167
107
107
167
107
107
167
107
107
167
107
107
167
107
107
167
107
107
167
107
107
167
107
107
167
107
107
167
107
107
167
107
107
167
107
107
167
107
107
167
107
107
167
107
107
167
107
107
167
107
107
167
107
107
167
107
107
167
107
107
167
107
107
167
107
107
167
107
107
167
107
107
167
107
107
167
107
107
167
107
107
167
107
107
167
107
107
167
107
107
167
107
107
167
107
107
67
51
27
0
0
0
0
0
0
0
0
0
0
0
0
0
0
0
0
0
0
0
0
0
167
107
107
167
107
107
167
107
107
167
107
107
167
107
107
167
107
107
167
107
107
167
107
107
167
107
107
167
107
107
167
107
107
167
107
107
167
107
107
167
107
107
167
107
107
167
107
107
167
107
107
167
107
107
167
107
107
167
107
107
167
107
107
167
107
107
167
107
107
167
107
107
167
107
107
167
107
107
167
107
107
167
107
107
167
107
107
167
107
107
167
107
107
167
107
107
167
107
107
167
107
107
167
107
107
167
107
107
167
107
107
167
107
107
167
107
107
167
107
107
167
107
107
167
107
107
167
107
107
167
107
107
167
107
107
167
107
107
167
107
107
167
107
107
167
107
107
167
107
107
167
107
107
167
107
107
167
107
107
167
107
107
167
107
107
167
107
107
167
107
107
167
107
107
167
107
107
167
107
107
167
107
107
167
107
107
167
107
107
167
107
107
67
51
27
0
0
0
0
0
0
0
0
0
0
0
0
0
0
0
0
0
0
0
0
0
167
107
107
167
107
107
167
107
107
167
107
107
167
107
107
167
107
107
167
107
107
167
107
107
167
107
107
167
107
107
167
107
107
167
107
107
167
107
107
167
107
107
167
107
107
167
107
107
167
107
107
167
107
107
167
107
107
167
107
107
167
107
107
167
107
107
167
107
107
167
107
107
167
107
107
167
107
107
167
107
107
167
107
107
167
107
107
167
107
107
167
107
107
167
107
107
167
107
107
167
107
107
167
107
107
167
107
107
167
107
107
167
107
107
167
107
107
167
107
107
167
107
107
167
107
107
167
107
107
167
107
107
167
107
107
167
107
107
167
107
107
167
107
107
167
107
107
167
107
107
167
107
107
167
107
107
167
107
107
167
107
107
167
107
107
167
107
107
167
107
107
167
107
107
167
107
107
167
107
107
167
107
107
167
107
107
167
107
107
167
107
107
67
51
27
0
0
0
0
0
0
0
0
0
0
0
0
0
0
0
0
0
0
0
0
0
167
107
107
167
107
107
167
107
107
167
107
107
167
107
107
167
107
107
167
107
107
167
107
107
167
107
107
167
107
107
167
107
107
167
107
107
167
107
107
167
107
107
167
107
107
167
107
107
167
107
107
167
107
107
167
107
107
167
107
107
167
107
107
167
107
107
167
107
107
167
107
107
167
107
107
167
107
107
167
107
107
167
107
107
167
107
107
167
107
107
167
107
107
167
107
107
167
107
107
167
107
107
167
107
107
167
107
107
167
107
107
167
107
107
167
107
107
167
107
107
167
107
107
167
107
107
167
107
107
167
107
107
167
107
107
167
107
107
167
107
107
167
107
107
167
107
107
167
107
107
167
107
107
167
107
107
167
107
107
167
107
107
167
107
107
167
107
107
167
107
107
167
107
107
167
107
107
167
107
107
167
107
107
167
107
107
167
107
107
167
107
107
67
51
27
255
255
255
255
255
255
0
0
0
0
0
0
255
255
255
255
255
255
0
0
0
67
51
27
0
0
0
0
0
0
0
0
0
0
0
0
0
0
0
0
0
0
0
0
0
0
0
0
0
0
0
0
0
0
0
0
0
0
0
0
0
0
0
0
0
0
0
0
0
75
55
27
255
127
27
255
127
27
255
235
223
255
235
223
255
235
223
255
127
27
255
127
27
75
55
27
255
235
223
255
235
223
255
127
27
255
127
27
255
235
223
255
235
223
255
127
27
167
107
107
167
107
107
167
107
107
167
107
107
167
107
107
167
107
107
167
107
107
167
107
107
167
107
107
167
107
107
167
107
107
167
107
107
167
107
107
167
107
107
167
107
107
167
107
107
167
107
107
167
107
107
167
107
107
167
107
107
167
107
107
167
107
107
167
107
107
167
107
107
167
107
107
167
107
107
167
107
107
167
107
107
167
107
107
167
107
107
167
107
107
167
107
107
167
107
107
167
107
107
167
107
107
167
107
107
167
107
107
167
107
107
167
107
107
167
107
107
167
107
107
167
107
107
167
107
107
167
107
107
167
107
107
167
107
107
167
107
107
167
107
107
167
107
107
167
107
107
167
107
107
167
107
107
167
107
107
167
107
107
167
107
107
167
107
107
167
107
107
167
107
107
167
107
107
167
107
107
167
107
107
167
107
107
167
107
107
167
107
107
67
51
27
0
0
0
0
0
0
0
0
0
0
0
0
0
0
0
0
0
0
0
0
0
167
107
107
167
107
107
167
107
107
167
107
107
167
107
107
167
107
107
167
107
107
167
107
107
167
107
107
167
107
107
167
107
107
167
107
107
167
107
107
167
107
107
167
107
107
167
107
107
167
107
107
167
107
107
167
107
107
167
107
107
167
107
107
167
107
107
167
107
107
167
107
107
167
107
107
167
107
107
167
107
107
167
107
107
167
107
107
167
107
107
167
107
107
167
107
107
167
107
107
167
107
107
167
107
107
167
107
107
167
107
107
167
107
107
167
107
107
167
107
107
167
107
107
167
107
107
167
107
107
167
107
107
167
107
107
167
107
107
167
107
107
167
107
107
167
107
107
167
107
107
167
107
107
167
107
107
167
107
107
167
107
107
167
107
107
167
107
107
167
107
107
167
107
107
167
107
107
167
107
107
167
107
107
167
107
107
167
107
107
167
107
107
67
51
27
0
0
0
0
0
0
0
0
0
0
0
0
0
0
0
0
0
0
0
0
0
167
107
107
167
107
107
167
107
107
167
107
107
167
107
107
167
107
107
167
107
107
167
107
107
167
107
107
167
107
107
167
107
107
167
107
107
167
107
107
167
107
107
167
107
107
167
107
107
167
107
107
167
107
107
167
107
107
167
107
107
167
107
107
167
107
107
167
107
107
167
107
107
167
107
107
167
107
107
167
107
107
167
107
107
167
107
107
167
107
107
167
107
107
167
107
107
167
107
107
167
107
107
167
107
107
167
107
107
167
107
107
167
107
107
167
107
107
167
107
107
167
107
107
167
107
107
167
107
107
167
107
107
167
107
107
167
107
107
167
107
107
167
107
107
167
107
107
167
107
107
167
107
107
167
107
107
167
107
107
167
107
107
167
107
107
167
107
107
167
107
107
167
107
107
167
107
107
167
107
107
167
107
107
167
107
107
167
107
107
167
107
107
67
51
27
0
0
0
0
0
0
0
0
0
0
0
0
0
0
0
0
0
0
0
0
0
167
107
107
167
107
107
167
107
107
167
107
107
167
107
107
167
107
107
167
107
107
167
107
107
167
107
107
167
107
107
167
107
107
167
107
107
167
107
107
167
107
107
167
107
107
167
107
107
167
107
107
167
107
107
167
107
107
167
107
107
167
107
107
167
107
107
167
107
107
167
107
107
167
107
107
167
107
107
167
107
107
167
107
107
167
107
107
167
107
107
167
107
107
167
107
107
167
107
107
167
107
107
167
107
107
167
107
107
167
107
107
167
107
107
167
107
107
167
107
107
167
107
107
167
107
107
167
107
107
167
107
107
167
107
107
167
107
107
167
107
107
167
107
107
167
107
107
167
107
107
167
107
107
167
107
107
167
107
107
167
107
107
167
107
107
167
107
107
167
107
107
167
107
107
167
107
107
167
107
107
167
107
107
167
107
107
167
107
107
167
107
107
67
51
27
255
255
255
255
255
255
0
0
0
0
0
0
255
255
255
255
255
255
0
0
0
67
51
27
0
0
0
0
0
0
0
0
0
0
0
0
0
0
0
0
0
0
0
0
0
0
0
0
0
0
0
0
0
0
0
0
0
0
0
0
0
0
0
0
0
0
0
0
0
75
55
27
255
127
27
255
235
223
255
235
223
255
127
27
255
127
27
255
127
27
255
127
27
75
55
27
255
235
223
255
235
223
255
127
27
255
127
27
255
235
223
255
235
223
255
127
27
167
107
107
167
107
107
167
107
107
167
107
107
167
107
107
167
107
107
167
107
107
167
107
107
167
107
107
167
107
107
167
107
107
167
107
107
167
107
107
167
107
107
167
107
107
167
107
107
167
107
107
167
107
107
167
107
107
167
107
107
167
107
107
167
107
107
167
107
107
167
107
107
167
107
107
167
107
107
167
107
107
167
107
107
167
107
107
167
107
107
167
107
107
167
107
107
167
107
107
167
107
107
167
107
107
167
107
107
167
107
107
167
107
107
167
107
107
167
107
107
167
107
107
167
107
107
167
107
107
167
107
107
167
107
107
167
107
107
167
107
107
167
107
107
167
107
107
167
107
107
167
107
107
167
107
107
167
107
107
167
107
107
167
107
107
167
107
107
167
107
107
167
107
107
167
107
107
167
107
107
167
107
107
167
107
107
167
107
107
167
107
107
67
51
27
0
0
0
0
0
0
0
0
0
0
0
0
0
0
0
0
0
0
0
0
0
167
107
107
167
107
107
167
107
107
167
107
107
167
107
107
167
107
107
167
107
107
167
107
107
167
107
107
167
107
107
167
107
107
167
107
107
167
107
107
167
107
107
167
107
107
167
107
107
167
107
107
167
107
107
167
107
107
167
107
107
167
107
107
167
107
107
167
107
107
167
107
107
167
107
107
167
107
107
167
107
107
167
107
107
167
107
107
167
107
107
167
107
107
167
107
107
167
107
107
167
107
107
167
107
107
167
107
107
167
107
107
167
107
107
167
107
107
167
107
107
167
107
107
167
107
107
167
107
107
167
107
107
167
107
107
167
107
107
167
107
107
167
107
107
167
107
107
167
107
107
167
107
107
167
107
107
167
107
107
167
107
107
167
107
107
167
107
107
167
107
107
167
107
107
167
107
107
167
107
107
167
107
107
167
107
107
167
107
107
167
107
107
67
51
27
0
0
0
0
0
0
0
0
0
0
0
0
0
0
0
0
0
0
0
0
0
167
107
107
167
107
107
167
107
107
167
107
107
167
107
107
167
107
107
167
107
107
167
107
107
167
107
107
167
107
107
167
107
107
167
107
107
167
107
107
167
107
107
167
107
107
167
107
107
167
107
107
167
107
107
167
107
107
167
107
107
167
107
107
167
107
107
167
107
107
167
107
107
167
107
107
167
107
107
167
107
107
167
107
107
167
107
107
167
107
107
167
107
107
167
107
107
167
107
107
167
107
107
167
107
107
167
107
107
167
107
107
167
107
107
167
107
107
167
107
107
167
107
107
167
107
107
167
107
107
167
107
107
167
107
107
167
107
107
167
107
107
167
107
107
167
107
107
167
107
107
167
107
107
167
107
107
167
107
107
167
107
107
167
107
107
167
107
107
167
107
107
167
107
107
167
107
107
167
107
107
167
107
107
167
107
107
167
107
107
167
107
107
67
51
27
0
0
0
0
0
0
0
0
0
0
0
0
0
0
0
0
0
0
0
0
0
167
107
107
167
107
107
167
107
107
167
107
107
167
107
107
167
107
107
167
107
107
167
107
107
167
107
107
167
107
107
167
107
107
167
107
107
167
107
107
167
107
107
167
107
107
167
107
107
167
107
107
167
107
107
167
107
107
167
107
107
167
107
107
167
107
107
167
107
107
167
107
107
167
107
107
167
107
107
167
107
107
167
107
107
167
107
107
167
107
107
167
107
107
167
107
107
167
107
107
167
107
107
167
107
107
167
107
107
167
107
107
167
107
107
167
107
107
167
107
107
167
107
107
167
107
107
167
107
107
167
107
107
167
107
107
167
107
107
167
107
107
167
107
107
167
107
107
167
107
107
167
107
107
167
107
107
167
107
107
167
107
107
167
107
107
167
107
107
167
107
107
167
107
107
167
107
107
167
107
107
167
107
107
167
107
107
167
107
107
167
107
107
67
51
27
255
255
255
255
255
255
255
255
255
255
255
255
255
255
255
7
7
7
0
0
0
67
51
27
0
0
0
0
0
0
0
0
0
0
0
0
0
0
0
0
0
0
0
0
0
0
0
0
0
0
0
0
0
0
0
0
0
0
0
0
0
0
0
0
0
0
0
0
0
75
55
27
255
235
223
255
235
223
255
127
27
255
127
27
255
235
223
255
235
223
255
127
27
75
55
27
255
235
223
255
235
223
255
127
27
255
127
27
255
255
255
255
235
223
255
127
27
167
107
107
167
107
107
167
107
107
167
107
107
167
107
107
167
107
107
167
107
107
167
107
107
167
107
107
167
107
107
167
107
107
167
107
107
167
107
107
167
107
107
167
107
107
167
107
107
167
107
107
167
107
107
167
107
107
167
107
107
167
107
107
167
107
107
167
107
107
167
107
107
167
107
107
167
107
107
167
107
107
167
107
107
167
107
107
167
107
107
167
107
107
167
107
107
167
107
107
167
107
107
167
107
107
167
107
107
167
107
107
167
107
107
167
107
107
167
107
107
167
107
107
167
107
107
167
107
107
167
107
107
167
107
107
167
107
107
167
107
107
167
107
107
167
107
107
167
107
107
167
107
107
167
107
107
167
107
107
167
107
107
167
107
107
167
107
107
167
107
107
167
107
107
167
107
107
167
107
107
167
107
107
167
107
107
167
107
107
167
107
107
67
51
27
0
0
0
0
0
0
0
0
0
0
0
0
0
0
0
0
0
0
0
0
0
167
107
107
167
107
107
167
107
107
167
107
107
167
107
107
167
107
107
167
107
107
167
107
107
167
107
107
167
107
107
167
107
107
167
107
107
167
107
107
167
107
107
167
107
107
167
107
107
167
107
107
167
107
107
167
107
107
167
107
107
167
107
107
167
107
107
167
107
107
167
107
107
167
107
107
167
107
107
167
107
107
167
107
107
167
107
107
167
107
107
167
107
107
167
107
107
167
107
107
167
107
107
167
107
107
167
107
107
167
107
107
167
107
107
167
107
107
167
107
107
167
107
107
167
107
107
167
107
107
167
107
107
167
107
107
167
107
107
167
107
107
167
107
107
167
107
107
167
107
107
167
107
107
167
107
107
167
107
107
167
107
107
167
107
107
167
107
107
167
107
107
167
107
107
167
107
107
167
107
107
167
107
107
167
107
107
167
107
107
167
107
107
67
51
27
0
0
0
0
0
0
0
0
0
0
0
0
0
0
0
0
0
0
0
0
0
167
107
107
167
107
107
167
107
107
167
107
107
167
107
107
167
107
107
167
107
107
167
107
107
167
107
107
167
107
107
167
107
107
167
107
107
167
107
107
167
107
107
167
107
107
167
107
107
167
107
107
167
107
107
167
107
107
167
107
107
167
107
107
167
107
107
167
107
107
167
107
107
167
107
107
167
107
107
167
107
107
167
107
107
167
107
107
167
107
107
167
107
107
167
107
107
167
107
107
167
107
107
167
107
107
167
107
107
167
107
107
167
107
107
167
107
107
167
107
107
167
107
107
167
107
107
167
107
107
167
107
107
167
107
107
167
107
107
167
107
107
167
107
107
167
107
107
167
107
107
167
107
107
167
107
107
167
107
107
167
107
107
167
107
107
167
107
107
167
107
107
167
107
107
167
107
107
167
107
107
167
107
107
167
107
107
167
107
107
167
107
107
67
51
27
0
0
0
0
0
0
0
0
0
0
0
0
0
0
0
0
0
0
0
0
0
167
107
107
167
107
107
167
107
107
167
107
107
167
107
107
167
107
107
167
107
107
167
107
107
167
107
107
167
107
107
167
107
107
167
107
107
167
107
107
167
107
107
167
107
107
167
107
107
167
107
107
167
107
107
167
107
107
167
107
107
167
107
107
167
107
107
167
107
107
167
107
107
167
107
107
167
107
107
167
107
107
167
107
107
167
107
107
167
107
107
167
107
107
167
107
107
167
107
107
167
107
107
167
107
107
167
107
107
167
107
107
167
107
107
167
107
107
167
107
107
167
107
107
167
107
107
167
107
107
167
107
107
167
107
107
167
107
107
167
107
107
167
107
107
167
107
107
167
107
107
167
107
107
167
107
107
167
107
107
167
107
107
167
107
107
167
107
107
167
107
107
167
107
107
167
107
107
167
107
107
167
107
107
167
107
107
167
107
107
167
107
107
67
51
27
255
255
255
255
255
255
255
255
255
255
255
255
0
0
0
0
0
0
0
0
0
67
51
27
0
0
0
0
0
0
0
0
0
0
0
0
0
0
0
0
0
0
0
0
0
0
0
0
0
0
0
0
0
0
0
0
0
0
0
0
0
0
0
0
0
0
0
0
0
75
55
27
255
235
223
255
235
223
255
235
223
255
235
223
255
235
223
255
235
223
255
127
27
75
55
27
255
127
27
255
235
223
255
235
223
255
235
223
255
235
223
255
127
27
255
127
27
167
107
107
167
107
107
167
107
107
167
107
107
167
107
107
167
107
107
167
107
107
167
107
107
167
107
107
167
107
107
167
107
107
167
107
107
167
107
107
167
107
107
167
107
107
167
107
107
167
107
107
167
107
107
167
107
107
167
107
107
167
107
107
167
107
107
167
107
107
167
107
107
167
107
107
167
107
107
167
107
107
167
107
107
167
107
107
167
107
107
79
59
35
167
107
107
167
107
107
167
107
107
115
115
255
167
107
107
167
107
107
167
107
107
167
107
107
167
107
107
167
107
107
167
107
107
167
107
107
167
107
107
167
107
107
167
107
107
167
107
107
167
107
107
167
107
107
167
107
107
167
107
107
167
107
107
167
107
107
167
107
107
167
107
107
167
107
107
167
107
107
167
107
107
167
107
107
167
107
107
167
107
107
167
107
107
167
107
107
167
107
107
67
51
27
0
0
0
0
0
0
0
0
0
0
0
0
0
0
0
0
0
0
0
0
0
167
107
107
167
107
107
167
107
107
167
107
107
167
107
107
167
107
107
167
107
107
167
107
107
167
107
107
167
107
107
167
107
107
167
107
107
167
107
107
167
107
107
167
107
107
167
107
107
167
107
107
167
107
107
167
107
107
167
107
107
167
107
107
167
107
107
167
107
107
167
107
107
167
107
107
167
107
107
167
107
107
167
107
107
167
107
107
167
107
107
167
107
107
167
107
107
167
107
107
167
107
107
167
107
107
167
107
107
167
107
107
167
107
107
167
107
107
167
107
107
167
107
107
167
107
107
167
107
107
167
107
107
167
107
107
167
107
107
167
107
107
167
107
107
167
107
107
167
107
107
167
107
107
167
107
107
167
107
107
167
107
107
167
107
107
167
107
107
167
107
107
167
107
107
167
107
107
167
107
107
167
107
107
167
107
107
167
107
107
167
107
107
67
51
27
0
0
0
0
0
0
0
0
0
0
0
0
0
0
0
0
0
0
0
0
0
167
107
107
167
107
107
167
107
107
167
107
107
167
107
107
167
107
107
167
107
107
167
107
107
167
107
107
167
107
107
167
107
107
167
107
107
167
107
107
167
107
107
167
107
107
167
107
107
167
107
107
167
107
107
167
107
107
167
107
107
167
107
107
167
107
107
167
107
107
167
107
107
167
107
107
167
107
107
167
107
107
167
107
107
167
107
107
167
107
107
167
107
107
167
107
107
167
107
107
167
107
107
167
107
107
167
107
107
167
107
107
167
107
107
167
107
107
167
107
107
167
107
107
167
107
107
167
107
107
167
107
107
167
107
107
167
107
107
167
107
107
167
107
107
167
107
107
167
107
107
167
107
107
167
107
107
167
107
107
167
107
107
167
107
107
167
107
107
167
107
107
167
107
107
167
107
107
167
107
107
167
107
107
167
107
107
167
107
107
167
107
107
67
51
27
0
0
0
0
0
0
0
0
0
0
0
0
0
0
0
0
0
0
0
0
0
167
107
107
167
107
107
167
107
107
167
107
107
167
107
107
167
107
107
167
107
107
167
107
107
167
107
107
167
107
107
167
107
107
167
107
107
167
107
107
167
107
107
167
107
107
167
107
107
167
107
107
167
107
107
167
107
107
167
107
107
167
107
107
167
107
107
167
107
107
103
107
79
147
123
99
91
99
71
91
99
71
103
107
79
103
107
79
91
99
71
91
99
71
91
99
71
111
115
87
111
115
87
131
131
131
139
139
139
159
159
159
167
167
167
171
171
171
139
139
139
131
131
131
127
127
127
167
107
107
167
107
107
167
107
107
167
107
107
167
107
107
167
107
107
167
107
107
167
107
107
167
107
107
167
107
107
167
107
107
167
107
107
167
107
107
167
107
107
167
107
107
167
107
107
167
107
107
167
107
107
167
107
107
167
107
107
167
107
107
167
107
107
67
51
27
255
255
255
255
255
255
0
0
0
255
255
255
255
255
255
0
0
0
0
0
0
67
51
27
0
0
0
0
0
0
0
0
0
0
0
0
0
0
0
0
0
0
0
0
0
0
0
0
0
0
0
0
0
0
0
0
0
0
0
0
0
0
0
0
0
0
0
0
0
75
55
27
75
55
27
75
55
27
75
55
27
67
51
27
67
51
27
67
51
27
67
51
27
75
55
27
75
55
27
75
55
27
75
55
27
75
55
27
75
55
27
75
55
27
75
55
27
167
107
107
167
107
107
167
107
107
167
107
107
167
107
107
167
107
107
167
107
107
167
107
107
167
107
107
167
107
107
167
107
107
167
107
107
167
107
107
167
107
107
167
107
107
167
107
107
167
107
107
167
107
107
167
107
107
167
107
107
167
107
107
167
107
107
167
107
107
167
107
107
167
107
107
167
107
107
167
107
107
167
107
107
167
107
107
167
107
107
167
107
107
167
107
107
167
107
107
115
115
255
167
107
107
115
115
255
167
107
107
167
107
107
167
107
107
167
107
107
167
107
107
167
107
107
167
107
107
167
107
107
167
107
107
167
107
107
167
107
107
167
107
107
167
107
107
167
107
107
167
107
107
167
107
107
167
107
107
167
107
107
167
107
107
167
107
107
167
107
107
167
107
107
167
107
107
167
107
107
167
107
107
167
107
107
167
107
107
167
107
107
67
51
27
67
51
27
67
51
27
67
51
27
67
51
27
67
51
27
67
51
27
67
51
27
167
107
107
167
107
107
167
107
107
167
107
107
167
107
107
167
107
107
167
107
107
167
107
107
167
107
107
167
107
107
167
107
107
167
107
107
167
107
107
167
107
107
167
107
107
167
107
107
167
107
107
167
107
107
167
107
107
167
107
107
167
107
107
167
107
107
167
107
107
167
107
107
167
107
107
167
107
107
167
107
107
167
107
107
167
107
107
167
107
107
167
107
107
167
107
107
167
107
107
167
107
107
167
107
107
167
107
107
167
107
107
167
107
107
167
107
107
167
107
107
167
107
107
167
107
107
167
107
107
167
107
107
167
107
107
167
107
107
167
107
107
167
107
107
167
107
107
167
107
107
167
107
107
167
107
107
167
107
107
167
107
107
167
107
107
167
107
107
167
107
107
167
107
107
167
107
107
167
107
107
167
107
107
167
107
107
167
107
107
167
107
107
67
51
27
67
51
27
67
51
27
67
51
27
67
51
27
67
51
27
67
51
27
67
51
27
167
107
107
167
107
107
167
107
107
167
107
107
167
107
107
167
107
107
167
107
107
167
107
107
167
107
107
167
107
107
167
107
107
167
107
107
167
107
107
167
107
107
167
107
107
167
107
107
167
107
107
167
107
107
167
107
107
167
107
107
167
107
107
167
107
107
167
107
107
167
107
107
167
107
107
167
107
107
167
107
107
167
107
107
167
107
107
167
107
107
167
107
107
167
107
107
167
107
107
167
107
107
167
107
107
167
107
107
167
107
107
167
107
107
167
107
107
167
107
107
167
107
107
167
107
107
167
107
107
167
107
107
167
107
107
167
107
107
167
107
107
167
107
107
167
107
107
167
107
107
167
107
107
167
107
107
167
107
107
167
107
107
167
107
107
167
107
107
167
107
107
167
107
107
167
107
107
167
107
107
167
107
107
167
107
107
167
107
107
167
107
107
67
51
27
67
51
27
67
51
27
67
51
27
67
51
27
67
51
27
67
51
27
67
51
27
167
107
107
167
107
107
167
107
107
167
107
107
167
107
107
167
107
107
167
107
107
167
107
107
167
107
107
167
107
107
167
107
107
167
107
107
167
107
107
167
107
107
167
107
107
167
107
107
167
107
107
167
107
107
167
107
107
167
107
107
167
107
107
127
127
127
167
167
167
91
99
71
55
63
39
39
83
27
47
99
35
75
159
63
91
191
79
75
159
63
55
115
43
91
99
71
55
115
43
75
159
63
75
159
63
55
115
43
111
115
87
103
107
79
99
99
99
119
119
119
139
139
139
171
171
171
119
119
119
71
79
51
167
107
107
167
107
107
167
107
107
167
107
107
167
107
107
167
107
107
167
107
107
167
107
107
167
107
107
167
107
107
167
107
107
167
107
107
167
107
107
167
107
107
167
107
107
167
107
107
167
107
107
167
107
107
167
107
107
167
107
107
67
51
27
255
255
255
255
255
255
67
51
27
67
51
27
255
255
255
255
255
255
67
51
27
67
51
27
67
51
27
67
51
27
67
51
27
67
51
27
67
51
27
67
51
27
67
51
27
0
0
0
0
0
0
0
0
0
0
0
0
0
0
0
0
0
0
0
0
0
0
0
0
75
55
27
255
127
27
255
235
223
255
235
223
255
235
223
255
235
223
255
127
27
255
127
27
75
55
27
255
127
27
255
127
27
255
127
27
255
235
223
255
255
255
255
127
27
255
127
27
167
107
107
167
107
107
167
107
107
167
107
107
167
107
107
167
107
107
167
107
107
167
107
107
167
107
107
167
107
107
167
107
107
167
107
107
167
107
107
167
107
107
167
107
107
167
107
107
167
107
107
167
107
107
167
107
107
167
107
107
167
107
107
167
107
107
167
107
107
167
107
107
167
107
107
167
107
107
167
107
107
167
107
107
167
107
107
43
35
15
115
115
255
167
107
107
115
115
255
167
107
107
167
107
107
143
143
255
167
107
107
167
107
107
167
107
107
167
107
107
167
107
107
167
107
107
167
107
107
167
107
107
167
107
107
167
107
107
167
107
107
167
107
107
167
107
107
167
107
107
167
107
107
167
107
107
167
107
107
167
107
107
167
107
107
167
107
107
167
107
107
167
107
107
167
107
107
167
107
107
167
107
107
167
107
107
167
107
107
167
107
107
67
51
27
0
0
0
0
0
0
0
0
0
0
0
0
0
0
0
0
0
0
0
0
0
167
107
107
167
107
107
167
107
107
167
107
107
167
107
107
167
107
107
167
107
107
167
107
107
167
107
107
167
107
107
167
107
107
167
107
107
167
107
107
167
107
107
167
107
107
167
107
107
167
107
107
167
107
107
167
107
107
167
107
107
167
107
107
167
107
107
167
107
107
167
107
107
167
107
107
167
107
107
167
107
107
167
107
107
167
107
107
91
99
71
91
99
71
231
231
255
199
199
255
167
107
107
167
107
107
167
107
107
167
107
107
167
107
107
167
107
107
167
107
107
167
107
107
167
107
107
167
107
107
167
107
107
167
107
107
167
107
107
167
107
107
167
107
107
167
107
107
167
107
107
167
107
107
167
107
107
167
107
107
167
107
107
167
107
107
167
107
107
167
107
107
167
107
107
167
107
107
167
107
107
167
107
107
167
107
107
167
107
107
167
107
107
67
51
27
0
0
0
0
0
0
0
0
0
0
0
0
0
0
0
0
0
0
0
0
0
167
107
107
167
107
107
167
107
107
167
107
107
167
107
107
167
107
107
167
107
107
167
107
107
167
107
107
167
107
107
167
107
107
167
107
107
167
107
107
167
107
107
167
107
107
167
107
107
167
107
107
167
107
107
167
107
107
167
107
107
167
107
107
167
107
107
167
107
107
167
107
107
167
107
107
167
107
107
167
107
107
167
107
107
167
107
107
91
99
71
91
99
71
143
143
255
143
143
255
167
107
107
167
107
107
167
107
107
167
107
107
167
107
107
167
107
107
167
107
107
167
107
107
167
107
107
167
107
107
167
107
107
167
107
107
167
107
107
167
107
107
167
107
107
167
107
107
167
107
107
167
107
107
167
107
107
167
107
107
167
107
107
167
107
107
167
107
107
167
107
107
167
107
107
167
107
107
167
107
107
167
107
107
167
107
107
167
107
107
167
107
107
67
51
27
0
0
0
0
0
0
0
0
0
0
0
0
0
0
0
0
0
0
0
0
0
167
107
107
167
107
107
167
107
107
167
107
107
167
107
107
167
107
107
167
107
107
167
107
107
167
107
107
167
107
107
167
107
107
167
107
107
167
107
107
167
107
107
167
107
107
167
107
107
167
107
107
167
107
107
167
107
107
167
107
107
167
107
107
183
183
183
191
191
191
111
111
111
47
99
35
55
115
43
83
175
71
91
191
79
95
207
87
91
191
79
91
191
79
95
207
87
95
207
87
111
239
103
119
255
111
111
239
103
91
191
79
83
175
71
75
159
63
63
131
47
119
119
119
127
127
127
59
59
59
27
27
27
167
107
107
167
107
107
167
107
107
167
107
107
167
107
107
167
107
107
167
107
107
167
107
107
167
107
107
167
107
107
167
107
107
167
107
107
167
107
107
167
107
107
167
107
107
167
107
107
167
107
107
167
107
107
167
107
107
167
107
107
67
51
27
0
0
0
0
0
0
0
0
0
0
0
0
0
0
0
0
0
0
0
0
0
67
51
27
0
0
0
0
0
0
0
0
0
0
0
0
0
0
0
0
0
0
0
0
0
0
0
0
0
0
0
0
0
0
0
0
0
0
0
0
0
0
0
0
0
0
0
0
0
75
55
27
255
235
223
255
235
223
255
127
27
255
127
27
255
235
223
255
235
223
255
127
27
75
55
27
255
127
27
255
127
27
255
255
255
255
235
223
255
255
255
255
127
27
255
127
27
167
107
107
167
107
107
167
107
107
167
107
107
167
107
107
167
107
107
167
107
107
167
107
107
167
107
107
167
107
107
167
107
107
167
107
107
167
107
107
167
107
107
167
107
107
167
107
107
167
107
107
167
107
107
167
107
107
167
107
107
167
107
107
167
107
107
167
107
107
167
107
107
167
107
107
167
107
107
167
107
107
167
107
107
167
107
107
43
35
15
43
35
15
115
115
255
167
107
107
79
59
35
167
107
107
143
143
255
167
107
107
167
107
107
167
107
107
167
107
107
167
107
107
167
107
107
167
107
107
167
107
107
167
107
107
167
107
107
167
107
107
167
107
107
167
107
107
167
107
107
167
107
107
167
107
107
167
107
107
167
107
107
167
107
107
167
107
107
167
107
107
167
107
107
167
107
107
167
107
107
167
107
107
167
107
107
167
107
107
167
107
107
67
51
27
0
0
0
0
0
0
0
0
0
0
0
0
0
0
0
0
0
0
0
0
0
167
107
107
167
107
107
167
107
107
167
107
107
167
107
107
167
107
107
167
107
107
167
107
107
167
107
107
167
107
107
167
107
107
167
107
107
167
107
107
167
107
107
167
107
107
167
107
107
167
107
107
167
107
107
167
107
107
167
107
107
167
107
107
167
107
107
167
107
107
167
107
107
167
107
107
167
107
107
167
107
107
167
107
107
167
107
107
95
67
35
199
199
255
91
99
71
171
171
255
115
115
255
167
107
107
167
107
107
167
107
107
167
107
107
167
107
107
167
107
107
167
107
107
167
107
107
167
107
107
167
107
107
167
107
107
167
107
107
167
107
107
167
107
107
167
107
107
167
107
107
167
107
107
167
107
107
167
107
107
167
107
107
167
107
107
167
107
107
167
107
107
167
107
107
167
107
107
167
107
107
167
107
107
167
107
107
167
107
107
167
107
107
67
51
27
0
0
0
0
0
0
0
0
0
0
0
0
0
0
0
0
0
0
0
0
0
167
107
107
167
107
107
167
107
107
167
107
107
167
107
107
167
107
107
167
107
107
167
107
107
167
107
107
167
107
107
167
107
107
167
107
107
167
107
107
167
107
107
167
107
107
167
107
107
167
107
107
167
107
107
167
107
107
167
107
107
167
107
107
167
107
107
167
107
107
167
107
107
167
107
107
167
107
107
167
107
107
167
107
107
167
107
107
95
67
35
83
83
255
91
99
71
143
143
255
167
107
107
167
107
107
167
107
107
167
107
107
167
107
107
167
107
107
167
107
107
167
107
107
167
107
107
167
107
107
167
107
107
167
107
107
167
107
107
167
107
107
167
107
107
167
107
107
167
107
107
167
107
107
167
107
107
167
107
107
167
107
107
167
107
107
167
107
107
167
107
107
167
107
107
167
107
107
167
107
107
167
107
107
167
107
107
167
107
107
167
107
107
67
51
27
0
0
0
0
0
0
0
0
0
0
0
0
0
0
0
0
0
0
0
0
0
167
107
107
167
107
107
167
107
107
167
107
107
167
107
107
167
107
107
167
107
107
167
107
107
167
107
107
167
107
107
167
107
107
167
107
107
167
107
107
167
107
107
167
107
107
167
107
107
167
107
107
167
107
107
167
107
107
167
107
107
167
107
107
183
183
183
139
139
139
151
151
151
167
167
167
175
151
127
147
123
99
147
123
99
147
123
99
147
123
99
147
123
99
103
107
79
107
107
107
99
99
99
99
99
99
83
87
59
83
87
59
87
87
87
99
99
99
91
91
91
71
71
71
27
27
27
0
0
0
27
27
27
167
107
107
167
107
107
167
107
107
167
107
107
167
107
107
167
107
107
167
107
107
167
107
107
167
107
107
167
107
107
167
107
107
167
107
107
167
107
107
167
107
107
167
107
107
167
107
107
167
107
107
167
107
107
167
107
107
167
107
107
67
51
27
0
0
0
0
0
0
0
0
0
0
0
0
0
0
0
0
0
0
0
0
0
67
51
27
0
0
0
0
0
0
0
0
0
0
0
0
0
0
0
0
0
0
0
0
0
0
0
0
0
0
0
0
0
0
0
0
0
0
0
0
0
0
0
0
0
0
0
0
0
75
55
27
255
127
27
255
127
27
255
127
27
255
127
27
255
235
223
255
235
223
255
127
27
75
55
27
255
127
27
255
127
27
255
127
27
255
235
223
255
255
255
255
127
27
255
127
27
167
107
107
167
107
107
167
107
107
167
107
107
167
107
107
167
107
107
167
107
107
167
107
107
167
107
107
167
107
107
167
107
107
167
107
107
167
107
107
167
107
107
167
107
107
167
107
107
167
107
107
167
107
107
167
107
107
167
107
107
167
107
107
167
107
107
167
107
107
167
107
107
167
107
107
167
107
107
167
107
107
167
107
107
167
107
107
103
83
51
95
67
35
43
35
15
167
107
107
167
107
107
167
107
107
167
107
107
143
143
255
167
107
107
131
107
75
167
107
107
167
107
107
167
107
107
167
107
107
167
107
107
167
107
107
167
107
107
167
107
107
167
107
107
167
107
107
167
107
107
167
107
107
167
107
107
167
107
107
167
107
107
167
107
107
167
107
107
167
107
107
167
107
107
167
107
107
167
107
107
167
107
107
167
107
107
167
107
107
167
107
107
67
51
27
0
0
0
0
0
0
0
0
0
0
0
0
0
0
0
0
0
0
0
0
0
167
107
107
167
107
107
167
107
107
167
107
107
167
107
107
167
107
107
167
107
107
167
107
107
167
107
107
167
107
107
167
107
107
167
107
107
167
107
107
167
107
107
167
107
107
167
107
107
167
107
107
167
107
107
167
107
107
167
107
107
167
107
107
167
107
107
167
107
107
167
107
107
167
107
107
167
107
107
167
107
107
167
107
107
167
107
107
191
167
143
199
199
255
0
0
203
115
115
255
171
171
255
167
107
107
167
107
107
167
107
107
167
107
107
167
107
107
167
107
107
167
107
107
167
107
107
167
107
107
167
107
107
167
107
107
167
107
107
167
107
107
167
107
107
167
107
107
167
107
107
167
107
107
167
107
107
167
107
107
167
107
107
167
107
107
167
107
107
167
107
107
167
107
107
167
107
107
167
107
107
167
107
107
167
107
107
167
107
107
167
107
107
67
51
27
0
0
0
0
0
0
0
0
0
0
0
0
0
0
0
0
0
0
0
0
0
167
107
107
167
107
107
167
107
107
167
107
107
167
107
107
167
107
107
167
107
107
167
107
107
167
107
107
167
107
107
167
107
107
167
107
107
167
107
107
167
107
107
167
107
107
167
107
107
167
107
107
167
107
107
167
107
107
167
107
107
167
107
107
167
107
107
167
107
107
167
107
107
167
107
107
167
107
107
167
107
107
167
107
107
167
107
107
191
167
143
199
199
255
0
0
203
167
107
107
143
143
255
167
107
107
167
107
107
167
107
107
167
107
107
167
107
107
167
107
107
167
107
107
167
107
107
167
107
107
167
107
107
167
107
107
167
107
107
167
107
107
167
107
107
167
107
107
167
107
107
167
107
107
167
107
107
167
107
107
167
107
107
167
107
107
167
107
107
167
107
107
167
107
107
167
107
107
167
107
107
167
107
107
167
107
107
167
107
107
167
107
107
67
51
27
0
0
0
0
0
0
0
0
0
0
0
0
0
0
0
0
0
0
0
0
0
167
107
107
167
107
107
167
107
107
167
107
107
167
107
107
167
107
107
167
107
107
167
107
107
167
107
107
167
107
107
167
107
107
167
107
107
167
107
107
167
107
107
167
107
107
167
107
107
167
107
107
167
107
107
167
107
107
167
107
107
167
107
107
183
183
183
123
127
99
103
107
79
103
107
79
103
107
79
91
99
71
91
99
71
63
71
43
63
71
43
63
71
43
63
71
43
71
71
71
71
71
71
71
71
71
59
59
59
55
55
55
55
55
55
27
27
27
27
27
27
0
0
0
19
19
19
27
27
27
55
55
55
167
107
107
167
107
107
167
107
107
167
107
107
167
107
107
167
107
107
167
107
107
167
107
107
167
107
107
167
107
107
167
107
107
167
107
107
167
107
107
167
107
107
167
107
107
167
107
107
167
107
107
167
107
107
167
107
107
167
107
107
67
51
27
0
0
0
0
0
0
0
0
0
0
0
0
0
0
0
0
0
0
0
0
0
67
51
27
0
0
0
0
0
0
0
0
0
0
0
0
0
0
0
0
0
0
0
0
0
0
0
0
0
0
0
0
0
0
0
0
0
0
0
0
0
0
0
0
0
0
0
0
0
75
55
27
255
127
27
255
127
27
255
235
223
255
235
223
255
235
223
255
127
27
255
127
27
75
55
27
255
127
27
255
127
27
255
127
27
255
235
223
255
255
255
255
127
27
255
127
27
167
107
107
167
107
107
167
107
107
167
107
107
167
107
107
167
107
107
167
107
107
167
107
107
167
107
107
167
107
107
167
107
107
167
107
107
167
107
107
167
107
107
167
107
107
167
107
107
167
107
107
167
107
107
167
107
107
167
107
107
167
107
107
167
107
107
167
107
107
167
107
107
167
107
107
167
107
107
167
107
107
167
107
107
167
107
107
103
83
51
63
47
23
83
63
31
167
107
107
43
35
15
43
35
15
43
35
15
143
143
255
167
107
107
167
107
107
167
107
107
167
107
107
167
107
107
167
107
107
167
107
107
167
107
107
167
107
107
167
107
107
167
107
107
167
107
107
167
107
107
167
107
107
167
107
107
167
107
107
167
107
107
167
107
107
167
107
107
167
107
107
167
107
107
167
107
107
167
107
107
167
107
107
167
107
107
167
107
107
167
107
107
67
51
27
0
0
0
0
0
0
0
0
0
0
0
0
0
0
0
0
0
0
0
0
0
167
107
107
167
107
107
167
107
107
167
107
107
167
107
107
167
107
107
167
107
107
167
107
107
167
107
107
167
107
107
167
107
107
167
107
107
167
107
107
167
107
107
167
107
107
167
107
107
167
107
107
167
107
107
167
107
107
167
107
107
167
107
107
167
107
107
167
107
107
167
107
107
167
107
107
167
107
107
167
107
107
167
107
107
167
107
107
191
167
143
171
171
255
0
0
179
167
107
107
171
171
255
167
107
107
167
107
107
167
107
107
167
107
107
167
107
107
167
107
107
167
107
107
167
107
107
167
107
107
167
107
107
167
107
107
167
107
107
167
107
107
167
107
107
167
107
107
167
107
107
167
107
107
167
107
107
167
107
107
167
107
107
167
107
107
167
107
107
167
107
107
167
107
107
167
107
107
167
107
107
167
107
107
167
107
107
167
107
107
167
107
107
67
51
27
0
0
0
0
0
0
0
0
0
0
0
0
0
0
0
0
0
0
0
0
0
167
107
107
167
107
107
167
107
107
167
107
107
167
107
107
167
107
107
167
107
107
167
107
107
167
107
107
167
107
107
167
107
107
167
107
107
167
107
107
167
107
107
167
107
107
167
107
107
167
107
107
167
107
107
167
107
107
167
107
107
167
107
107
167
107
107
167
107
107
167
107
107
167
107
107
167
107
107
167
107
107
167
107
107
167
107
107
191
167
143
199
199
255
0
0
179
167
107
107
143
143
255
167
107
107
167
107
107
167
107
107
167
107
107
167
107
107
167
107
107
167
107
107
167
107
107
167
107
107
167
107
107
167
107
107
167
107
107
167
107
107
167
107
107
167
107
107
167
107
107
167
107
107
167
107
107
167
107
107
167
107
107
167
107
107
167
107
107
167
107
107
167
107
107
167
107
107
167
107
107
167
107
107
167
107
107
167
107
107
167
107
107
67
51
27
0
0
0
0
0
0
0
0
0
0
0
0
0
0
0
0
0
0
0
0
0
167
107
107
167
107
107
167
107
107
167
107
107
167
107
107
167
107
107
167
107
107
167
107
107
167
107
107
167
107
107
167
107
107
167
107
107
167
107
107
167
107
107
167
107
107
167
107
107
167
107
107
167
107
107
167
107
107
167
107
107
167
107
107
191
191
191
159
135
111
155
127
107
167
143
119
159
135
111
123
127
99
111
115
87
103
107
79
83
87
59
83
87
59
71
79
51
71
79
51
63
71
43
55
63
39
23
51
15
35
35
35
19
19
19
0
0
0
19
19
19
27
27
27
27
27
27
27
27
27
47
47
47
167
107
107
167
107
107
167
107
107
167
107
107
167
107
107
167
107
107
167
107
107
167
107
107
167
107
107
167
107
107
167
107
107
167
107
107
167
107
107
167
107
107
167
107
107
167
107
107
167
107
107
167
107
107
167
107
107
167
107
107
67
51
27
0
0
0
0
0
0
0
0
0
0
0
0
0
0
0
0
0
0
0
0
0
67
51
27
0
0
0
0
0
0
0
0
0
0
0
0
0
0
0
0
0
0
0
0
0
0
0
0
0
0
0
0
0
0
0
0
0
0
0
0
0
0
0
0
0
0
0
0
0
75
55
27
255
127
27
255
235
223
255
235
223
255
127
27
255
127
27
255
127
27
255
127
27
75
55
27
255
127
27
255
127
27
255
127
27
255
235
223
255
255
255
255
127
27
255
127
27
167
107
107
167
107
107
167
107
107
167
107
107
167
107
107
167
107
107
167
107
107
167
107
107
167
107
107
167
107
107
167
107
107
167
107
107
167
107
107
167
107
107
167
107
107
167
107
107
167
107
107
167
107
107
167
107
107
167
107
107
167
107
107
167
107
107
167
107
107
167
107
107
167
107
107
167
107
107
167
107
107
167
107
107
167
107
107
103
83
51
63
47
23
83
63
31
167
107
107
43
35
15
95
67
35
95
67
35
83
63
31
55
55
255
167
107
107
167
107
107
167
107
107
167
107
107
167
107
107
167
107
107
167
107
107
167
107
107
167
107
107
167
107
107
167
107
107
167
107
107
167
107
107
167
107
107
167
107
107
167
107
107
167
107
107
167
107
107
167
107
107
167
107
107
167
107
107
167
107
107
167
107
107
167
107
107
167
107
107
167
107
107
67
51
27
0
0
0
0
0
0
0
0
0
0
0
0
0
0
0
0
0
0
0
0
0
167
107
107
167
107
107
167
107
107
167
107
107
167
107
107
167
107
107
167
107
107
167
107
107
167
107
107
167
107
107
167
107
107
167
107
107
167
107
107
167
107
107
167
107
107
167
107
107
167
107
107
167
107
107
167
107
107
167
107
107
167
107
107
167
107
107
167
107
107
167
107
107
167
107
107
167
107
107
167
107
107
167
107
107
167
107
107
191
191
191
143
143
255
0
0
179
167
107
107
171
171
255
167
107
107
167
107
107
167
107
107
167
107
107
167
107
107
167
107
107
167
107
107
167
107
107
167
107
107
167
107
107
167
107
107
167
107
107
167
107
107
167
107
107
167
107
107
167
107
107
167
107
107
167
107
107
167
107
107
167
107
107
167
107
107
167
107
107
167
107
107
167
107
107
167
107
107
167
107
107
167
107
107
167
107
107
167
107
107
167
107
107
67
51
27
0
0
0
0
0
0
0
0
0
0
0
0
0
0
0
0
0
0
0
0
0
167
107
107
167
107
107
167
107
107
167
107
107
167
107
107
167
107
107
167
107
107
167
107
107
167
107
107
167
107
107
167
107
107
167
107
107
167
107
107
167
107
107
167
107
107
167
107
107
167
107
107
167
107
107
167
107
107
167
107
107
167
107
107
167
107
107
167
107
107
167
107
107
167
107
107
167
107
107
167
107
107
167
107
107
167
107
107
191
191
191
171
171
255
0
0
179
167
107
107
143
143
255
167
107
107
167
107
107
167
107
107
167
107
107
167
107
107
167
107
107
167
107
107
167
107
107
167
107
107
167
107
107
167
107
107
167
107
107
167
107
107
167
107
107
167
107
107
167
107
107
167
107
107
167
107
107
167
107
107
167
107
107
167
107
107
167
107
107
167
107
107
167
107
107
167
107
107
167
107
107
167
107
107
167
107
107
167
107
107
167
107
107
67
51
27
0
0
0
0
0
0
0
0
0
0
0
0
0
0
0
0
0
0
0
0
0
167
107
107
167
107
107
167
107
107
167
107
107
167
107
107
167
107
107
167
107
107
167
107
107
167
107
107
167
107
107
167
107
107
167
107
107
167
107
107
167
107
107
167
107
107
167
107
107
167
107
107
167
107
107
167
107
107
167
107
107
167
107
107
183
183
183
183
159
135
175
151
127
183
159
135
175
151
127
159
135
111
123
127
99
123
127
99
111
115
87
111
115
87
103
107
79
91
99
71
83
87
59
83
87
59
55
63
39
59
59
59
39
39
39
19
35
11
19
35
11
19
19
19
19
19
19
27
27
27
35
35
35
167
107
107
167
107
107
167
107
107
167
107
107
167
107
107
167
107
107
167
107
107
167
107
107
167
107
107
167
107
107
167
107
107
167
107
107
167
107
107
167
107
107
167
107
107
167
107
107
167
107
107
167
107
107
167
107
107
167
107
107
67
51
27
255
255
255
255
255
255
255
255
255
255
255
255
255
255
255
0
0
0
0
0
0
67
51
27
0
0
0
0
0
0
0
0
0
0
0
0
0
0
0
0
0
0
0
0
0
0
0
0
0
0
0
0
0
0
0
0
0
0
0
0
0
0
0
0
0
0
0
0
0
75
55
27
255
235
223
255
235
223
255
127
27
255
127
27
255
235
223
255
235
223
255
127
27
75
55
27
255
127
27
255
127
27
255
127
27
255
235
223
255
255
255
255
127
27
255
127
27
167
107
107
167
107
107
167
107
107
167
107
107
167
107
107
167
107
107
167
107
107
167
107
107
167
107
107
167
107
107
167
107
107
167
107
107
167
107
107
167
107
107
167
107
107
167
107
107
167
107
107
167
107
107
167
107
107
167
107
107
167
107
107
167
107
107
167
107
107
167
107
107
167
107
107
167
107
107
167
107
107
167
107
107
167
107
107
103
83
51
63
47
23
83
63
31
167
107
107
167
107
107
103
83
51
103
83
51
63
47
23
83
63
31
167
107
107
167
107
107
167
107
107
167
107
107
167
107
107
167
107
107
167
107
107
167
107
107
167
107
107
167
107
107
167
107
107
167
107
107
167
107
107
167
107
107
167
107
107
167
107
107
167
107
107
167
107
107
167
107
107
167
107
107
167
107
107
167
107
107
167
107
107
167
107
107
167
107
107
167
107
107
67
51
27
0
0
0
0
0
0
0
0
0
0
0
0
0
0
0
0
0
0
0
0
0
167
107
107
167
107
107
167
107
107
167
107
107
167
107
107
167
107
107
167
107
107
167
107
107
167
107
107
167
107
107
167
107
107
167
107
107
167
107
107
167
107
107
167
107
107
167
107
107
167
107
107
167
107
107
167
107
107
167
107
107
167
107
107
167
107
107
167
107
107
167
107
107
167
107
107
167
107
107
167
107
107
167
107
107
167
107
107
191
167
143
115
115
255
0
0
179
167
107
107
171
171
255
167
107
107
167
107
107
167
107
107
167
107
107
167
107
107
167
107
107
167
107
107
167
107
107
167
107
107
167
107
107
167
107
107
167
107
107
167
107
107
167
107
107
167
107
107
167
107
107
167
107
107
167
107
107
167
107
107
167
107
107
167
107
107
167
107
107
167
107
107
167
107
107
167
107
107
167
107
107
167
107
107
167
107
107
167
107
107
167
107
107
67
51
27
0
0
0
0
0
0
0
0
0
0
0
0
0
0
0
0
0
0
0
0
0
167
107
107
167
107
107
167
107
107
167
107
107
167
107
107
167
107
107
167
107
107
167
107
107
167
107
107
167
107
107
167
107
107
167
107
107
167
107
107
167
107
107
167
107
107
167
107
107
167
107
107
167
107
107
167
107
107
167
107
107
167
107
107
167
107
107
167
107
107
167
107
107
167
107
107
167
107
107
167
107
107
167
107
107
167
107
107
191
167
143
143
143
255
0
0
179
167
107
107
167
107
107
143
143
255
167
107
107
167
107
107
167
107
107
167
107
107
167
107
107
167
107
107
167
107
107
167
107
107
167
107
107
167
107
107
167
107
107
167
107
107
167
107
107
167
107
107
167
107
107
167
107
107
167
107
107
167
107
107
167
107
107
167
107
107
167
107
107
167
107
107
167
107
107
167
107
107
167
107
107
167
107
107
167
107
107
167
107
107
167
107
107
67
51
27
0
0
0
0
0
0
0
0
0
0
0
0
0
0
0
0
0
0
0
0
0
167
107
107
167
107
107
167
107
107
167
107
107
167
107
107
167
107
107
167
107
107
167
107
107
167
107
107
167
107
107
167
107
107
167
107
107
167
107
107
167
107
107
167
107
107
167
107
107
167
107
107
167
107
107
167
107
107
167
107
107
167
107
107
159
159
159
147
147
147
159
159
159
179
179
179
151
151
151
167
143
119
147
123
99
147
123
99
147
123
99
123
127
99
123
127
99
111
115
87
111
115
87
103
107
79
91
99
71
91
99
71
71
79
51
55
63
39
19
35
11
11
11
11
19
19
19
27
27
27
55
55
55
167
107
107
167
107
107
167
107
107
167
107
107
167
107
107
167
107
107
167
107
107
167
107
107
167
107
107
167
107
107
167
107
107
167
107
107
167
107
107
167
107
107
167
107
107
167
107
107
167
107
107
167
107
107
167
107
107
167
107
107
67
51
27
0
0
0
0
0
0
0
0
0
0
0
0
255
255
255
255
255
255
0
0
0
67
51
27
0
0
0
0
0
0
0
0
0
0
0
0
0
0
0
0
0
0
0
0
0
0
0
0
0
0
0
0
0
0
0
0
0
0
0
0
0
0
0
0
0
0
0
0
0
75
55
27
255
235
223
255
235
223
255
235
223
255
235
223
255
235
223
255
235
223
255
127
27
75
55
27
255
127
27
255
127
27
255
255
255
255
255
255
255
255
255
255
255
255
255
127
27
167
107
107
167
107
107
167
107
107
167
107
107
167
107
107
167
107
107
167
107
107
167
107
107
167
107
107
167
107
107
167
107
107
167
107
107
167
107
107
167
107
107
167
107
107
167
107
107
167
107
107
167
107
107
167
107
107
167
107
107
167
107
107
167
107
107
167
107
107
167
107
107
167
107
107
167
107
107
167
107
107
167
107
107
167
107
107
103
83
51
63
47
23
83
63
31
167
107
107
167
107
107
167
107
107
103
83
51
103
83
51
63
47
23
83
63
31
167
107
107
167
107
107
167
107
107
167
107
107
167
107
107
167
107
107
167
107
107
167
107
107
167
107
107
167
107
107
167
107
107
167
107
107
167
107
107
167
107
107
167
107
107
167
107
107
167
107
107
167
107
107
167
107
107
167
107
107
167
107
107
167
107
107
167
107
107
167
107
107
167
107
107
67
51
27
0
0
0
0
0
0
0
0
0
0
0
0
0
0
0
0
0
0
0
0
0
167
107
107
167
107
107
167
107
107
167
107
107
167
107
107
167
107
107
167
107
107
167
107
107
167
107
107
167
107
107
167
107
107
167
107
107
167
107
107
167
107
107
167
107
107
167
107
107
167
107
107
167
107
107
167
107
107
167
107
107
167
107
107
167
107
107
167
107
107
167
107
107
167
107
107
167
107
107
167
107
107
167
107
107
167
107
107
191
167
143
115
115
255
0
0
155
167
107
107
115
115
255
143
143
255
167
107
107
167
107
107
167
107
107
167
107
107
167
107
107
167
107
107
167
107
107
167
107
107
167
107
107
167
107
107
167
107
107
167
107
107
167
107
107
167
107
107
167
107
107
167
107
107
167
107
107
167
107
107
167
107
107
167
107
107
167
107
107
167
107
107
167
107
107
167
107
107
167
107
107
167
107
107
167
107
107
167
107
107
167
107
107
67
51
27
0
0
0
0
0
0
0
0
0
0
0
0
0
0
0
0
0
0
0
0
0
167
107
107
167
107
107
167
107
107
167
107
107
167
107
107
167
107
107
167
107
107
167
107
107
167
107
107
167
107
107
167
107
107
167
107
107
167
107
107
167
107
107
167
107
107
167
107
107
167
107
107
167
107
107
167
107
107
167
107
107
167
107
107
167
107
107
167
107
107
167
107
107
167
107
107
167
107
107
167
107
107
167
107
107
167
107
107
191
167
143
115
115
255
0
0
155
167
107
107
167
107
107
143
143
255
167
107
107
167
107
107
167
107
107
167
107
107
167
107
107
167
107
107
167
107
107
167
107
107
167
107
107
167
107
107
167
107
107
167
107
107
167
107
107
167
107
107
167
107
107
167
107
107
167
107
107
167
107
107
167
107
107
167
107
107
167
107
107
167
107
107
167
107
107
167
107
107
167
107
107
167
107
107
167
107
107
167
107
107
167
107
107
67
51
27
0
0
0
0
0
0
0
0
0
0
0
0
0
0
0
0
0
0
0
0
0
167
107
107
167
107
107
167
107
107
167
107
107
167
107
107
167
107
107
167
107
107
167
107
107
167
107
107
167
107
107
167
107
107
167
107
107
167
107
107
167
107
107
167
107
107
167
107
107
167
107
107
167
107
107
167
107
107
167
107
107
167
107
107
139
139
139
111
115
87
123
127
99
139
115
91
103
107
79
103
107
79
91
99
71
91
99
71
91
99
71
83
87
59
71
79
51
71
79
51
63
71
43
71
79
51
63
71
43
55
63
39
47
47
47
19
35
11
11
23
7
0
0
0
27
27
27
35
35
35
59
59
59
167
107
107
167
107
107
167
107
107
167
107
107
167
107
107
167
107
107
167
107
107
167
107
107
167
107
107
167
107
107
167
107
107
167
107
107
167
107
107
167
107
107
167
107
107
167
107
107
167
107
107
167
107
107
167
107
107
167
107
107
67
51
27
0
0
0
0
0
0
0
0
0
0
0
0
255
255
255
255
255
255
0
0
0
67
51
27
0
0
0
0
0
0
0
0
0
0
0
0
0
0
0
0
0
0
0
0
0
0
0
0
0
0
0
0
0
0
0
0
0
0
0
0
0
0
0
0
0
0
0
0
0
75
55
27
75
55
27
75
55
27
75
55
27
67
51
27
67
51
27
67
51
27
67
51
27
75
55
27
75
55
27
75
55
27
75
55
27
67
51
27
67
51
27
67
51
27
67
51
27
167
107
107
167
107
107
167
107
107
167
107
107
167
107
107
167
107
107
167
107
107
167
107
107
167
107
107
167
107
107
167
107
107
167
107
107
167
107
107
167
107
107
167
107
107
167
107
107
167
107
107
167
107
107
167
107
107
167
107
107
167
107
107
167
107
107
167
107
107
167
107
107
167
107
107
167
107
107
167
107
107
167
107
107
167
107
107
103
83
51
63
47
23
83
63
31
167
107
107
167
107
107
91
71
43
167
107
107
103
83
51
103
83
51
63
47
23
83
63
31
167
107
107
167
107
107
167
107
107
167
107
107
167
107
107
167
107
107
167
107
107
167
107
107
167
107
107
167
107
107
167
107
107
167
107
107
167
107
107
167
107
107
167
107
107
167
107
107
167
107
107
167
107
107
167
107
107
167
107
107
167
107
107
167
107
107
167
107
107
167
107
107
67
51
27
67
51
27
67
51
27
67
51
27
67
51
27
67
51
27
67
51
27
67
51
27
167
107
107
167
107
107
167
107
107
167
107
107
167
107
107
167
107
107
167
107
107
167
107
107
167
107
107
167
107
107
167
107
107
167
107
107
167
107
107
167
107
107
167
107
107
167
107
107
167
107
107
167
107
107
167
107
107
167
107
107
167
107
107
167
107
107
167
107
107
167
107
107
167
107
107
167
107
107
167
107
107
167
107
107
167
107
107
191
167
143
83
83
255
0
0
155
167
107
107
167
107
107
115
115
255
143
143
255
167
107
107
167
107
107
167
107
107
167
107
107
167
107
107
167
107
107
167
107
107
167
107
107
167
107
107
167
107
107
167
107
107
167
107
107
167
107
107
167
107
107
167
107
107
167
107
107
167
107
107
167
107
107
167
107
107
167
107
107
167
107
107
167
107
107
167
107
107
167
107
107
167
107
107
167
107
107
167
107
107
167
107
107
67
51
27
67
51
27
67
51
27
67
51
27
67
51
27
67
51
27
67
51
27
67
51
27
167
107
107
167
107
107
167
107
107
167
107
107
167
107
107
167
107
107
167
107
107
167
107
107
167
107
107
167
107
107
167
107
107
167
107
107
167
107
107
167
107
107
167
107
107
167
107
107
167
107
107
167
107
107
167
107
107
167
107
107
167
107
107
167
107
107
167
107
107
167
107
107
167
107
107
167
107
107
167
107
107
167
107
107
167
107
107
191
167
143
115
115
255
0
0
155
167
107
107
167
107
107
167
107
107
143
143
255
167
107
107
167
107
107
167
107
107
167
107
107
167
107
107
167
107
107
167
107
107
167
107
107
167
107
107
167
107
107
167
107
107
167
107
107
167
107
107
167
107
107
167
107
107
167
107
107
167
107
107
167
107
107
167
107
107
167
107
107
167
107
107
167
107
107
167
107
107
167
107
107
167
107
107
167
107
107
167
107
107
167
107
107
67
51
27
67
51
27
67
51
27
67
51
27
67
51
27
67
51
27
67
51
27
67
51
27
167
107
107
167
107
107
167
107
107
167
107
107
167
107
107
167
107
107
167
107
107
167
107
107
167
107
107
167
107
107
167
107
107
167
107
107
167
107
107
167
107
107
167
107
107
167
107
107
167
107
107
167
107
107
167
107
107
167
107
107
167
107
107
159
159
159
111
115
87
103
107
79
119
95
75
95
75
55
71
79
51
63
71
43
63
71
43
55
63
39
39
39
39
35
35
35
27
27
27
19
19
19
19
19
19
19
19
19
11
11
11
11
11
11
19
19
19
11
11
11
11
11
11
27
27
27
47
47
47
55
55
55
167
107
107
167
107
107
167
107
107
167
107
107
167
107
107
167
107
107
167
107
107
167
107
107
167
107
107
167
107
107
167
107
107
167
107
107
167
107
107
167
107
107
167
107
107
167
107
107
167
107
107
167
107
107
167
107
107
167
107
107
67
51
27
67
51
27
67
51
27
255
255
255
255
255
255
255
255
255
67
51
27
67
51
27
67
51
27
67
51
27
67
51
27
67
51
27
67
51
27
67
51
27
67
51
27
67
51
27
0
0
0
0
0
0
0
0
0
0
0
0
0
0
0
0
0
0
0
0
0
0
0
0
75
55
27
255
127
27
255
235
223
255
235
223
255
235
223
255
235
223
255
127
27
255
127
27
75
55
27
255
127
27
255
235
223
255
235
223
255
235
223
255
235
223
255
127
27
255
127
27
167
107
107
167
107
107
167
107
107
167
107
107
167
107
107
167
107
107
167
107
107
167
107
107
167
107
107
167
107
107
167
107
107
167
107
107
167
107
107
167
107
107
167
107
107
167
107
107
167
107
107
167
107
107
167
107
107
167
107
107
167
107
107
167
107
107
167
107
107
167
107
107
167
107
107
167
107
107
167
107
107
167
107
107
167
107
107
103
83
51
63
47
23
83
63
31
167
107
107
167
107
107
167
107
107
167
107
107
167
107
107
103
83
51
103
83
51
63
47
23
83
63
31
167
107
107
167
107
107
167
107
107
167
107
107
167
107
107
167
107
107
167
107
107
167
107
107
167
107
107
167
107
107
167
107
107
167
107
107
167
107
107
167
107
107
167
107
107
167
107
107
167
107
107
167
107
107
167
107
107
167
107
107
167
107
107
167
107
107
167
107
107
67
51
27
0
0
0
0
0
0
0
0
0
0
0
0
0
0
0
0
0
0
0
0
0
167
107
107
167
107
107
167
107
107
167
107
107
167
107
107
167
107
107
167
107
107
167
107
107
167
107
107
167
107
107
167
107
107
167
107
107
167
107
107
167
107
107
167
107
107
167
107
107
167
107
107
167
107
107
167
107
107
167
107
107
167
107
107
167
107
107
167
107
107
167
107
107
167
107
107
167
107
107
167
107
107
167
107
107
167
107
107
191
167
143
83
83
255
0
0
155
167
107
107
167
107
107
167
107
107
115
115
255
167
107
107
167
107
107
167
107
107
167
107
107
167
107
107
167
107
107
167
107
107
167
107
107
167
107
107
167
107
107
167
107
107
167
107
107
167
107
107
167
107
107
167
107
107
167
107
107
167
107
107
167
107
107
167
107
107
167
107
107
167
107
107
167
107
107
167
107
107
167
107
107
167
107
107
167
107
107
167
107
107
167
107
107
67
51
27
0
0
0
0
0
0
0
0
0
0
0
0
0
0
0
0
0
0
0
0
0
167
107
107
167
107
107
167
107
107
167
107
107
167
107
107
167
107
107
167
107
107
167
107
107
167
107
107
167
107
107
167
107
107
167
107
107
167
107
107
167
107
107
167
107
107
167
107
107
167
107
107
167
107
107
167
107
107
167
107
107
167
107
107
167
107
107
167
107
107
167
107
107
167
107
107
167
107
107
167
107
107
167
107
107
167
107
107
191
167
143
83
83
255
0
0
155
167
107
107
167
107
107
167
107
107
143
143
255
167
107
107
167
107
107
167
107
107
167
107
107
167
107
107
167
107
107
167
107
107
167
107
107
167
107
107
167
107
107
167
107
107
167
107
107
167
107
107
167
107
107
167
107
107
167
107
107
167
107
107
167
107
107
167
107
107
167
107
107
167
107
107
167
107
107
167
107
107
167
107
107
167
107
107
167
107
107
167
107
107
167
107
107
67
51
27
0
0
0
0
0
0
0
0
0
0
0
0
0
0
0
0
0
0
0
0
0
167
107
107
167
107
107
167
107
107
167
107
107
167
107
107
167
107
107
167
107
107
167
107
107
167
107
107
167
107
107
167
107
107
167
107
107
167
107
107
167
107
107
167
107
107
167
107
107
167
107
107
167
107
107
167
107
107
167
107
107
167
107
107
167
167
167
123
127
99
123
127
99
167
143
119
139
115
91
103
107
79
83
87
59
71
79
51
55
63
39
39
39
39
39
39
39
27
27
27
19
35
11
19
19
19
11
23
7
11
11
11
0
0
0
19
19
19
19
19
19
19
19
19
19
19
19
27
27
27
55
55
55
167
107
107
167
107
107
167
107
107
167
107
107
167
107
107
167
107
107
167
107
107
167
107
107
167
107
107
167
107
107
167
107
107
167
107
107
167
107
107
167
107
107
167
107
107
167
107
107
167
107
107
167
107
107
167
107
107
167
107
107
67
51
27
0
0
0
255
255
255
255
255
255
0
0
0
0
0
0
0
0
0
0
0
0
67
51
27
0
0
0
0
0
0
0
0
0
0
0
0
0
0
0
0
0
0
0
0
0
0
0
0
0
0
0
0
0
0
0
0
0
0
0
0
0
0
0
0
0
0
0
0
0
75
55
27
255
235
223
255
235
223
255
127
27
255
127
27
255
235
223
255
235
223
255
127
27
75
55
27
255
235
223
255
235
223
255
127
27
255
127
27
255
235
223
255
235
223
255
127
27
167
107
107
167
107
107
167
107
107
167
107
107
167
107
107
167
107
107
167
107
107
167
107
107
167
107
107
167
107
107
167
107
107
167
107
107
167
107
107
167
107
107
167
107
107
167
107
107
167
107
107
167
107
107
167
107
107
167
107
107
167
107
107
167
107
107
167
107
107
167
107
107
167
107
107
167
107
107
167
107
107
167
107
107
167
107
107
103
83
51
63
47
23
83
63
31
167
107
107
167
107
107
167
107
107
167
107
107
167
107
107
167
107
107
103
83
51
103
83
51
63
47
23
75
55
27
167
107
107
167
107
107
167
107
107
167
107
107
167
107
107
167
107
107
167
107
107
167
107
107
167
107
107
167
107
107
167
107
107
167
107
107
167
107
107
167
107
107
167
107
107
167
107
107
167
107
107
167
107
107
167
107
107
167
107
107
167
107
107
167
107
107
67
51
27
0
0
0
0
0
0
0
0
0
0
0
0
0
0
0
0
0
0
0
0
0
167
107
107
167
107
107
167
107
107
167
107
107
167
107
107
167
107
107
167
107
107
167
107
107
167
107
107
167
107
107
167
107
107
167
107
107
167
107
107
167
107
107
167
107
107
167
107
107
167
107
107
167
107
107
167
107
107
167
107
107
167
107
107
167
107
107
167
107
107
167
107
107
167
107
107
167
107
107
167
107
107
167
107
107
167
107
107
183
159
135
0
0
255
0
0
155
167
107
107
167
107
107
115
115
255
167
107
107
167
107
107
167
107
107
167
107
107
167
107
107
167
107
107
167
107
107
167
107
107
167
107
107
167
107
107
167
107
107
167
107
107
167
107
107
167
107
107
167
107
107
167
107
107
167
107
107
167
107
107
167
107
107
167
107
107
167
107
107
167
107
107
167
107
107
167
107
107
167
107
107
167
107
107
167
107
107
167
107
107
167
107
107
67
51
27
0
0
0
0
0
0
0
0
0
0
0
0
0
0
0
0
0
0
0
0
0
167
107
107
167
107
107
167
107
107
167
107
107
167
107
107
167
107
107
167
107
107
167
107
107
167
107
107
167
107
107
167
107
107
167
107
107
167
107
107
167
107
107
167
107
107
167
107
107
167
107
107
167
107
107
167
107
107
167
107
107
167
107
107
167
107
107
167
107
107
167
107
107
167
107
107
167
107
107
167
107
107
167
107
107
167
107
107
183
159
135
83
83
255
0
0
155
167
107
107
167
107
107
167
107
107
143
143
255
167
107
107
167
107
107
167
107
107
167
107
107
167
107
107
167
107
107
167
107
107
167
107
107
167
107
107
167
107
107
167
107
107
167
107
107
167
107
107
167
107
107
167
107
107
167
107
107
167
107
107
167
107
107
167
107
107
167
107
107
167
107
107
167
107
107
167
107
107
167
107
107
167
107
107
167
107
107
167
107
107
167
107
107
67
51
27
0
0
0
0
0
0
0
0
0
0
0
0
0
0
0
0
0
0
0
0
0
167
107
107
167
107
107
167
107
107
167
107
107
167
107
107
167
107
107
167
107
107
167
107
107
167
107
107
167
107
107
167
107
107
167
107
107
167
107
107
167
107
107
167
107
107
167
107
107
167
107
107
167
107
107
167
107
107
167
107
107
167
107
107
167
167
167
123
127
99
123
127
99
191
167
143
159
135
111
111
115
87
111
115
87
103
107
79
91
99
71
83
87
59
83
87
59
71
79
51
63
71
43
55
63
39
23
51
15
35
35
35
19
19
19
0
0
0
0
0
0
0
0
0
19
19
19
27
27
27
59
59
59
167
107
107
167
107
107
167
107
107
167
107
107
167
107
107
167
107
107
167
107
107
167
107
107
167
107
107
167
107
107
167
107
107
167
107
107
167
107
107
167
107
107
167
107
107
167
107
107
167
107
107
167
107
107
167
107
107
167
107
107
67
51
27
255
255
255
255
255
255
0
0
0
0
0
0
0
0
0
0
0
0
0
0
0
67
51
27
0
0
0
0
0
0
0
0
0
0
0
0
0
0
0
0
0
0
0
0
0
0
0
0
0
0
0
0
0
0
0
0
0
0
0
0
0
0
0
0
0
0
0
0
0
75
55
27
255
127
27
255
127
27
255
127
27
255
127
27
255
235
223
255
235
223
255
127
27
75
55
27
255
127
27
255
127
27
255
127
27
255
127
27
255
235
223
255
235
223
255
127
27
167
107
107
167
107
107
167
107
107
167
107
107
167
107
107
167
107
107
167
107
107
167
107
107
167
107
107
167
107
107
167
107
107
167
107
107
167
107
107
167
107
107
167
107
107
167
107
107
167
107
107
167
107
107
167
107
107
167
107
107
167
107
107
167
107
107
167
107
107
167
107
107
167
107
107
167
107
107
167
107
107
167
107
107
167
107
107
103
83
51
63
47
23
83
63
31
167
107
107
167
107
107
167
107
107
167
107
107
167
107
107
167
107
107
167
107
107
103
83
51
103
83
51
63
47
23
75
55
27
167
107
107
167
107
107
167
107
107
167
107
107
167
107
107
19
19
19
19
19
19
19
19
19
19
19
19
39
39
39
167
107
107
167
107
107
167
107
107
167
107
107
167
107
107
167
107
107
167
107
107
167
107
107
167
107
107
167
107
107
167
107
107
67
51
27
0
0
0
0
0
0
0
0
0
0
0
0
0
0
0
0
0
0
0
0
0
167
107
107
167
107
107
167
107
107
167
107
107
167
107
107
167
107
107
167
107
107
167
107
107
167
107
107
167
107
107
167
107
107
167
107
107
167
107
107
167
107
107
167
107
107
167
107
107
167
107
107
167
107
107
167
107
107
167
107
107
167
107
107
167
107
107
167
107
107
167
107
107
167
107
107
167
107
107
167
107
107
167
107
107
167
107
107
151
151
151
0
0
255
0
0
155
167
107
107
167
107
107
115
115
255
167
107
107
167
107
107
167
107
107
167
107
107
167
107
107
167
107
107
167
107
107
167
107
107
167
107
107
167
107
107
167
107
107
167
107
107
167
107
107
167
107
107
167
107
107
167
107
107
167
107
107
167
107
107
167
107
107
167
107
107
167
107
107
167
107
107
167
107
107
167
107
107
167
107
107
167
107
107
167
107
107
167
107
107
167
107
107
67
51
27
0
0
0
0
0
0
0
0
0
0
0
0
0
0
0
0
0
0
0
0
0
167
107
107
167
107
107
167
107
107
167
107
107
167
107
107
167
107
107
167
107
107
167
107
107
167
107
107
167
107
107
167
107
107
167
107
107
167
107
107
167
107
107
167
107
107
167
107
107
167
107
107
167
107
107
167
107
107
167
107
107
167
107
107
167
107
107
167
107
107
167
107
107
167
107
107
167
107
107
167
107
107
167
107
107
167
107
107
151
151
151
0
0
255
0
0
155
167
107
107
167
107
107
143
143
255
115
115
255
167
107
107
167
107
107
167
107
107
167
107
107
167
107
107
167
107
107
167
107
107
167
107
107
167
107
107
167
107
107
167
107
107
167
107
107
167
107
107
167
107
107
167
107
107
167
107
107
167
107
107
167
107
107
167
107
107
167
107
107
167
107
107
167
107
107
167
107
107
167
107
107
167
107
107
167
107
107
167
107
107
167
107
107
67
51
27
0
0
0
0
0
0
0
0
0
0
0
0
0
0
0
0
0
0
0
0
0
167
107
107
167
107
107
167
107
107
167
107
107
167
107
107
167
107
107
167
107
107
167
107
107
167
107
107
167
107
107
167
107
107
167
107
107
167
107
107
167
107
107
167
107
107
167
107
107
167
107
107
167
107
107
167
107
107
167
107
107
167
107
107
167
167
167
123
127
99
123
127
99
191
167
143
159
135
111
123
127
99
123
127
99
111
115
87
103
107
79
91
99
71
83
87
59
71
79
51
63
71
43
55
63
39
23
51
15
35
35
35
19
19
19
0
0
0
0
0
0
0
0
0
19
19
19
27
27
27
55
55
55
167
107
107
167
107
107
167
107
107
167
107
107
167
107
107
167
107
107
167
107
107
167
107
107
167
107
107
167
107
107
167
107
107
167
107
107
167
107
107
167
107
107
167
107
107
167
107
107
167
107
107
167
107
107
167
107
107
167
107
107
67
51
27
255
255
255
255
255
255
255
255
255
255
255
255
255
255
255
255
255
255
0
0
0
67
51
27
0
0
0
0
0
0
0
0
0
0
0
0
0
0
0
0
0
0
0
0
0
0
0
0
0
0
0
0
0
0
0
0
0
0
0
0
0
0
0
0
0
0
0
0
0
75
55
27
255
127
27
255
127
27
255
235
223
255
235
223
255
235
223
255
127
27
255
127
27
75
55
27
255
127
27
255
127
27
255
235
223
255
235
223
255
235
223
255
127
27
255
127
27
167
107
107
167
107
107
167
107
107
167
107
107
167
107
107
167
107
107
167
107
107
167
107
107
167
107
107
167
107
107
167
107
107
167
107
107
167
107
107
167
107
107
167
107
107
167
107
107
167
107
107
167
107
107
167
107
107
167
107
107
167
107
107
167
107
107
167
107
107
167
107
107
167
107
107
167
107
107
167
107
107
167
107
107
167
107
107
103
83
51
63
47
23
75
55
27
167
107
107
167
107
107
167
107
107
167
107
107
167
107
107
167
107
107
167
107
107
167
107
107
103
83
51
103
83
51
63
47
23
75
55
27
167
107
107
167
107
107
19
19
19
19
19
19
19
19
19
27
27
27
27
27
27
19
19
19
19
19
19
19
19
19
39
39
39
167
107
107
167
107
107
167
107
107
167
107
107
167
107
107
167
107
107
167
107
107
167
107
107
167
107
107
67
51
27
0
0
0
0
0
0
0
0
0
0
0
0
0
0
0
0
0
0
0
0
0
167
107
107
167
107
107
167
107
107
167
107
107
167
107
107
167
107
107
167
107
107
167
107
107
167
107
107
167
107
107
167
107
107
167
107
107
167
107
107
167
107
107
167
107
107
167
107
107
167
107
107
167
107
107
167
107
107
167
107
107
167
107
107
167
107
107
167
107
107
167
107
107
167
107
107
167
107
107
167
107
107
167
107
107
167
107
107
147
123
99
0
0
203
0
0
131
167
107
107
115
115
255
143
143
255
167
107
107
167
107
107
167
107
107
167
107
107
167
107
107
167
107
107
167
107
107
167
107
107
167
107
107
167
107
107
167
107
107
167
107
107
167
107
107
167
107
107
167
107
107
167
107
107
167
107
107
167
107
107
167
107
107
167
107
107
167
107
107
167
107
107
167
107
107
167
107
107
167
107
107
167
107
107
167
107
107
167
107
107
167
107
107
67
51
27
0
0
0
0
0
0
0
0
0
0
0
0
0
0
0
0
0
0
0
0
0
167
107
107
167
107
107
167
107
107
167
107
107
167
107
107
167
107
107
167
107
107
167
107
107
167
107
107
167
107
107
167
107
107
167
107
107
167
107
107
167
107
107
167
107
107
167
107
107
167
107
107
167
107
107
167
107
107
167
107
107
167
107
107
167
107
107
167
107
107
167
107
107
167
107
107
167
107
107
167
107
107
167
107
107
167
107
107
147
123
99
0
0
255
0
0
131
167
107
107
143
143
255
115
115
255
167
107
107
167
107
107
167
107
107
167
107
107
167
107
107
167
107
107
167
107
107
167
107
107
167
107
107
167
107
107
167
107
107
167
107
107
167
107
107
167
107
107
167
107
107
167
107
107
167
107
107
167
107
107
167
107
107
167
107
107
167
107
107
167
107
107
167
107
107
167
107
107
167
107
107
167
107
107
167
107
107
167
107
107
167
107
107
67
51
27
0
0
0
0
0
0
0
0
0
0
0
0
0
0
0
0
0
0
0
0
0
167
107
107
167
107
107
167
107
107
167
107
107
167
107
107
167
107
107
167
107
107
167
107
107
167
107
107
167
107
107
167
107
107
167
107
107
167
107
107
167
107
107
167
107
107
167
107
107
167
107
107
167
107
107
167
107
107
167
107
107
167
107
107
171
171
171
123
127
99
123
127
99
175
151
127
159
135
111
123
127
99
123
127
99
111
115
87
103
107
79
91
99
71
83
87
59
71
79
51
63
71
43
55
63
39
23
51
15
35
35
35
19
19
19
0
0
0
0
0
0
0
0
0
11
11
11
27
27
27
55
55
55
167
107
107
167
107
107
167
107
107
167
107
107
167
107
107
167
107
107
167
107
107
167
107
107
167
107
107
167
107
107
167
107
107
167
107
107
167
107
107
167
107
107
167
107
107
167
107
107
167
107
107
167
107
107
167
107
107
167
107
107
67
51
27
0
0
0
0
0
0
0
0
0
0
0
0
0
0
0
0
0
0
0
0
0
67
51
27
0
0
0
0
0
0
0
0
0
0
0
0
0
0
0
0
0
0
0
0
0
0
0
0
0
0
0
0
0
0
0
0
0
0
0
0
0
0
0
0
0
0
0
0
0
75
55
27
255
127
27
255
235
223
255
235
223
255
127
27
255
127
27
255
127
27
255
127
27
75
55
27
255
127
27
255
235
223
255
235
223
255
127
27
255
127
27
255
127
27
255
127
27
167
107
107
167
107
107
167
107
107
167
107
107
167
107
107
167
107
107
167
107
107
167
107
107
167
107
107
167
107
107
167
107
107
167
107
107
167
107
107
167
107
107
167
107
107
167
107
107
167
107
107
167
107
107
167
107
107
167
107
107
167
107
107
167
107
107
167
107
107
167
107
107
167
107
107
167
107
107
167
107
107
167
107
107
167
107
107
103
83
51
63
47
23
75
55
27
167
107
107
167
107
107
167
107
107
167
107
107
167
107
107
167
107
107
167
107
107
167
107
107
167
107
107
103
83
51
103
83
51
63
47
23
75
55
27
55
55
55
19
19
19
19
19
19
19
19
19
27
27
27
27
27
27
27
27
27
27
27
27
27
27
27
39
39
39
167
107
107
167
107
107
167
107
107
167
107
107
167
107
107
167
107
107
167
107
107
167
107
107
167
107
107
67
51
27
0
0
0
0
0
0
0
0
0
0
0
0
0
0
0
0
0
0
0
0
0
167
107
107
167
107
107
167
107
107
167
107
107
167
107
107
167
107
107
167
107
107
167
107
107
167
107
107
167
107
107
167
107
107
167
107
107
167
107
107
167
107
107
167
107
107
167
107
107
167
107
107
167
107
107
167
107
107
167
107
107
167
107
107
167
107
107
167
107
107
167
107
107
167
107
107
167
107
107
167
107
107
167
107
107
167
107
107
147
123
99
0
0
203
0
0
71
167
107
107
115
115
255
167
107
107
167
107
107
167
107
107
167
107
107
167
107
107
167
107
107
167
107
107
167
107
107
167
107
107
167
107
107
167
107
107
167
107
107
167
107
107
167
107
107
167
107
107
167
107
107
167
107
107
167
107
107
167
107
107
167
107
107
167
107
107
167
107
107
167
107
107
167
107
107
167
107
107
167
107
107
167
107
107
167
107
107
167
107
107
167
107
107
67
51
27
0
0
0
0
0
0
0
0
0
0
0
0
0
0
0
0
0
0
0
0
0
167
107
107
167
107
107
167
107
107
167
107
107
167
107
107
167
107
107
167
107
107
167
107
107
167
107
107
167
107
107
167
107
107
167
107
107
167
107
107
167
107
107
167
107
107
167
107
107
167
107
107
167
107
107
167
107
107
167
107
107
167
107
107
167
107
107
167
107
107
167
107
107
167
107
107
167
107
107
167
107
107
167
107
107
167
107
107
147
123
99
0
0
203
0
0
71
143
143
255
115
115
255
167
107
107
167
107
107
167
107
107
167
107
107
167
107
107
167
107
107
167
107
107
167
107
107
167
107
107
167
107
107
167
107
107
167
107
107
167
107
107
167
107
107
167
107
107
167
107
107
167
107
107
167
107
107
167
107
107
167
107
107
167
107
107
167
107
107
167
107
107
167
107
107
167
107
107
167
107
107
167
107
107
167
107
107
167
107
107
167
107
107
67
51
27
0
0
0
0
0
0
0
0
0
0
0
0
0
0
0
0
0
0
0
0
0
167
107
107
167
107
107
167
107
107
167
107
107
167
107
107
167
107
107
167
107
107
167
107
107
167
107
107
167
107
107
167
107
107
167
107
107
167
107
107
167
107
107
167
107
107
167
107
107
167
107
107
167
107
107
167
107
107
167
107
107
167
107
107
183
183
183
159
135
111
155
127
107
167
143
119
159
135
111
123
127
99
123
127
99
111
115
87
103
107
79
91
99
71
83
87
59
71
79
51
63
71
43
55
63
39
23
51
15
35
35
35
19
19
19
0
0
0
0
0
0
0
0
0
7
7
7
19
19
19
47
47
47
167
107
107
167
107
107
167
107
107
167
107
107
167
107
107
167
107
107
167
107
107
167
107
107
167
107
107
167
107
107
167
107
107
167
107
107
167
107
107
167
107
107
167
107
107
167
107
107
167
107
107
167
107
107
167
107
107
167
107
107
67
51
27
0
0
0
0
0
0
0
0
0
0
0
0
0
0
0
0
0
0
0
0
0
67
51
27
0
0
0
0
0
0
0
0
0
0
0
0
0
0
0
0
0
0
0
0
0
0
0
0
0
0
0
0
0
0
0
0
0
0
0
0
0
0
0
0
0
0
0
0
0
75
55
27
255
235
223
255
235
223
255
127
27
255
127
27
255
235
223
255
235
223
255
127
27
75
55
27
255
235
223
255
235
223
255
127
27
255
127
27
255
235
223
255
235
223
255
127
27
167
107
107
167
107
107
167
107
107
167
107
107
167
107
107
167
107
107
167
107
107
167
107
107
167
107
107
167
107
107
167
107
107
167
107
107
167
107
107
167
107
107
167
107
107
167
107
107
167
107
107
167
107
107
167
107
107
167
107
107
167
107
107
167
107
107
167
107
107
167
107
107
167
107
107
167
107
107
167
107
107
167
107
107
167
107
107
103
83
51
63
47
23
75
55
27
167
107
107
167
107
107
167
107
107
167
107
107
167
107
107
167
107
107
167
107
107
167
107
107
167
107
107
167
107
107
103
83
51
103
83
51
63
47
23
75
55
27
167
167
167
59
59
59
35
35
35
19
19
19
19
19
19
27
27
27
27
27
27
27
27
27
19
19
19
39
39
39
167
107
107
167
107
107
167
107
107
167
107
107
167
107
107
167
107
107
167
107
107
167
107
107
67
51
27
0
0
0
0
0
0
0
0
0
0
0
0
0
0
0
0
0
0
0
0
0
167
107
107
167
107
107
167
107
107
167
107
107
167
107
107
167
107
107
167
107
107
167
107
107
167
107
107
167
107
107
167
107
107
167
107
107
167
107
107
167
107
107
167
107
107
167
107
107
167
107
107
167
107
107
167
107
107
167
107
107
167
107
107
167
107
107
167
107
107
167
107
107
167
107
107
167
107
107
167
107
107
167
107
107
167
107
107
123
99
79
0
0
155
0
0
47
167
107
107
115
115
255
167
107
107
167
107
107
167
107
107
167
107
107
167
107
107
167
107
107
167
107
107
167
107
107
167
107
107
167
107
107
167
107
107
167
107
107
167
107
107
167
107
107
167
107
107
167
107
107
167
107
107
167
107
107
167
107
107
167
107
107
167
107
107
167
107
107
167
107
107
167
107
107
167
107
107
167
107
107
167
107
107
167
107
107
167
107
107
167
107
107
67
51
27
0
0
0
0
0
0
0
0
0
0
0
0
0
0
0
0
0
0
0
0
0
167
107
107
167
107
107
167
107
107
167
107
107
167
107
107
167
107
107
167
107
107
167
107
107
167
107
107
167
107
107
167
107
107
167
107
107
167
107
107
167
107
107
167
107
107
167
107
107
167
107
107
167
107
107
167
107
107
167
107
107
167
107
107
167
107
107
167
107
107
167
107
107
167
107
107
167
107
107
167
107
107
167
107
107
167
107
107
123
99
79
0
0
203
0
0
47
167
107
107
143
143
255
167
107
107
167
107
107
167
107
107
167
107
107
167
107
107
167
107
107
167
107
107
167
107
107
167
107
107
167
107
107
167
107
107
167
107
107
167
107
107
167
107
107
167
107
107
167
107
107
167
107
107
167
107
107
167
107
107
167
107
107
167
107
107
167
107
107
167
107
107
167
107
107
167
107
107
167
107
107
167
107
107
167
107
107
167
107
107
167
107
107
67
51
27
0
0
0
0
0
0
0
0
0
0
0
0
0
0
0
0
0
0
0
0
0
167
107
107
167
107
107
167
107
107
167
107
107
167
107
107
167
107
107
167
107
107
167
107
107
167
107
107
167
107
107
167
107
107
167
107
107
167
107
107
167
107
107
167
107
107
167
107
107
167
107
107
167
107
107
167
107
107
167
107
107
167
107
107
183
183
183
183
159
135
175
151
127
175
151
127
167
143
119
159
135
111
123
127
99
123
127
99
139
115
91
111
115
87
103
107
79
91
99
71
83
87
59
83
87
59
55
63
39
59
59
59
39
39
39
19
35
11
11
23
7
19
19
19
19
35
11
0
0
0
35
35
35
167
107
107
167
107
107
167
107
107
167
107
107
167
107
107
167
107
107
167
107
107
167
107
107
167
107
107
167
107
107
167
107
107
167
107
107
167
107
107
167
107
107
167
107
107
167
107
107
167
107
107
167
107
107
167
107
107
167
107
107
67
51
27
0
0
0
0
0
0
0
0
0
0
0
0
0
0
0
0
0
0
0
0
0
67
51
27
0
0
0
0
0
0
0
0
0
0
0
0
0
0
0
0
0
0
0
0
0
0
0
0
0
0
0
0
0
0
0
0
0
0
0
0
0
0
0
0
0
0
0
0
0
75
55
27
255
235
223
255
235
223
255
235
223
255
235
223
255
235
223
255
235
223
255
127
27
75
55
27
255
235
223
255
235
223
255
235
223
255
235
223
255
235
223
255
235
223
255
127
27
167
107
107
167
107
107
167
107
107
167
107
107
167
107
107
167
107
107
167
107
107
167
107
107
167
107
107
167
107
107
167
107
107
167
107
107
167
107
107
167
107
107
167
107
107
167
107
107
167
107
107
167
107
107
167
107
107
167
107
107
167
107
107
167
107
107
167
107
107
167
107
107
167
107
107
167
107
107
167
107
107
167
107
107
167
107
107
103
83
51
63
47
23
75
55
27
167
107
107
167
107
107
167
107
107
167
107
107
167
107
107
167
107
107
167
107
107
167
107
107
167
107
107
167
107
107
167
107
107
103
83
51
103
83
51
55
55
55
111
111
111
79
79
79
39
39
39
19
19
19
19
19
19
27
27
27
27
27
27
27
27
27
19
19
19
19
19
19
167
107
107
167
107
107
167
107
107
167
107
107
167
107
107
167
107
107
167
107
107
167
107
107
67
51
27
0
0
0
0
0
0
0
0
0
0
0
0
0
0
0
0
0
0
0
0
0
167
107
107
167
107
107
167
107
107
167
107
107
167
107
107
167
107
107
167
107
107
167
107
107
167
107
107
167
107
107
167
107
107
167
107
107
167
107
107
167
107
107
167
107
107
167
107
107
167
107
107
167
107
107
167
107
107
167
107
107
167
107
107
167
107
107
167
107
107
167
107
107
167
107
107
167
107
107
167
107
107
167
107
107
167
107
107
123
99
79
0
0
131
43
35
15
167
107
107
115
115
255
167
107
107
167
107
107
167
107
107
167
107
107
167
107
107
167
107
107
167
107
107
167
107
107
167
107
107
19
19
19
19
19
19
19
19
19
19
19
19
167
107
107
167
107
107
167
107
107
167
107
107
167
107
107
167
107
107
167
107
107
167
107
107
167
107
107
167
107
107
167
107
107
167
107
107
167
107
107
167
107
107
167
107
107
167
107
107
167
107
107
67
51
27
0
0
0
0
0
0
0
0
0
0
0
0
0
0
0
0
0
0
0
0
0
167
107
107
167
107
107
167
107
107
167
107
107
167
107
107
167
107
107
167
107
107
167
107
107
167
107
107
167
107
107
167
107
107
167
107
107
167
107
107
167
107
107
167
107
107
167
107
107
167
107
107
167
107
107
167
107
107
167
107
107
167
107
107
167
107
107
167
107
107
167
107
107
167
107
107
167
107
107
167
107
107
167
107
107
167
107
107
123
99
79
0
0
155
0
0
47
167
107
107
143
143
255
167
107
107
167
107
107
167
107
107
167
107
107
167
107
107
167
107
107
167
107
107
167
107
107
83
83
255
0
0
155
0
0
107
19
19
19
19
19
19
167
107
107
167
107
107
167
107
107
167
107
107
167
107
107
167
107
107
167
107
107
167
107
107
167
107
107
167
107
107
167
107
107
167
107
107
167
107
107
167
107
107
167
107
107
167
107
107
167
107
107
67
51
27
0
0
0
0
0
0
0
0
0
0
0
0
0
0
0
0
0
0
0
0
0
167
107
107
167
107
107
167
107
107
167
107
107
167
107
107
167
107
107
167
107
107
167
107
107
167
107
107
167
107
107
167
107
107
167
107
107
167
107
107
167
107
107
167
107
107
167
107
107
167
107
107
167
107
107
167
107
107
167
107
107
167
107
107
159
159
159
147
147
147
167
167
167
167
167
167
175
151
127
167
143
119
147
123
99
147
123
99
147
123
99
123
127
99
123
127
99
111
115
87
111
115
87
103
107
79
91
99
71
91
99
71
71
79
51
55
63
39
19
35
11
11
11
11
11
11
11
11
11
11
47
47
47
167
107
107
167
107
107
167
107
107
167
107
107
167
107
107
167
107
107
167
107
107
167
107
107
167
107
107
167
107
107
167
107
107
167
107
107
167
107
107
167
107
107
167
107
107
167
107
107
167
107
107
167
107
107
167
107
107
167
107
107
67
51
27
0
0
0
0
0
0
0
0
0
0
0
0
0
0
0
0
0
0
0
0
0
67
51
27
0
0
0
0
0
0
0
0
0
0
0
0
0
0
0
0
0
0
0
0
0
0
0
0
0
0
0
0
0
0
0
0
0
0
0
0
0
0
0
0
0
0
0
0
0
75
55
27
75
55
27
75
55
27
75
55
27
67
51
27
67
51
27
67
51
27
67
51
27
75
55
27
75
55
27
75
55
27
75
55
27
67
51
27
67
51
27
67
51
27
67
51
27
167
107
107
167
107
107
167
107
107
167
107
107
167
107
107
167
107
107
167
107
107
167
107
107
167
107
107
167
107
107
167
107
107
167
107
107
167
107
107
167
107
107
167
107
107
167
107
107
167
107
107
167
107
107
167
107
107
167
107
107
167
107
107
167
107
107
167
107
107
167
107
107
167
107
107
167
107
107
167
107
107
167
107
107
167
107
107
103
83
51
63
47
23
75
55
27
167
107
107
167
107
107
167
107
107
167
107
107
167
107
107
167
107
107
167
107
107
167
107
107
167
107
107
167
107
107
167
107
107
19
19
19
55
55
55
67
67
67
55
55
55
39
39
39
27
27
27
19
19
19
27
27
27
27
27
27
27
27
27
27
27
27
27
27
27
19
19
19
167
107
107
167
107
107
167
107
107
167
107
107
167
107
107
167
107
107
167
107
107
167
107
107
67
51
27
67
51
27
67
51
27
67
51
27
67
51
27
67
51
27
67
51
27
67
51
27
167
107
107
167
107
107
167
107
107
167
107
107
167
107
107
167
107
107
167
107
107
167
107
107
167
107
107
167
107
107
167
107
107
167
107
107
167
107
107
167
107
107
167
107
107
167
107
107
167
107
107
167
107
107
167
107
107
167
107
107
167
107
107
167
107
107
167
107
107
167
107
107
167
107
107
167
107
107
167
107
107
167
107
107
167
107
107
111
87
67
0
0
107
31
23
11
167
107
107
167
107
107
83
83
255
167
107
107
167
107
107
167
107
107
167
107
107
167
107
107
167
107
107
19
19
19
19
19
19
35
35
35
35
35
35
47
47
47
39
39
39
19
19
19
19
19
19
167
107
107
167
107
107
167
107
107
167
107
107
167
107
107
167
107
107
167
107
107
167
107
107
167
107
107
167
107
107
167
107
107
167
107
107
167
107
107
167
107
107
167
107
107
67
51
27
67
51
27
67
51
27
67
51
27
67
51
27
67
51
27
67
51
27
67
51
27
167
107
107
167
107
107
167
107
107
167
107
107
167
107
107
167
107
107
167
107
107
167
107
107
167
107
107
167
107
107
167
107
107
167
107
107
167
107
107
167
107
107
167
107
107
167
107
107
167
107
107
167
107
107
167
107
107
167
107
107
167
107
107
167
107
107
167
107
107
167
107
107
167
107
107
167
107
107
167
107
107
167
107
107
167
107
107
111
87
67
0
0
131
0
0
35
167
107
107
143
143
255
115
115
255
167
107
107
167
107
107
167
107
107
167
107
107
167
107
107
83
83
255
0
0
155
0
0
107
35
35
35
35
35
35
47
47
47
39
39
39
19
19
19
19
19
19
167
107
107
167
107
107
167
107
107
167
107
107
167
107
107
167
107
107
167
107
107
167
107
107
167
107
107
167
107
107
167
107
107
167
107
107
167
107
107
167
107
107
167
107
107
67
51
27
67
51
27
67
51
27
67
51
27
67
51
27
67
51
27
67
51
27
67
51
27
167
107
107
167
107
107
167
107
107
167
107
107
167
107
107
167
107
107
167
107
107
167
107
107
167
107
107
167
107
107
167
107
107
167
107
107
167
107
107
167
107
107
167
107
107
167
107
107
167
107
107
167
107
107
167
107
107
167
107
107
167
107
107
139
139
139
111
115
87
123
127
99
139
115
91
103
107
79
103
107
79
91
99
71
91
99
71
91
99
71
83
87
59
71
79
51
71
79
51
63
71
43
71
79
51
63
71
43
55
63
39
47
47
47
19
35
11
11
23
7
0
0
0
11
11
11
11
11
11
47
47
47
167
107
107
167
107
107
167
107
107
167
107
107
167
107
107
167
107
107
167
107
107
167
107
107
167
107
107
167
107
107
167
107
107
167
107
107
167
107
107
167
107
107
167
107
107
167
107
107
167
107
107
167
107
107
167
107
107
167
107
107
67
51
27
67
51
27
67
51
27
67
51
27
67
51
27
67
51
27
67
51
27
67
51
27
67
51
27
67
51
27
67
51
27
67
51
27
67
51
27
67
51
27
67
51
27
67
51
27
0
0
0
0
0
0
0
0
0
0
0
0
0
0
0
0
0
0
0
0
0
0
0
0
75
55
27
255
127
27
255
235
223
255
235
223
255
235
223
255
235
223
255
127
27
255
127
27
75
55
27
255
127
27
255
235
223
255
235
223
255
235
223
255
235
223
255
127
27
255
127
27
167
107
107
167
107
107
167
107
107
167
107
107
167
107
107
167
107
107
167
107
107
167
107
107
167
107
107
167
107
107
167
107
107
167
107
107
167
107
107
167
107
107
167
107
107
167
107
107
167
107
107
167
107
107
167
107
107
167
107
107
167
107
107
167
107
107
167
107
107
167
107
107
167
107
107
167
107
107
167
107
107
167
107
107
167
107
107
103
83
51
63
47
23
75
55
27
167
107
107
167
107
107
167
107
107
167
107
107
167
107
107
167
107
107
167
107
107
167
107
107
167
107
107
167
107
107
167
107
107
19
19
19
27
27
27
39
39
39
35
35
35
27
27
27
19
19
19
19
19
19
27
27
27
27
27
27
27
27
27
27
27
27
35
35
35
19
19
19
167
107
107
167
107
107
167
107
107
167
107
107
167
107
107
167
107
107
167
107
107
167
107
107
67
51
27
0
0
0
0
0
0
0
0
0
0
0
0
0
0
0
0
0
0
0
0
0
167
107
107
167
107
107
167
107
107
167
107
107
167
107
107
167
107
107
167
107
107
167
107
107
167
107
107
167
107
107
167
107
107
167
107
107
167
107
107
167
107
107
167
107
107
167
107
107
167
107
107
167
107
107
167
107
107
167
107
107
167
107
107
167
107
107
167
107
107
167
107
107
167
107
107
167
107
107
167
107
107
167
107
107
167
107
107
111
87
67
0
0
83
31
23
11
167
107
107
167
107
107
83
83
255
167
107
107
167
107
107
167
107
107
167
107
107
167
107
107
19
19
19
19
19
19
0
0
107
0
0
179
35
35
35
47
47
47
55
55
55
67
67
67
55
55
55
19
19
19
167
107
107
167
107
107
167
107
107
167
107
107
167
107
107
167
107
107
167
107
107
167
107
107
167
107
107
167
107
107
167
107
107
167
107
107
167
107
107
167
107
107
67
51
27
0
0
0
0
0
0
0
0
0
0
0
0
0
0
0
0
0
0
0
0
0
167
107
107
167
107
107
167
107
107
167
107
107
167
107
107
167
107
107
167
107
107
167
107
107
167
107
107
167
107
107
167
107
107
167
107
107
167
107
107
167
107
107
167
107
107
167
107
107
167
107
107
167
107
107
167
107
107
167
107
107
167
107
107
167
107
107
167
107
107
167
107
107
167
107
107
167
107
107
167
107
107
167
107
107
167
107
107
111
87
67
0
0
107
0
0
35
167
107
107
167
107
107
143
143
255
115
115
255
167
107
107
167
107
107
167
107
107
167
107
107
0
0
155
0
0
107
27
27
27
0
0
35
35
35
35
47
47
47
55
55
55
67
67
67
55
55
55
19
19
19
167
107
107
167
107
107
167
107
107
167
107
107
167
107
107
167
107
107
167
107
107
167
107
107
167
107
107
167
107
107
167
107
107
167
107
107
167
107
107
167
107
107
67
51
27
0
0
0
0
0
0
0
0
0
0
0
0
0
0
0
0
0
0
0
0
0
167
107
107
167
107
107
167
107
107
167
107
107
167
107
107
167
107
107
167
107
107
167
107
107
167
107
107
167
107
107
167
107
107
167
107
107
167
107
107
167
107
107
167
107
107
167
107
107
167
107
107
167
107
107
167
107
107
167
107
107
167
107
107
159
159
159
111
115
87
123
99
79
119
95
75
83
87
59
63
71
43
55
63
39
55
55
55
47
47
47
39
39
39
35
35
35
27
27
27
19
19
19
19
19
19
19
19
19
11
11
11
11
11
11
19
19
19
11
11
11
11
11
11
27
27
27
35
35
35
35
35
35
167
107
107
167
107
107
167
107
107
167
107
107
167
107
107
167
107
107
167
107
107
167
107
107
167
107
107
167
107
107
167
107
107
167
107
107
167
107
107
167
107
107
167
107
107
167
107
107
167
107
107
167
107
107
167
107
107
167
107
107
67
51
27
0
0
0
0
0
0
0
0
0
0
0
0
0
0
0
0
0
0
0
0
0
67
51
27
0
0
0
0
0
0
0
0
0
0
0
0
0
0
0
0
0
0
0
0
0
0
0
0
0
0
0
0
0
0
0
0
0
0
0
0
0
0
0
0
0
0
0
0
0
75
55
27
255
235
223
255
235
223
255
127
27
255
127
27
255
235
223
255
235
223
255
127
27
75
55
27
255
255
255
255
255
255
255
127
27
255
127
27
255
235
223
255
235
223
255
127
27
167
107
107
167
107
107
167
107
107
167
107
107
167
107
107
167
107
107
167
107
107
167
107
107
167
107
107
167
107
107
167
107
107
167
107
107
167
107
107
167
107
107
167
107
107
167
107
107
167
107
107
167
107
107
167
107
107
167
107
107
167
107
107
167
107
107
167
107
107
167
107
107
167
107
107
167
107
107
167
107
107
167
107
107
167
107
107
103
83
51
63
47
23
75
55
27
167
107
107
167
107
107
167
107
107
167
107
107
167
107
107
167
107
107
167
107
107
167
107
107
167
107
107
167
107
107
167
107
107
19
19
19
19
19
19
19
19
19
19
19
19
19
19
19
19
19
19
35
35
35
35
35
35
35
35
35
27
27
27
35
35
35
35
35
35
19
19
19
167
107
107
167
107
107
167
107
107
167
107
107
167
107
107
167
107
107
167
107
107
167
107
107
67
51
27
0
0
0
0
0
0
0
0
0
0
0
0
0
0
0
0
0
0
0
0
0
167
107
107
167
107
107
167
107
107
167
107
107
167
107
107
167
107
107
167
107
107
167
107
107
167
107
107
167
107
107
167
107
107
167
107
107
167
107
107
167
107
107
167
107
107
167
107
107
167
107
107
167
107
107
167
107
107
167
107
107
167
107
107
167
107
107
167
107
107
167
107
107
167
107
107
167
107
107
167
107
107
167
107
107
167
107
107
111
87
67
0
0
83
23
15
7
167
107
107
55
55
255
167
107
107
167
107
107
167
107
107
167
107
107
167
107
107
167
107
107
19
19
19
0
0
155
0
0
107
35
35
35
35
35
35
47
47
47
59
59
59
55
55
55
47
47
47
35
35
35
19
19
19
167
107
107
167
107
107
167
107
107
167
107
107
167
107
107
167
107
107
167
107
107
167
107
107
167
107
107
167
107
107
167
107
107
167
107
107
167
107
107
67
51
27
0
0
0
0
0
0
0
0
0
0
0
0
0
0
0
0
0
0
0
0
0
167
107
107
167
107
107
167
107
107
167
107
107
167
107
107
167
107
107
167
107
107
167
107
107
167
107
107
167
107
107
167
107
107
167
107
107
167
107
107
167
107
107
167
107
107
167
107
107
167
107
107
167
107
107
167
107
107
167
107
107
167
107
107
167
107
107
167
107
107
167
107
107
167
107
107
167
107
107
167
107
107
167
107
107
167
107
107
111
87
67
0
0
107
0
0
23
167
107
107
167
107
107
167
107
107
143
143
255
167
107
107
167
107
107
167
107
107
83
83
255
0
0
107
27
27
27
0
0
35
0
0
35
35
35
35
47
47
47
59
59
59
55
55
55
47
47
47
35
35
35
19
19
19
167
107
107
167
107
107
167
107
107
167
107
107
167
107
107
167
107
107
167
107
107
167
107
107
167
107
107
167
107
107
167
107
107
167
107
107
167
107
107
67
51
27
0
0
0
0
0
0
0
0
0
0
0
0
0
0
0
0
0
0
0
0
0
167
107
107
167
107
107
167
107
107
167
107
107
167
107
107
167
107
107
167
107
107
167
107
107
167
107
107
167
107
107
167
107
107
167
107
107
167
107
107
167
107
107
167
107
107
167
107
107
167
107
107
167
107
107
167
107
107
167
107
107
167
107
107
167
167
167
123
127
99
147
123
99
167
143
119
139
115
91
83
87
59
71
79
51
59
59
59
47
47
47
39
39
39
39
39
39
27
27
27
19
35
11
19
19
19
11
23
7
11
11
11
0
0
0
19
19
19
19
19
19
19
19
19
19
19
19
27
27
27
55
55
55
167
107
107
167
107
107
167
107
107
167
107
107
167
107
107
167
107
107
167
107
107
167
107
107
167
107
107
167
107
107
167
107
107
167
107
107
167
107
107
167
107
107
167
107
107
167
107
107
167
107
107
167
107
107
167
107
107
167
107
107
67
51
27
0
0
0
0
0
0
0
0
0
0
0
0
0
0
0
0
0
0
0
0
0
67
51
27
0
0
0
0
0
0
0
0
0
0
0
0
0
0
0
0
0
0
0
0
0
0
0
0
0
0
0
0
0
0
0
0
0
0
0
0
0
0
0
0
0
0
0
0
0
75
55
27
255
127
27
255
127
27
255
127
27
255
127
27
255
235
223
255
235
223
255
127
27
75
55
27
255
127
27
255
127
27
255
127
27
255
127
27
255
235
223
255
235
223
255
127
27
167
107
107
167
107
107
167
107
107
167
107
107
167
107
107
167
107
107
167
107
107
167
107
107
167
107
107
167
107
107
167
107
107
167
107
107
167
107
107
167
107
107
167
107
107
167
107
107
167
107
107
167
107
107
167
107
107
167
107
107
167
107
107
167
107
107
167
107
107
167
107
107
167
107
107
167
107
107
167
107
107
167
107
107
167
107
107
103
83
51
63
47
23
75
55
27
167
107
107
167
107
107
167
107
107
167
107
107
167
107
107
167
107
107
167
107
107
167
107
107
167
107
107
167
107
107
167
107
107
19
19
19
27
27
27
27
27
27
27
27
27
27
27
27
35
35
35
55
55
55
47
47
47
47
47
47
35
35
35
35
35
35
19
19
19
167
107
107
167
107
107
167
107
107
167
107
107
167
107
107
167
107
107
167
107
107
167
107
107
167
107
107
67
51
27
0
0
0
0
0
0
0
0
0
0
0
0
0
0
0
0
0
0
0
0
0
167
107
107
167
107
107
167
107
107
167
107
107
167
107
107
167
107
107
167
107
107
167
107
107
167
107
107
167
107
107
167
107
107
167
107
107
167
107
107
167
107
107
167
107
107
167
107
107
167
107
107
167
107
107
167
107
107
167
107
107
167
107
107
167
107
107
167
107
107
167
107
107
167
107
107
167
107
107
167
107
107
167
107
107
167
107
107
111
87
67
0
0
83
23
15
7
167
107
107
55
55
255
167
107
107
167
107
107
167
107
107
167
107
107
167
107
107
19
19
19
27
27
27
0
0
107
0
0
107
27
27
27
35
35
35
55
55
55
47
47
47
47
47
47
35
35
35
35
35
35
19
19
19
167
107
107
167
107
107
167
107
107
167
107
107
167
107
107
167
107
107
167
107
107
167
107
107
167
107
107
167
107
107
167
107
107
167
107
107
167
107
107
67
51
27
0
0
0
0
0
0
0
0
0
0
0
0
0
0
0
0
0
0
0
0
0
167
107
107
167
107
107
167
107
107
167
107
107
167
107
107
167
107
107
167
107
107
167
107
107
167
107
107
167
107
107
167
107
107
167
107
107
167
107
107
167
107
107
167
107
107
167
107
107
167
107
107
167
107
107
167
107
107
167
107
107
167
107
107
167
107
107
167
107
107
167
107
107
167
107
107
167
107
107
167
107
107
167
107
107
167
107
107
111
87
67
0
0
83
0
0
23
167
107
107
167
107
107
167
107
107
143
143
255
167
107
107
167
107
107
83
83
255
0
0
107
27
27
27
0
0
35
0
0
35
0
0
35
0
0
35
55
55
55
47
47
47
47
47
47
35
35
35
35
35
35
19
19
19
167
107
107
167
107
107
167
107
107
167
107
107
167
107
107
167
107
107
167
107
107
167
107
107
167
107
107
167
107
107
167
107
107
167
107
107
167
107
107
67
51
27
0
0
0
0
0
0
0
0
0
0
0
0
0
0
0
0
0
0
0
0
0
167
107
107
167
107
107
167
107
107
167
107
107
167
107
107
167
107
107
167
107
107
167
107
107
167
107
107
167
107
107
167
107
107
167
107
107
167
107
107
167
107
107
167
107
107
167
107
107
167
107
107
167
107
107
167
107
107
167
107
107
167
107
107
167
167
167
123
127
99
147
123
99
191
167
143
159
135
111
111
115
87
111
115
87
103
107
79
91
99
71
83
87
59
83
87
59
71
79
51
63
71
43
55
63
39
23
51
15
35
35
35
19
19
19
0
0
0
0
0
0
0
0
0
19
19
19
27
27
27
55
55
55
167
107
107
167
107
107
167
107
107
167
107
107
167
107
107
167
107
107
167
107
107
167
107
107
167
107
107
167
107
107
167
107
107
167
107
107
167
107
107
167
107
107
167
107
107
167
107
107
167
107
107
167
107
107
167
107
107
167
107
107
67
51
27
0
0
0
0
0
0
0
0
0
0
0
0
0
0
0
0
0
0
0
0
0
67
51
27
0
0
0
0
0
0
0
0
0
0
0
0
0
0
0
0
0
0
0
0
0
0
0
0
0
0
0
0
0
0
0
0
0
0
0
0
0
0
0
0
0
0
0
0
0
75
55
27
255
127
27
255
127
27
255
235
223
255
235
223
255
235
223
255
127
27
255
127
27
75
55
27
255
127
27
255
235
223
255
235
223
255
235
223
255
235
223
255
127
27
255
127
27
167
107
107
167
107
107
167
107
107
167
107
107
167
107
107
167
107
107
167
107
107
167
107
107
167
107
107
167
107
107
167
107
107
167
107
107
167
107
107
167
107
107
167
107
107
167
107
107
167
107
107
167
107
107
167
107
107
167
107
107
167
107
107
167
107
107
167
107
107
167
107
107
167
107
107
167
107
107
167
107
107
167
107
107
167
107
107
103
83
51
63
47
23
75
55
27
167
107
107
167
107
107
167
107
107
167
107
107
167
107
107
167
107
107
167
107
107
167
107
107
167
107
107
167
107
107
167
107
107
167
107
107
19
19
19
27
27
27
27
27
27
35
35
35
35
35
35
47
47
47
59
59
59
55
55
55
47
47
47
35
35
35
19
19
19
167
107
107
167
107
107
167
107
107
167
107
107
167
107
107
167
107
107
167
107
107
167
107
107
167
107
107
67
51
27
0
0
0
0
0
0
0
0
0
0
0
0
0
0
0
0
0
0
0
0
0
167
107
107
167
107
107
167
107
107
167
107
107
167
107
107
167
107
107
167
107
107
167
107
107
167
107
107
167
107
107
167
107
107
167
107
107
167
107
107
167
107
107
167
107
107
167
107
107
167
107
107
167
107
107
167
107
107
167
107
107
167
107
107
167
107
107
167
107
107
167
107
107
167
107
107
167
107
107
167
107
107
167
107
107
167
107
107
111
87
67
0
0
83
23
15
7
167
107
107
55
55
255
167
107
107
167
107
107
167
107
107
167
107
107
167
107
107
19
19
19
19
19
19
19
19
19
19
19
19
19
19
19
19
19
19
35
35
35
35
35
35
35
35
35
27
27
27
35
35
35
35
35
35
19
19
19
167
107
107
167
107
107
167
107
107
167
107
107
167
107
107
167
107
107
167
107
107
167
107
107
167
107
107
167
107
107
167
107
107
167
107
107
67
51
27
0
0
0
0
0
0
0
0
0
0
0
0
0
0
0
0
0
0
0
0
0
167
107
107
167
107
107
167
107
107
167
107
107
167
107
107
167
107
107
167
107
107
167
107
107
167
107
107
167
107
107
167
107
107
167
107
107
167
107
107
167
107
107
167
107
107
167
107
107
167
107
107
167
107
107
167
107
107
167
107
107
167
107
107
167
107
107
167
107
107
167
107
107
167
107
107
167
107
107
167
107
107
167
107
107
167
107
107
111
87
67
0
0
83
0
0
23
167
107
107
167
107
107
143
143
255
115
115
255
143
143
255
143
143
255
83
83
255
0
0
107
19
19
19
19
19
19
19
19
19
19
19
19
19
19
19
35
35
35
35
35
35
35
35
35
27
27
27
35
35
35
35
35
35
19
19
19
167
107
107
167
107
107
167
107
107
167
107
107
167
107
107
167
107
107
167
107
107
167
107
107
167
107
107
167
107
107
167
107
107
167
107
107
67
51
27
0
0
0
0
0
0
0
0
0
0
0
0
0
0
0
0
0
0
0
0
0
167
107
107
167
107
107
167
107
107
167
107
107
167
107
107
167
107
107
167
107
107
167
107
107
167
107
107
167
107
107
167
107
107
167
107
107
167
107
107
167
107
107
167
107
107
167
107
107
167
107
107
167
107
107
167
107
107
167
107
107
167
107
107
167
167
167
123
127
99
147
123
99
191
167
143
159
135
111
123
127
99
111
115
87
111
115
87
103
107
79
91
99
71
83
87
59
71
79
51
63
71
43
55
63
39
23
51
15
35
35
35
19
19
19
0
0
0
0
0
0
0
0
0
19
19
19
27
27
27
55
55
55
167
107
107
167
107
107
167
107
107
167
107
107
167
107
107
167
107
107
167
107
107
167
107
107
167
107
107
167
107
107
167
107
107
167
107
107
167
107
107
167
107
107
167
107
107
167
107
107
167
107
107
167
107
107
167
107
107
167
107
107
67
51
27
0
0
0
0
0
0
0
0
0
0
0
0
0
0
0
0
0
0
0
0
0
67
51
27
0
0
0
0
0
0
0
0
0
0
0
0
0
0
0
0
0
0
0
0
0
0
0
0
0
0
0
0
0
0
0
0
0
0
0
0
0
0
0
0
0
0
0
0
0
75
55
27
255
127
27
255
235
223
255
235
223
255
127
27
255
127
27
255
127
27
255
127
27
75
55
27
255
127
27
255
127
27
255
127
27
255
127
27
255
235
223
255
235
223
255
127
27
167
107
107
167
107
107
167
107
107
167
107
107
167
107
107
167
107
107
167
107
107
167
107
107
167
107
107
167
107
107
167
107
107
167
107
107
167
107
107
167
107
107
167
107
107
167
107
107
167
107
107
167
107
107
167
107
107
167
107
107
167
107
107
167
107
107
167
107
107
167
107
107
167
107
107
167
107
107
167
107
107
167
107
107
167
107
107
103
83
51
63
47
23
75
55
27
167
107
107
167
107
107
167
107
107
167
107
107
167
107
107
167
107
107
167
107
107
167
107
107
167
107
107
167
107
107
167
107
107
167
107
107
19
19
19
19
19
19
27
27
27
35
35
35
35
35
35
47
47
47
55
55
55
67
67
67
55
55
55
19
19
19
167
107
107
167
107
107
167
107
107
167
107
107
167
107
107
167
107
107
167
107
107
167
107
107
167
107
107
167
107
107
67
51
27
0
0
0
0
0
0
0
0
0
0
0
0
0
0
0
0
0
0
0
0
0
167
107
107
167
107
107
167
107
107
167
107
107
167
107
107
167
107
107
167
107
107
167
107
107
167
107
107
167
107
107
167
107
107
167
107
107
167
107
107
167
107
107
167
107
107
167
107
107
167
107
107
167
107
107
167
107
107
167
107
107
167
107
107
167
107
107
167
107
107
167
107
107
167
107
107
167
107
107
167
107
107
167
107
107
167
107
107
111
87
67
0
0
83
23
15
7
167
107
107
27
27
255
83
83
255
167
107
107
167
107
107
167
107
107
167
107
107
19
19
19
27
27
27
39
39
39
35
35
35
27
27
27
19
19
19
19
19
19
27
27
27
27
27
27
27
27
27
27
27
27
35
35
35
19
19
19
167
107
107
167
107
107
167
107
107
167
107
107
167
107
107
167
107
107
167
107
107
167
107
107
167
107
107
167
107
107
167
107
107
167
107
107
67
51
27
0
0
0
0
0
0
0
0
0
0
0
0
0
0
0
0
0
0
0
0
0
167
107
107
167
107
107
167
107
107
167
107
107
167
107
107
167
107
107
167
107
107
167
107
107
167
107
107
167
107
107
167
107
107
167
107
107
167
107
107
167
107
107
167
107
107
167
107
107
167
107
107
167
107
107
167
107
107
167
107
107
167
107
107
167
107
107
167
107
107
167
107
107
167
107
107
167
107
107
167
107
107
167
107
107
167
107
107
111
87
67
0
0
83
0
0
23
83
83
255
143
143
255
115
115
255
167
107
107
167
107
107
115
115
255
143
143
255
0
0
107
27
27
27
39
39
39
35
35
35
39
39
39
19
19
19
19
19
19
27
27
27
27
27
27
27
27
27
27
27
27
35
35
35
19
19
19
167
107
107
167
107
107
167
107
107
167
107
107
167
107
107
167
107
107
167
107
107
167
107
107
167
107
107
167
107
107
167
107
107
167
107
107
67
51
27
0
0
0
0
0
0
0
0
0
0
0
0
0
0
0
0
0
0
0
0
0
167
107
107
167
107
107
167
107
107
167
107
107
167
107
107
167
107
107
167
107
107
167
107
107
167
107
107
167
107
107
167
107
107
167
107
107
167
107
107
167
107
107
167
107
107
167
107
107
167
107
107
167
107
107
167
107
107
167
107
107
167
107
107
183
183
183
155
127
107
159
131
99
175
151
127
159
135
111
123
127
99
123
127
99
111
115
87
103
107
79
91
99
71
83
87
59
71
79
51
63
71
43
55
63
39
23
51
15
35
35
35
19
19
19
0
0
0
0
0
0
0
0
0
19
19
19
27
27
27
47
47
47
167
107
107
167
107
107
167
107
107
167
107
107
167
107
107
167
107
107
167
107
107
167
107
107
167
107
107
167
107
107
167
107
107
167
107
107
167
107
107
167
107
107
167
107
107
167
107
107
167
107
107
167
107
107
167
107
107
167
107
107
67
51
27
0
0
0
0
0
0
0
0
0
0
0
0
0
0
0
0
0
0
0
0
0
67
51
27
0
0
0
0
0
0
0
0
0
0
0
0
0
0
0
0
0
0
0
0
0
0
0
0
0
0
0
0
0
0
0
0
0
0
0
0
0
0
0
0
0
0
0
0
0
75
55
27
255
235
223
255
235
223
255
127
27
255
127
27
255
235
223
255
235
223
255
127
27
75
55
27
255
255
255
255
255
255
255
127
27
255
127
27
255
235
223
255
235
223
255
127
27
167
107
107
167
107
107
167
107
107
167
107
107
167
107
107
167
107
107
167
107
107
167
107
107
167
107
107
167
107
107
167
107
107
167
107
107
167
107
107
167
107
107
167
107
107
167
107
107
167
107
107
167
107
107
167
107
107
167
107
107
167
107
107
167
107
107
167
107
107
167
107
107
167
107
107
167
107
107
167
107
107
167
107
107
167
107
107
103
83
51
63
47
23
75
55
27
167
107
107
167
107
107
167
107
107
167
107
107
167
107
107
167
107
107
167
107
107
167
107
107
167
107
107
167
107
107
167
107
107
167
107
107
167
107
107
19
19
19
19
19
19
35
35
35
35
35
35
47
47
47
39
39
39
19
19
19
19
19
19
167
107
107
167
107
107
167
107
107
167
107
107
167
107
107
167
107
107
167
107
107
167
107
107
167
107
107
167
107
107
167
107
107
67
51
27
0
0
0
0
0
0
0
0
0
0
0
0
0
0
0
0
0
0
0
0
0
167
107
107
167
107
107
167
107
107
167
107
107
167
107
107
167
107
107
167
107
107
167
107
107
167
107
107
167
107
107
167
107
107
167
107
107
167
107
107
167
107
107
167
107
107
167
107
107
167
107
107
167
107
107
167
107
107
167
107
107
167
107
107
167
107
107
167
107
107
167
107
107
167
107
107
167
107
107
167
107
107
167
107
107
167
107
107
103
83
63
0
0
83
23
15
7
83
63
31
27
27
255
27
27
255
83
83
255
167
107
107
167
107
107
167
107
107
19
19
19
55
55
55
83
83
255
27
27
255
39
39
39
27
27
27
19
19
19
27
27
27
27
27
27
27
27
27
27
27
27
27
27
27
19
19
19
167
107
107
167
107
107
167
107
107
167
107
107
167
107
107
167
107
107
167
107
107
167
107
107
167
107
107
167
107
107
167
107
107
167
107
107
67
51
27
0
0
0
0
0
0
0
0
0
0
0
0
0
0
0
0
0
0
0
0
0
167
107
107
167
107
107
167
107
107
167
107
107
167
107
107
167
107
107
167
107
107
167
107
107
167
107
107
167
107
107
167
107
107
167
107
107
167
107
107
167
107
107
167
107
107
167
107
107
167
107
107
167
107
107
167
107
107
167
107
107
167
107
107
167
107
107
167
107
107
167
107
107
167
107
107
167
107
107
167
107
107
167
107
107
167
107
107
103
83
63
0
0
83
0
0
23
83
63
31
83
63
31
83
83
255
167
107
107
167
107
107
167
107
107
115
115
255
0
0
107
55
55
55
0
0
179
55
55
55
39
39
39
39
39
39
19
19
19
27
27
27
27
27
27
27
27
27
27
27
27
27
27
27
19
19
19
167
107
107
167
107
107
167
107
107
167
107
107
167
107
107
167
107
107
167
107
107
167
107
107
167
107
107
167
107
107
167
107
107
167
107
107
67
51
27
0
0
0
0
0
0
0
0
0
0
0
0
0
0
0
0
0
0
0
0
0
167
107
107
167
107
107
167
107
107
167
107
107
167
107
107
167
107
107
167
107
107
167
107
107
167
107
107
167
107
107
167
107
107
167
107
107
167
107
107
167
107
107
167
107
107
167
107
107
167
107
107
167
107
107
167
107
107
167
107
107
167
107
107
183
183
183
175
151
127
167
143
119
183
159
135
167
143
119
123
127
99
123
127
99
123
127
99
139
115
91
111
115
87
103
107
79
91
99
71
83
87
59
83
87
59
55
63
39
59
59
59
39
39
39
19
35
11
11
23
7
19
19
19
19
19
19
19
35
11
35
35
35
167
107
107
167
107
107
167
107
107
167
107
107
167
107
107
167
107
107
167
107
107
167
107
107
167
107
107
167
107
107
167
107
107
167
107
107
167
107
107
167
107
107
167
107
107
167
107
107
167
107
107
167
107
107
167
107
107
167
107
107
67
51
27
0
0
0
0
0
0
0
0
0
0
0
0
0
0
0
0
0
0
0
0
0
67
51
27
0
0
0
0
0
0
0
0
0
0
0
0
0
0
0
0
0
0
0
0
0
0
0
0
0
0
0
0
0
0
0
0
0
0
0
0
0
0
0
0
0
0
0
0
0
75
55
27
255
235
223
255
235
223
255
235
223
255
235
223
255
235
223
255
235
223
255
127
27
75
55
27
255
127
27
255
235
223
255
235
223
255
235
223
255
235
223
255
127
27
255
127
27
167
107
107
167
107
107
167
107
107
167
107
107
167
107
107
167
107
107
167
107
107
167
107
107
167
107
107
167
107
107
167
107
107
167
107
107
167
107
107
167
107
107
167
107
107
167
107
107
167
107
107
167
107
107
167
107
107
167
107
107
167
107
107
167
107
107
167
107
107
167
107
107
167
107
107
167
107
107
167
107
107
167
107
107
167
107
107
103
83
51
63
47
23
75
55
27
167
107
107
167
107
107
167
107
107
167
107
107
167
107
107
167
107
107
167
107
107
167
107
107
167
107
107
167
107
107
167
107
107
167
107
107
167
107
107
167
107
107
167
107
107
19
19
19
19
19
19
19
19
19
19
19
19
167
107
107
167
107
107
167
107
107
167
107
107
167
107
107
167
107
107
167
107
107
167
107
107
167
107
107
167
107
107
167
107
107
167
107
107
167
107
107
67
51
27
0
0
0
0
0
0
0
0
0
0
0
0
0
0
0
0
0
0
0
0
0
167
107
107
167
107
107
167
107
107
167
107
107
167
107
107
167
107
107
167
107
107
167
107
107
167
107
107
167
107
107
167
107
107
167
107
107
167
107
107
167
107
107
167
107
107
167
107
107
167
107
107
167
107
107
167
107
107
167
107
107
167
107
107
167
107
107
167
107
107
167
107
107
167
107
107
167
107
107
167
107
107
167
107
107
167
107
107
71
71
71
0
0
83
23
15
7
63
47
23
63
47
23
83
63
31
27
27
255
83
83
255
27
27
255
27
27
255
103
83
51
103
83
51
55
55
55
111
111
111
79
79
79
39
39
39
19
19
19
19
19
19
27
27
27
27
27
27
27
27
27
19
19
19
19
19
19
167
107
107
167
107
107
167
107
107
167
107
107
167
107
107
167
107
107
167
107
107
167
107
107
167
107
107
167
107
107
167
107
107
167
107
107
67
51
27
0
0
0
0
0
0
0
0
0
0
0
0
0
0
0
0
0
0
0
0
0
167
107
107
167
107
107
167
107
107
167
107
107
167
107
107
167
107
107
167
107
107
167
107
107
167
107
107
167
107
107
167
107
107
167
107
107
167
107
107
167
107
107
167
107
107
167
107
107
167
107
107
167
107
107
167
107
107
167
107
107
167
107
107
167
107
107
167
107
107
167
107
107
167
107
107
167
107
107
167
107
107
167
107
107
167
107
107
71
71
71
0
0
83
0
0
23
63
47
23
63
47
23
83
63
31
83
63
31
83
83
255
167
107
107
167
107
107
103
83
51
103
83
51
55
55
55
0
0
179
47
47
47
39
39
39
19
19
19
19
19
19
27
27
27
27
27
27
27
27
27
19
19
19
19
19
19
167
107
107
167
107
107
167
107
107
167
107
107
167
107
107
167
107
107
167
107
107
167
107
107
167
107
107
167
107
107
167
107
107
167
107
107
67
51
27
0
0
0
0
0
0
0
0
0
0
0
0
0
0
0
0
0
0
0
0
0
167
107
107
167
107
107
167
107
107
167
107
107
167
107
107
167
107
107
167
107
107
167
107
107
167
107
107
167
107
107
167
107
107
167
107
107
167
107
107
167
107
107
167
107
107
167
107
107
167
107
107
167
107
107
167
107
107
167
107
107
167
107
107
159
159
159
167
143
119
175
151
127
167
167
167
167
143
119
155
127
107
147
123
99
147
123
99
147
123
99
123
127
99
123
127
99
111
115
87
111
115
87
103
107
79
91
99
71
91
99
71
71
79
51
55
63
39
19
35
11
11
11
11
19
19
19
27
27
27
47
47
47
167
107
107
167
107
107
167
107
107
167
107
107
167
107
107
167
107
107
167
107
107
167
107
107
167
107
107
167
107
107
167
107
107
167
107
107
167
107
107
167
107
107
167
107
107
167
107
107
167
107
107
167
107
107
167
107
107
167
107
107
67
51
27
0
0
0
0
0
0
0
0
0
0
0
0
0
0
0
0
0
0
0
0
0
67
51
27
0
0
0
0
0
0
0
0
0
0
0
0
0
0
0
0
0
0
0
0
0
0
0
0
0
0
0
0
0
0
0
0
0
0
0
0
0
0
0
0
0
0
0
0
0
75
55
27
75
55
27
75
55
27
75
55
27
67
51
27
67
51
27
67
51
27
67
51
27
75
55
27
75
55
27
75
55
27
75
55
27
67
51
27
67
51
27
67
51
27
67
51
27
167
107
107
167
107
107
167
107
107
167
107
107
167
107
107
167
107
107
167
107
107
167
107
107
167
107
107
167
107
107
167
107
107
167
107
107
167
107
107
167
107
107
167
107
107
167
107
107
167
107
107
167
107
107
167
107
107
167
107
107
167
107
107
167
107
107
167
107
107
167
107
107
167
107
107
167
107
107
167
107
107
167
107
107
167
107
107
103
83
51
63
47
23
67
51
27
167
107
107
167
107
107
167
107
107
167
107
107
167
107
107
167
107
107
167
107
107
167
107
107
167
107
107
167
107
107
167
107
107
167
107
107
167
107
107
167
107
107
167
107
107
167
107
107
167
107
107
167
107
107
167
107
107
167
107
107
167
107
107
167
107
107
167
107
107
167
107
107
167
107
107
167
107
107
167
107
107
167
107
107
167
107
107
167
107
107
167
107
107
167
107
107
67
51
27
67
51
27
67
51
27
67
51
27
67
51
27
67
51
27
67
51
27
67
51
27
167
107
107
167
107
107
167
107
107
167
107
107
167
107
107
167
107
107
167
107
107
167
107
107
167
107
107
167
107
107
167
107
107
167
107
107
167
107
107
167
107
107
167
107
107
167
107
107
167
107
107
167
107
107
167
107
107
167
107
107
167
107
107
167
107
107
167
107
107
167
107
107
167
107
107
167
107
107
167
107
107
167
107
107
167
107
107
55
55
55
0
0
83
23
15
7
103
83
51
103
83
51
63
47
23
63
47
23
83
63
31
83
63
31
103
83
51
103
83
51
63
47
23
75
55
27
59
59
59
59
59
59
35
35
35
19
19
19
19
19
19
27
27
27
27
27
27
27
27
27
19
19
19
39
39
39
167
107
107
167
107
107
167
107
107
167
107
107
167
107
107
167
107
107
167
107
107
167
107
107
167
107
107
167
107
107
167
107
107
167
107
107
67
51
27
67
51
27
67
51
27
67
51
27
67
51
27
67
51
27
67
51
27
67
51
27
167
107
107
167
107
107
167
107
107
167
107
107
167
107
107
167
107
107
167
107
107
167
107
107
167
107
107
167
107
107
167
107
107
167
107
107
167
107
107
167
107
107
167
107
107
167
107
107
167
107
107
167
107
107
167
107
107
167
107
107
167
107
107
167
107
107
167
107
107
167
107
107
167
107
107
167
107
107
167
107
107
167
107
107
167
107
107
55
55
55
0
0
83
0
0
23
103
83
51
103
83
51
63
47
23
63
47
23
83
63
31
83
63
31
103
83
51
103
83
51
63
47
23
75
55
27
47
47
47
35
35
35
35
35
35
19
19
19
19
19
19
27
27
27
27
27
27
27
27
27
19
19
19
39
39
39
167
107
107
167
107
107
167
107
107
167
107
107
167
107
107
167
107
107
167
107
107
167
107
107
167
107
107
167
107
107
167
107
107
167
107
107
67
51
27
67
51
27
67
51
27
67
51
27
67
51
27
67
51
27
67
51
27
67
51
27
167
107
107
167
107
107
167
107
107
167
107
107
167
107
107
167
107
107
167
107
107
167
107
107
167
107
107
167
107
107
167
107
107
167
107
107
167
107
107
167
107
107
167
107
107
167
107
107
167
107
107
167
107
107
167
107
107
167
107
107
167
107
107
139
139
139
111
115
87
123
127
99
139
115
91
103
107
79
103
107
79
91
99
71
91
99
71
91
99
71
83
87
59
71
79
51
71
79
51
63
71
43
71
79
51
63
71
43
55
63
39
47
47
47
19
35
11
11
23
7
0
0
0
19
19
19
35
35
35
55
55
55
167
107
107
167
107
107
167
107
107
167
107
107
167
107
107
167
107
107
167
107
107
167
107
107
167
107
107
167
107
107
167
107
107
167
107
107
167
107
107
167
107
107
167
107
107
167
107
107
167
107
107
167
107
107
167
107
107
167
107
107
67
51
27
67
51
27
67
51
27
67
51
27
67
51
27
67
51
27
67
51
27
67
51
27
67
51
27
67
51
27
67
51
27
67
51
27
67
51
27
67
51
27
67
51
27
67
51
27
0
0
107
0
0
107
0
0
107
0
0
107
0
0
107
0
0
107
0
0
107
0
0
107
75
55
27
255
127
27
255
235
223
255
235
223
255
235
223
255
235
223
255
127
27
255
127
27
75
55
27
255
127
27
255
127
27
255
127
27
255
235
223
255
235
223
255
235
223
255
127
27
167
107
107
167
107
107
167
107
107
167
107
107
167
107
107
167
107
107
167
107
107
167
107
107
167
107
107
167
107
107
167
107
107
167
107
107
167
107
107
167
107
107
167
107
107
167
107
107
167
107
107
167
107
107
167
107
107
167
107
107
167
107
107
167
107
107
167
107
107
167
107
107
167
107
107
167
107
107
167
107
107
167
107
107
167
107
107
103
83
51
63
47
23
67
51
27
167
107
107
167
107
107
167
107
107
167
107
107
167
107
107
167
107
107
167
107
107
167
107
107
167
107
107
167
107
107
167
107
107
167
107
107
167
107
107
167
107
107
167
107
107
167
107
107
167
107
107
167
107
107
167
107
107
167
107
107
167
107
107
167
107
107
167
107
107
167
107
107
167
107
107
167
107
107
167
107
107
167
107
107
167
107
107
167
107
107
167
107
107
167
107
107
67
51
27
0
0
0
0
0
0
0
0
0
0
0
0
0
0
0
0
0
0
0
0
0
167
107
107
167
107
107
167
107
107
167
107
107
167
107
107
167
107
107
167
107
107
167
107
107
167
107
107
167
107
107
167
107
107
167
107
107
167
107
107
167
107
107
167
107
107
167
107
107
167
107
107
167
107
107
167
107
107
167
107
107
167
107
107
167
107
107
167
107
107
167
107
107
167
107
107
167
107
107
167
107
107
167
107
107
167
107
107
55
55
55
0
0
83
23
15
7
167
107
107
167
107
107
103
83
51
103
83
51
63
47
23
103
83
51
103
83
51
63
47
23
63
47
23
43
35
15
19
19
19
19
19
19
19
19
19
27
27
27
27
27
27
27
27
27
27
27
27
27
27
27
39
39
39
167
107
107
167
107
107
167
107
107
167
107
107
167
107
107
167
107
107
167
107
107
167
107
107
167
107
107
167
107
107
167
107
107
167
107
107
167
107
107
67
51
27
0
0
0
0
0
0
0
0
0
0
0
0
0
0
0
0
0
0
0
0
0
167
107
107
167
107
107
167
107
107
167
107
107
167
107
107
167
107
107
167
107
107
167
107
107
167
107
107
167
107
107
167
107
107
167
107
107
167
107
107
167
107
107
167
107
107
167
107
107
167
107
107
167
107
107
167
107
107
167
107
107
167
107
107
167
107
107
167
107
107
167
107
107
167
107
107
167
107
107
167
107
107
167
107
107
167
107
107
55
55
55
0
0
83
0
0
23
167
107
107
167
107
107
103
83
51
103
83
51
63
47
23
103
83
51
103
83
51
63
47
23
75
55
27
55
55
55
19
19
19
19
19
19
19
19
19
27
27
27
27
27
27
27
27
27
27
27
27
27
27
27
39
39
39
167
107
107
167
107
107
167
107
107
167
107
107
167
107
107
167
107
107
167
107
107
167
107
107
167
107
107
167
107
107
167
107
107
167
107
107
167
107
107
67
51
27
0
0
0
0
0
0
0
0
0
0
0
0
0
0
0
0
0
0
0
0
0
167
107
107
167
107
107
167
107
107
167
107
107
167
107
107
167
107
107
167
107
107
167
107
107
167
107
107
167
107
107
167
107
107
167
107
107
167
107
107
167
107
107
167
107
107
167
107
107
167
107
107
167
107
107
167
107
107
167
107
107
167
107
107
159
159
159
111
115
87
103
107
79
119
95
75
95
75
55
71
79
51
63
71
43
55
63
39
47
47
47
39
39
39
35
35
35
27
27
27
19
19
19
19
19
19
19
19
19
11
11
11
11
11
11
19
19
19
11
11
11
0
0
0
19
19
19
35
35
35
47
47
47
167
107
107
167
107
107
167
107
107
167
107
107
167
107
107
167
107
107
167
107
107
167
107
107
167
107
107
167
107
107
167
107
107
167
107
107
167
107
107
167
107
107
167
107
107
167
107
107
167
107
107
167
107
107
167
107
107
167
107
107
67
51
27
0
0
0
0
0
0
0
0
0
0
0
0
0
0
0
0
0
0
0
0
0
67
51
27
0
0
0
0
0
0
0
0
0
0
0
0
0
0
0
0
0
0
0
0
0
0
0
107
255
255
255
0
0
107
0
0
107
0
0
107
255
255
255
255
255
255
0
0
107
75
55
27
255
235
223
255
235
223
255
127
27
255
127
27
255
235
223
255
235
223
255
127
27
75
55
27
255
127
27
255
127
27
255
235
223
255
235
223
255
235
223
255
235
223
255
127
27
167
107
107
167
107
107
167
107
107
167
107
107
167
107
107
167
107
107
167
107
107
167
107
107
167
107
107
167
107
107
167
107
107
167
107
107
167
107
107
167
107
107
167
107
107
167
107
107
167
107
107
167
107
107
167
107
107
167
107
107
167
107
107
167
107
107
167
107
107
167
107
107
167
107
107
35
35
35
35
35
35
27
27
27
27
27
27
91
71
43
63
47
23
67
51
27
0
0
0
0
0
0
0
0
0
0
0
0
167
107
107
167
107
107
167
107
107
167
107
107
167
107
107
167
107
107
167
107
107
167
107
107
167
107
107
167
107
107
167
107
107
167
107
107
167
107
107
167
107
107
167
107
107
167
107
107
167
107
107
167
107
107
167
107
107
167
107
107
167
107
107
167
107
107
167
107
107
167
107
107
167
107
107
167
107
107
167
107
107
167
107
107
67
51
27
0
0
0
0
0
0
0
0
0
0
0
0
0
0
0
0
0
0
0
0
0
167
107
107
167
107
107
167
107
107
167
107
107
167
107
107
167
107
107
167
107
107
167
107
107
167
107
107
167
107
107
167
107
107
167
107
107
167
107
107
167
107
107
167
107
107
167
107
107
167
107
107
167
107
107
167
107
107
167
107
107
167
107
107
167
107
107
167
107
107
167
107
107
167
107
107
35
35
35
35
35
35
27
27
27
27
27
27
83
63
47
0
0
83
23
15
7
0
0
0
0
0
0
0
0
0
0
0
0
43
35
15
43
35
15
63
47
23
63
47
23
43
35
15
75
55
27
19
19
19
19
19
19
19
19
19
27
27
27
27
27
27
19
19
19
19
19
19
19
19
19
39
39
39
167
107
107
167
107
107
167
107
107
167
107
107
167
107
107
167
107
107
167
107
107
167
107
107
167
107
107
167
107
107
167
107
107
167
107
107
167
107
107
67
51
27
0
0
0
0
0
0
0
0
0
0
0
0
0
0
0
0
0
0
0
0
0
167
107
107
167
107
107
167
107
107
167
107
107
167
107
107
167
107
107
167
107
107
167
107
107
167
107
107
167
107
107
167
107
107
167
107
107
167
107
107
167
107
107
167
107
107
167
107
107
167
107
107
167
107
107
167
107
107
167
107
107
167
107
107
167
107
107
167
107
107
167
107
107
167
107
107
35
35
35
35
35
35
27
27
27
27
27
27
83
63
47
0
0
83
0
0
23
0
0
0
0
0
0
0
0
0
0
0
0
43
35
15
43
35
15
63
47
23
75
55
27
75
55
27
75
55
27
19
19
19
19
19
19
19
19
19
27
27
27
27
27
27
19
19
19
19
19
19
19
19
19
39
39
39
167
107
107
167
107
107
167
107
107
167
107
107
167
107
107
167
107
107
167
107
107
167
107
107
167
107
107
167
107
107
167
107
107
167
107
107
167
107
107
67
51
27
0
0
0
0
0
0
0
0
0
0
0
0
0
0
0
0
0
0
0
0
0
167
107
107
167
107
107
167
107
107
167
107
107
167
107
107
167
107
107
167
107
107
167
107
107
167
107
107
167
107
107
167
107
107
167
107
107
167
107
107
167
107
107
167
107
107
167
107
107
167
107
107
167
107
107
167
107
107
167
107
107
167
107
107
167
167
167
123
127
99
123
127
99
167
143
119
147
123
99
91
99
71
83
87
59
67
67
67
47
47
47
47
47
47
39
39
39
27
27
27
19
35
11
19
19
19
11
23
7
11
11
11
0
0
0
19
19
19
19
19
19
0
0
0
19
19
19
27
27
27
47
47
47
167
107
107
167
107
107
167
107
107
167
107
107
167
107
107
167
107
107
167
107
107
167
107
107
167
107
107
167
107
107
167
107
107
167
107
107
167
107
107
167
107
107
167
107
107
167
107
107
167
107
107
167
107
107
167
107
107
167
107
107
67
51
27
0
0
0
0
0
0
0
0
0
0
0
0
0
0
0
0
0
0
0
0
0
67
51
27
0
0
0
0
0
0
0
0
0
0
0
0
0
0
0
0
0
0
0
0
0
0
0
107
0
0
107
0
0
107
0
0
107
0
0
107
0
0
107
255
255
255
0
0
107
75
55
27
255
127
27
255
127
27
255
127
27
255
127
27
255
235
223
255
235
223
255
127
27
75
55
27
255
127
27
255
235
223
255
235
223
255
127
27
255
235
223
255
235
223
255
127
27
167
107
107
167
107
107
167
107
107
167
107
107
167
107
107
167
107
107
167
107
107
167
107
107
167
107
107
167
107
107
167
107
107
167
107
107
167
107
107
167
107
107
167
107
107
167
107
107
167
107
107
167
107
107
167
107
107
167
107
107
167
107
107
167
107
107
55
55
55
47
47
47
47
47
47
39
39
39
39
39
39
35
35
35
0
0
0
79
59
35
51
43
19
51
43
19
0
0
0
11
11
11
11
11
11
11
11
11
11
11
11
27
27
27
27
27
27
167
107
107
167
107
107
167
107
107
167
107
107
167
107
107
167
107
107
167
107
107
167
107
107
167
107
107
167
107
107
167
107
107
167
107
107
167
107
107
167
107
107
167
107
107
167
107
107
167
107
107
167
107
107
167
107
107
167
107
107
167
107
107
167
107
107
167
107
107
167
107
107
167
107
107
67
51
27
0
0
0
0
0
0
0
0
0
0
0
0
0
0
0
0
0
0
0
0
0
167
107
107
167
107
107
167
107
107
167
107
107
167
107
107
167
107
107
167
107
107
167
107
107
167
107
107
167
107
107
167
107
107
167
107
107
167
107
107
167
107
107
167
107
107
167
107
107
167
107
107
167
107
107
167
107
107
167
107
107
167
107
107
167
107
107
55
55
55
47
47
47
47
47
47
39
39
39
39
39
39
35
35
35
0
0
0
23
15
7
0
0
23
23
15
7
0
0
0
11
11
11
11
11
11
11
11
11
43
35
15
43
35
15
75
55
27
103
83
51
63
47
23
63
47
23
75
55
27
167
107
107
19
19
19
19
19
19
19
19
19
19
19
19
39
39
39
167
107
107
167
107
107
167
107
107
167
107
107
167
107
107
167
107
107
167
107
107
167
107
107
167
107
107
167
107
107
167
107
107
167
107
107
167
107
107
167
107
107
167
107
107
67
51
27
0
0
0
0
0
0
0
0
0
0
0
0
0
0
0
0
0
0
0
0
0
167
107
107
167
107
107
167
107
107
167
107
107
167
107
107
167
107
107
167
107
107
167
107
107
167
107
107
167
107
107
167
107
107
167
107
107
167
107
107
167
107
107
167
107
107
167
107
107
167
107
107
167
107
107
167
107
107
167
107
107
167
107
107
167
107
107
55
55
55
47
47
47
47
47
47
39
39
39
39
39
39
35
35
35
0
0
0
23
15
7
23
15
7
23
15
7
0
0
0
11
11
11
11
11
11
11
11
11
43
35
15
43
35
15
75
55
27
103
83
51
63
47
23
63
47
23
75
55
27
167
107
107
19
19
19
19
19
19
19
19
19
19
19
19
39
39
39
167
107
107
167
107
107
167
107
107
167
107
107
167
107
107
167
107
107
167
107
107
167
107
107
167
107
107
167
107
107
167
107
107
167
107
107
167
107
107
167
107
107
167
107
107
67
51
27
0
0
0
0
0
0
0
0
0
0
0
0
0
0
0
0
0
0
0
0
0
167
107
107
167
107
107
167
107
107
167
107
107
167
107
107
167
107
107
167
107
107
167
107
107
167
107
107
167
107
107
167
107
107
167
107
107
167
107
107
167
107
107
167
107
107
167
107
107
167
107
107
167
107
107
167
107
107
167
107
107
167
107
107
167
167
167
155
127
107
123
127
99
175
151
127
159
135
111
123
127
99
111
115
87
103
107
79
91
99
71
91
99
71
83
87
59
71
79
51
63
71
43
55
63
39
23
51
15
35
35
35
19
19
19
0
0
0
0
0
0
0
0
0
19
19
19
27
27
27
55
55
55
167
107
107
167
107
107
167
107
107
167
107
107
167
107
107
167
107
107
167
107
107
167
107
107
167
107
107
167
107
107
167
107
107
167
107
107
167
107
107
167
107
107
167
107
107
167
107
107
167
107
107
167
107
107
167
107
107
167
107
107
67
51
27
0
0
0
0
0
0
0
0
0
0
0
0
0
0
0
0
0
0
0
0
0
67
51
27
0
0
0
0
0
0
0
0
0
0
0
0
0
0
0
0
0
0
0
0
0
255
255
255
255
255
255
0
0
107
0
0
107
255
255
255
255
255
255
255
255
255
0
0
107
75
55
27
255
127
27
255
127
27
255
235
223
255
235
223
255
235
223
255
127
27
255
127
27
75
55
27
255
235
223
255
235
223
255
127
27
255
127
27
255
235
223
255
235
223
255
127
27
167
107
107
167
107
107
167
107
107
167
107
107
167
107
107
167
107
107
167
107
107
167
107
107
167
107
107
167
107
107
167
107
107
167
107
107
167
107
107
167
107
107
167
107
107
167
107
107
167
107
107
167
107
107
167
107
107
167
107
107
167
107
107
67
67
67
59
59
59
59
59
59
59
59
59
67
67
67
55
55
55
39
39
39
43
35
15
43
35
15
43
35
15
43
35
15
11
11
11
11
11
11
27
27
27
27
27
27
27
27
27
35
35
35
35
35
35
35
35
35
167
107
107
167
107
107
167
107
107
167
107
107
167
107
107
167
107
107
167
107
107
167
107
107
167
107
107
167
107
107
167
107
107
167
107
107
167
107
107
167
107
107
167
107
107
167
107
107
167
107
107
167
107
107
167
107
107
167
107
107
167
107
107
167
107
107
167
107
107
167
107
107
67
51
27
0
0
0
0
0
0
0
0
0
0
0
0
0
0
0
0
0
0
0
0
0
167
107
107
167
107
107
167
107
107
167
107
107
167
107
107
167
107
107
167
107
107
167
107
107
167
107
107
167
107
107
167
107
107
167
107
107
167
107
107
167
107
107
167
107
107
167
107
107
167
107
107
167
107
107
167
107
107
167
107
107
167
107
107
67
67
67
59
59
59
59
59
59
59
59
59
67
67
67
55
55
55
39
39
39
43
35
15
43
35
15
43
35
15
43
35
15
11
11
11
11
11
11
27
27
27
27
27
27
27
27
27
75
55
27
35
35
35
35
35
35
103
83
51
103
83
51
63
47
23
167
107
107
167
107
107
167
107
107
167
107
107
167
107
107
167
107
107
167
107
107
167
107
107
167
107
107
167
107
107
167
107
107
167
107
107
167
107
107
167
107
107
167
107
107
167
107
107
167
107
107
167
107
107
167
107
107
167
107
107
167
107
107
67
51
27
0
0
0
0
0
0
0
0
0
0
0
0
0
0
0
0
0
0
0
0
0
167
107
107
167
107
107
167
107
107
167
107
107
167
107
107
167
107
107
167
107
107
167
107
107
167
107
107
167
107
107
167
107
107
167
107
107
167
107
107
167
107
107
167
107
107
167
107
107
167
107
107
167
107
107
167
107
107
167
107
107
167
107
107
67
67
67
59
59
59
59
59
59
59
59
59
67
67
67
55
55
55
39
39
39
43
35
15
0
0
47
0
0
47
0
0
47
11
11
11
11
11
11
27
27
27
27
27
27
27
27
27
75
55
27
35
35
35
35
35
35
103
83
51
103
83
51
63
47
23
167
107
107
167
107
107
167
107
107
167
107
107
167
107
107
167
107
107
167
107
107
167
107
107
167
107
107
167
107
107
167
107
107
167
107
107
167
107
107
167
107
107
167
107
107
167
107
107
167
107
107
167
107
107
167
107
107
167
107
107
167
107
107
67
51
27
0
0
0
0
0
0
0
0
0
0
0
0
0
0
0
0
0
0
0
0
0
167
107
107
167
107
107
167
107
107
167
107
107
167
107
107
167
107
107
167
107
107
167
107
107
167
107
107
167
107
107
167
107
107
167
107
107
167
107
107
167
107
107
167
107
107
167
107
107
167
107
107
167
107
107
167
107
107
167
107
107
167
107
107
147
147
147
159
135
111
123
127
99
167
143
119
167
143
119
123
127
99
123
127
99
139
115
91
103
107
79
103
107
79
91
99
71
83
87
59
71
79
51
71
79
51
55
63
39
47
47
47
35
35
35
0
0
0
0
0
0
0
0
0
19
19
19
11
11
11
47
47
47
167
107
107
167
107
107
167
107
107
167
107
107
167
107
107
167
107
107
167
107
107
167
107
107
167
107
107
167
107
107
167
107
107
167
107
107
167
107
107
167
107
107
167
107
107
167
107
107
167
107
107
167
107
107
167
107
107
167
107
107
67
51
27
0
0
0
0
0
0
0
0
0
0
0
0
0
0
0
0
0
0
0
0
0
67
51
27
0
0
0
0
0
0
0
0
0
0
0
0
0
0
0
0
0
0
0
0
0
0
0
107
255
255
255
0
0
107
255
255
255
0
0
107
0
0
107
255
255
255
0
0
107
75
55
27
255
127
27
255
235
223
255
235
223
255
127
27
255
127
27
255
127
27
255
127
27
75
55
27
255
235
223
255
235
223
255
235
223
255
235
223
255
235
223
255
235
223
255
235
223
167
107
107
167
107
107
167
107
107
167
107
107
167
107
107
167
107
107
167
107
107
167
107
107
167
107
107
167
107
107
167
107
107
167
107
107
167
107
107
167
107
107
167
107
107
167
107
107
167
107
107
167
107
107
167
107
107
167
107
107
167
107
107
71
71
71
71
71
71
71
71
71
79
79
79
87
87
87
79
79
79
67
67
67
59
59
59
47
47
47
35
35
35
27
27
27
27
27
27
35
35
35
39
39
39
39
39
39
39
39
39
39
39
39
39
39
39
71
71
71
167
107
107
167
107
107
167
107
107
167
107
107
167
107
107
167
107
107
167
107
107
167
107
107
167
107
107
167
107
107
167
107
107
167
107
107
167
107
107
167
107
107
167
107
107
167
107
107
167
107
107
167
107
107
167
107
107
167
107
107
167
107
107
167
107
107
167
107
107
167
107
107
67
51
27
0
0
0
0
0
0
0
0
0
0
0
0
0
0
0
0
0
0
0
0
0
167
107
107
167
107
107
167
107
107
167
107
107
167
107
107
167
107
107
167
107
107
167
107
107
167
107
107
167
107
107
167
107
107
167
107
107
167
107
107
167
107
107
167
107
107
167
107
107
167
107
107
167
107
107
167
107
107
167
107
107
167
107
107
71
71
71
71
71
71
71
71
71
79
79
79
87
87
87
79
79
79
67
67
67
59
59
59
0
0
107
0
0
155
0
0
131
27
27
27
35
35
35
39
39
39
39
39
39
39
39
39
39
39
39
39
39
39
71
71
71
167
107
107
167
107
107
167
107
107
167
107
107
167
107
107
167
107
107
167
107
107
167
107
107
167
107
107
167
107
107
167
107
107
167
107
107
167
107
107
167
107
107
167
107
107
167
107
107
167
107
107
167
107
107
167
107
107
167
107
107
167
107
107
167
107
107
167
107
107
167
107
107
67
51
27
0
0
0
0
0
0
0
0
0
0
0
0
0
0
0
0
0
0
0
0
0
167
107
107
167
107
107
167
107
107
167
107
107
167
107
107
167
107
107
167
107
107
167
107
107
167
107
107
167
107
107
167
107
107
167
107
107
167
107
107
167
107
107
167
107
107
167
107
107
167
107
107
167
107
107
167
107
107
167
107
107
167
107
107
71
71
71
71
71
71
71
71
71
79
79
79
87
87
87
79
79
79
67
67
67
59
59
59
0
0
107
0
0
131
0
0
155
0
0
107
0
0
107
39
39
39
39
39
39
39
39
39
39
39
39
39
39
39
71
71
71
167
107
107
167
107
107
167
107
107
167
107
107
167
107
107
167
107
107
167
107
107
167
107
107
167
107
107
167
107
107
167
107
107
167
107
107
167
107
107
167
107
107
167
107
107
167
107
107
167
107
107
167
107
107
167
107
107
167
107
107
167
107
107
167
107
107
167
107
107
167
107
107
67
51
27
0
0
0
0
0
0
0
0
0
0
0
0
0
0
0
0
0
0
0
0
0
167
107
107
167
107
107
167
107
107
167
107
107
167
107
107
167
107
107
167
107
107
167
107
107
167
107
107
167
107
107
167
107
107
167
107
107
167
107
107
167
107
107
167
107
107
167
107
107
167
107
107
167
107
107
167
107
107
167
107
107
167
107
107
111
115
87
123
127
99
139
115
91
139
115
91
123
127
99
139
115
91
123
99
79
123
99
79
87
87
87
83
87
59
71
79
51
71
79
51
63
71
43
63
71
43
55
63
39
39
39
39
35
35
35
11
11
11
11
11
11
11
11
11
27
27
27
0
0
0
35
35
35
167
107
107
167
107
107
167
107
107
167
107
107
167
107
107
167
107
107
167
107
107
167
107
107
167
107
107
167
107
107
167
107
107
167
107
107
167
107
107
167
107
107
167
107
107
167
107
107
167
107
107
167
107
107
167
107
107
167
107
107
67
51
27
0
0
0
0
0
0
0
0
0
0
0
0
0
0
0
0
0
0
0
0
0
67
51
27
0
0
0
0
0
0
0
0
0
0
0
0
0
0
0
0
0
0
0
0
0
0
0
107
255
255
255
0
0
107
255
255
255
0
0
107
0
0
107
255
255
255
0
0
107
75
55
27
255
235
223
255
235
223
255
127
27
255
127
27
255
235
223
255
235
223
255
127
27
75
55
27
255
127
27
255
127
27
255
127
27
255
127
27
255
235
223
255
235
223
255
127
27
167
107
107
167
107
107
167
107
107
167
107
107
167
107
107
167
107
107
167
107
107
167
107
107
167
107
107
167
107
107
167
107
107
167
107
107
167
107
107
167
107
107
167
107
107
167
107
107
167
107
107
167
107
107
167
107
107
167
107
107
167
107
107
167
107
107
79
79
79
79
79
79
79
79
79
79
79
79
87
87
87
79
79
79
71
71
71
59
59
59
55
55
55
47
47
47
47
47
47
55
55
55
55
55
55
55
55
55
55
55
55
59
59
59
71
71
71
167
107
107
167
107
107
167
107
107
167
107
107
167
107
107
167
107
107
167
107
107
167
107
107
167
107
107
167
107
107
167
107
107
167
107
107
167
107
107
167
107
107
167
107
107
167
107
107
167
107
107
167
107
107
167
107
107
167
107
107
167
107
107
167
107
107
167
107
107
167
107
107
167
107
107
67
51
27
0
0
0
0
0
0
0
0
0
0
0
0
0
0
0
0
0
0
0
0
0
167
107
107
167
107
107
167
107
107
167
107
107
167
107
107
167
107
107
167
107
107
167
107
107
167
107
107
167
107
107
167
107
107
167
107
107
167
107
107
167
107
107
167
107
107
167
107
107
167
107
107
167
107
107
167
107
107
167
107
107
167
107
107
167
107
107
79
79
79
79
79
79
79
79
79
79
79
79
87
87
87
79
79
79
71
71
71
59
59
59
55
55
55
47
47
47
47
47
47
55
55
55
55
55
55
55
55
55
55
55
55
59
59
59
71
71
71
167
107
107
167
107
107
167
107
107
167
107
107
167
107
107
167
107
107
167
107
107
167
107
107
167
107
107
167
107
107
167
107
107
167
107
107
167
107
107
167
107
107
167
107
107
167
107
107
167
107
107
167
107
107
167
107
107
167
107
107
167
107
107
167
107
107
167
107
107
167
107
107
167
107
107
67
51
27
0
0
0
0
0
0
0
0
0
0
0
0
0
0
0
0
0
0
0
0
0
167
107
107
167
107
107
167
107
107
167
107
107
167
107
107
167
107
107
167
107
107
167
107
107
167
107
107
167
107
107
167
107
107
167
107
107
167
107
107
167
107
107
167
107
107
167
107
107
167
107
107
167
107
107
167
107
107
167
107
107
167
107
107
167
107
107
79
79
79
79
79
79
79
79
79
79
79
79
87
87
87
79
79
79
71
71
71
59
59
59
55
55
55
47
47
47
47
47
47
55
55
55
55
55
55
55
55
55
55
55
55
59
59
59
71
71
71
167
107
107
167
107
107
167
107
107
167
107
107
167
107
107
167
107
107
167
107
107
167
107
107
167
107
107
167
107
107
167
107
107
167
107
107
167
107
107
167
107
107
167
107
107
167
107
107
167
107
107
167
107
107
167
107
107
167
107
107
167
107
107
167
107
107
167
107
107
167
107
107
167
107
107
67
51
27
0
0
0
0
0
0
0
0
0
0
0
0
0
0
0
0
0
0
0
0
0
167
107
107
167
107
107
167
107
107
167
107
107
167
107
107
167
107
107
167
107
107
167
107
107
167
107
107
167
107
107
167
107
107
167
107
107
167
107
107
167
107
107
167
107
107
167
107
107
167
107
107
167
107
107
167
107
107
167
107
107
167
107
107
167
107
107
167
107
107
83
87
59
83
87
59
83
87
59
83
87
59
47
47
47
35
35
35
35
35
35
35
35
35
19
19
19
19
19
19
19
19
19
19
19
19
0
0
0
0
0
0
0
0
0
0
0
0
0
0
0
0
0
0
35
35
35
167
107
107
167
107
107
167
107
107
167
107
107
167
107
107
167
107
107
167
107
107
167
107
107
167
107
107
167
107
107
167
107
107
167
107
107
167
107
107
167
107
107
167
107
107
167
107
107
167
107
107
167
107
107
167
107
107
167
107
107
167
107
107
167
107
107
67
51
27
0
0
0
0
0
0
0
0
0
0
0
0
0
0
0
0
0
0
0
0
0
67
51
27
0
0
0
0
0
0
0
0
0
0
0
0
0
0
0
0
0
0
0
0
0
255
255
255
255
255
255
255
255
255
0
0
107
255
255
255
255
255
255
255
255
255
255
255
255
75
55
27
255
235
223
255
235
223
255
235
223
255
235
223
255
235
223
255
235
223
255
127
27
75
55
27
255
127
27
255
127
27
255
127
27
255
127
27
255
235
223
255
235
223
255
127
27
167
107
107
167
107
107
167
107
107
167
107
107
167
107
107
167
107
107
167
107
107
167
107
107
167
107
107
167
107
107
167
107
107
167
107
107
167
107
107
167
107
107
167
107
107
167
107
107
167
107
107
167
107
107
167
107
107
167
107
107
167
107
107
167
107
107
167
107
107
167
107
107
167
107
107
79
79
79
79
79
79
79
79
79
79
79
79
79
79
79
71
71
71
71
71
71
71
71
71
71
71
71
71
71
71
55
55
55
167
107
107
167
107
107
167
107
107
167
107
107
167
107
107
167
107
107
167
107
107
167
107
107
167
107
107
167
107
107
167
107
107
167
107
107
167
107
107
167
107
107
167
107
107
167
107
107
167
107
107
167
107
107
167
107
107
167
107
107
167
107
107
167
107
107
167
107
107
167
107
107
167
107
107
167
107
107
167
107
107
167
107
107
67
51
27
0
0
0
0
0
0
0
0
0
0
0
0
0
0
0
0
0
0
0
0
0
167
107
107
167
107
107
167
107
107
167
107
107
167
107
107
167
107
107
167
107
107
167
107
107
167
107
107
167
107
107
167
107
107
167
107
107
167
107
107
167
107
107
167
107
107
167
107
107
167
107
107
167
107
107
167
107
107
167
107
107
167
107
107
167
107
107
167
107
107
167
107
107
167
107
107
79
79
79
79
79
79
79
79
79
79
79
79
79
79
79
71
71
71
71
71
71
71
71
71
71
71
71
71
71
71
55
55
55
167
107
107
167
107
107
167
107
107
167
107
107
167
107
107
167
107
107
167
107
107
167
107
107
167
107
107
167
107
107
167
107
107
167
107
107
167
107
107
167
107
107
167
107
107
167
107
107
167
107
107
167
107
107
167
107
107
167
107
107
167
107
107
167
107
107
167
107
107
167
107
107
167
107
107
167
107
107
167
107
107
167
107
107
67
51
27
0
0
0
0
0
0
0
0
0
0
0
0
0
0
0
0
0
0
0
0
0
167
107
107
167
107
107
167
107
107
167
107
107
167
107
107
167
107
107
167
107
107
167
107
107
167
107
107
167
107
107
167
107
107
167
107
107
167
107
107
167
107
107
167
107
107
167
107
107
167
107
107
167
107
107
167
107
107
167
107
107
167
107
107
167
107
107
167
107
107
167
107
107
167
107
107
79
79
79
79
79
79
79
79
79
79
79
79
79
79
79
71
71
71
71
71
71
71
71
71
71
71
71
71
71
71
55
55
55
167
107
107
167
107
107
167
107
107
167
107
107
167
107
107
167
107
107
167
107
107
167
107
107
167
107
107
167
107
107
167
107
107
167
107
107
167
107
107
167
107
107
167
107
107
167
107
107
167
107
107
167
107
107
167
107
107
167
107
107
167
107
107
167
107
107
167
107
107
167
107
107
167
107
107
167
107
107
167
107
107
167
107
107
67
51
27
0
0
0
0
0
0
0
0
0
0
0
0
0
0
0
0
0
0
0
0
0
167
107
107
167
107
107
167
107
107
167
107
107
167
107
107
167
107
107
167
107
107
167
107
107
167
107
107
167
107
107
167
107
107
167
107
107
167
107
107
167
107
107
167
107
107
167
107
107
167
107
107
167
107
107
167
107
107
167
107
107
167
107
107
167
107
107
167
107
107
167
107
107
167
107
107
167
107
107
167
107
107
167
107
107
167
107
107
167
107
107
167
107
107
167
107
107
167
107
107
167
107
107
167
107
107
167
107
107
167
107
107
167
107
107
167
107
107
167
107
107
167
107
107
167
107
107
167
107
107
167
107
107
167
107
107
167
107
107
167
107
107
167
107
107
167
107
107
167
107
107
167
107
107
167
107
107
167
107
107
167
107
107
167
107
107
167
107
107
167
107
107
167
107
107
167
107
107
167
107
107
167
107
107
167
107
107
167
107
107
167
107
107
67
51
27
0
0
0
0
0
0
0
0
0
0
0
0
0
0
0
0
0
0
0
0
0
67
51
27
0
0
0
0
0
0
0
0
0
0
0
0
0
0
0
0
0
0
0
0
0
0
0
107
0
0
107
0
0
107
0
0
107
0
0
107
0
0
107
0
0
107
0
0
107
