P3
64 64
255
5 8 17 5 8 17 6 9 18 7 10 19 10 10 21 12 10 22 13 11 24 14 12 25 14 12 25 14 13 26 14 13 26 13 13 26 12 14 26 11 14 26 11 13 26 12 14 26 11 13 26 11 13 25 11 13 25 11 13 25 11 13 25 11 13 25 10 12 25 11 13 25 11 13 24 10 12 24 11 12 24 11 12 25 10 12 24 10 12 24 10 12 24 10 12 24 10 12 24 10 12 24 10 12 24 10 12 24 10 12 24 10 12 24 10 12 24 10 12 24 10 12 24 10 13 25 11 13 25 11 13 25 11 13 25 11 13 26 11 13 26 11 13 26 11 13 26 12 14 27 13 14 27 13 14 26 14 13 26 14 14 26 14 13 25 14 12 25 14 12 25 13 11 23 12 10 21 11 10 21 9 10 20 8 9 19 6 9 17 5 8 17 
5 8 16 6 9 18 9 9 19 9 10 20 12 10 21 13 11 23 14 12 25 15 13 26 15 13 27 16 14 28 15 15 28 15 14 28 13 15 28 13 15 28 12 14 27 12 14 27 12 14 27 12 14 27 12 14 27 12 14 27 12 14 26 12 14 26 11 13 26 11 13 26 11 13 26 11 13 26 11 13 25 11 13 25 11 13 25 11 13 25 11 13 25 11 13 25 11 13 25 11 13 25 11 13 25 11 13 25 11 13 25 11 13 25 11 13 25 11 13 25 11 13 26 11 13 26 11 13 26 12 14 26 12 14 27 12 14 27 12 14 27 12 14 27 13 15 28 13 15 28 14 15 28 14 14 28 15 14 28 15 14 27 15 14 27 15 13 26 15 13 26 14 12 25 13 11 23 13 11 22 11 10 20 9 9 18 8 9 17 6 7 15 
7 7 16 7 8 17 9 9 20 10 10 20 12 10 21 13 11 24 14 12 26 16 14 27 16 15 29 17 15 29 17 16 29 16 16 29 14 16 29 14 16 29 13 15 28 13 15 28 13 15 28 13 15 28 12 15 28 12 14 27 13 15 27 12 14 27 12 14 27 12 14 27 12 14 27 12 14 27 12 14 27 12 14 26 12 14 26 11 14 26 12 14 26 12 14 26 12 14 26 12 14 26 11 13 26 11 13 26 12 14 26 12 14 26 12 14 27 12 14 27 12 14 27 12 14 27 12 14 27 13 15 28 12 15 28 13 15 28 13 15 28 13 15 28 13 16 29 14 16 29 14 16 29 15 15 29 16 15 29 17 15 29 16 15 28 16 14 28 15 13 27 14 13 26 14 12 24 13 10 21 11 9 20 10 9 17 8 8 15 8 7 15 
9 8 19 9 8 18 8 8 18 11 9 21 13 10 22 14 12 25 16 14 27 18 16 29 18 17 30 19 17 31 18 17 31 18 17 31 15 17 32 15 17 31 15 17 31 15 17 30 14 16 30 14 16 30 13 16 29 13 15 29 13 15 29 13 16 29 13 15 28 13 15 28 13 15 28 13 15 28 13 15 28 12 14 27 13 15 28 13 15 28 13 15 27 13 15 27 13 15 27 13 15 28 13 15 27 12 15 27 13 15 28 13 15 28 13 15 28 13 15 28 13 15 28 13 15 28 13 16 29 14 16 29 14 16 29 14 16 30 14 16 30 14 16 31 14 17 31 14 17 31 16 17 32 17 17 32 18 17 31 18 16 31 18 16 31 18 16 30 17 15 29 15 13 27 14 12 25 13 10 22 11 9 20 9 8 16 9 8 17 9 8 18 
10 9 21 12 10 22 11 9 20 10 9 20 13 10 24 15 13 25 19 15 30 22 17 33 22 18 34 21 19 35 21 19 35 21 19 35 19 19 34 17 19 34 16 19 34 17 19 34 16 18 33 16 18 33 15 18 33 15 18 32 15 17 32 15 17 32 15 17 31 15 17 31 15 17 31 15 17 31 14 17 31 14 16 30 14 17 30 14 16 30 14 16 30 14 16 30 14 17 30 14 16 30 14 16 30 14 16 30 14 17 31 14 17 31 15 17 31 15 17 31 15 17 32 15 17 32 15 18 32 15 17 32 15 17 32 16 18 33 16 18 33 16 18 33 17 18 33 18 18 34 18 18 33 19 18 34 21 19 35 21 18 36 21 18 35 21 17 34 21 16 32 19 14 29 14 12 25 12 10 23 10 8 18 10 9 19 12 10 21 11 9 20 
12 10 23 13 11 24 13 11 24 12 11 23 11 10 22 15 13 26 23 16 34 27 18 39 28 21 40 27 23 41 25 23 41 24 22 40 23 22 38 22 22 38 21 21 37 21 21 37 20 20 36 20 20 36 19 21 36 19 20 36 19 20 36 19 20 36 18 20 35 18 20 35 18 20 35 18 19 35 17 19 35 17 19 35 17 19 35 17 19 34 17 19 34 17 19 35 17 19 35 17 19 35 17 19 35 17 19 35 17 19 35 17 19 35 17 19 35 17 19 34 18 19 35 18 20 35 18 20 35 19 20 35 19 20 35 20 20 36 20 20 36 21 20 36 21 20 37 21 21 37 22 21 38 22 21 39 24 22 40 25 22 41 26 22 41 27 20 41 26 17 37 22 15 32 15 12 26 11 9 20 12 10 22 13 11 24 13 11 22 12 10 22 
13 12 24 14 12 25 15 13 26 16 13 28 17 13 28 18 13 29 43 24 52 55 30 62 43 23 52 35 20 47 29 17 43 28 20 43 29 24 45 27 22 43 27 22 44 26 22 43 26 22 42 25 22 42 24 21 42 23 20 40 23 20 40 23 20 40 22 19 39 22 19 39 21 19 39 21 19 38 21 19 38 20 19 38 20 18 38 20 18 38 20 18 37 20 18 38 20 18 37 20 18 38 20 18 38 20 18 38 20 19 38 21 18 38 21 18 38 21 19 38 21 19 38 22 19 39 22 19 39 23 20 40 24 20 40 24 21 41 25 21 42 26 22 43 27 22 43 27 23 44 28 22 44 30 23 46 31 22 46 31 18 45 37 20 48 45 23 53 56 29 62 44 23 51 18 12 27 15 12 26 15 12 26 14 12 25 14 12 25 13 11 24 
15 13 27 16 14 28 18 16 30 23 16 34 29 20 41 47 22 55 113 80 113 148 115 144 133 100 131 122 93 124 114 89 117 94 72 101 76 56 85 74 56 84 68 50 78 60 45 72 56 43 69 54 41 67 55 42 67 56 43 68 57 45 69 58 46 70 58 46 70 58 45 69 58 45 69 57 45 69 57 45 69 57 45 69 57 44 69 57 45 69 56 44 68 56 44 68 56 44 68 56 44 69 57 45 68 56 44 68 57 44 68 57 44 69 58 45 69 59 47 71 60 47 72 60 48 72 60 48 72 60 47 71 59 46 71 58 44 69 57 41 68 56 41 67 60 43 70 65 47 75 74 54 83 77 54 84 91 65 96 114 88 117 124 93 124 135 99 132 150 116 147 110 76 110 42 19 49 26 18 36 20 15 31 17 14 28 15 13 26 14 12 25 
16 14 28 18 16 29 20 17 32 26 18 38 35 23 46 65 32 70 133 100 133 101 80 103 88 69 93 104 87 110 116 102 124 111 94 119 105 86 113 130 115 137 140 121 144 138 117 141 136 115 140 126 106 131 114 95 120 103 85 111 93 77 103 86 71 98 81 67 93 78 65 92 77 66 91 78 67 92 79 69 93 79 69 93 80 70 93 80 70 92 80 69 92 79 69 92 80 69 92 80 70 92 80 70 93 81 70 93 81 70 93 81 70 94 80 69 92 80 67 91 80 66 92 83 68 94 87 71 97 93 76 101 102 83 109 113 92 118 124 103 128 134 113 137 140 117 142 141 120 145 140 124 146 114 97 122 108 89 116 118 103 125 108 89 113 93 71 97 110 88 111 133 101 133 59 27 63 31 21 41 24 17 34 19 16 30 17 15 28 15 13 26 
17 15 29 18 17 30 21 18 33 25 19 38 35 24 46 50 25 57 138 109 139 64 49 72 9 9 28 16 18 38 15 17 40 18 20 44 23 23 48 23 22 47 27 26 49 37 34 57 50 44 69 62 54 78 72 62 86 82 70 95 88 75 100 87 72 99 83 67 95 74 62 89 64 53 81 50 41 70 39 32 61 31 28 56 23 23 51 18 19 46 16 19 45 17 21 47 17 22 47 16 20 46 18 19 47 22 22 49 27 25 52 33 28 55 44 36 63 58 47 73 68 54 81 78 62 88 86 70 96 91 76 101 87 73 98 78 66 91 67 59 83 56 50 75 44 40 65 33 31 56 25 25 50 24 24 49 21 23 48 18 18 41 17 17 37 10 8 28 75 57 83 137 108 137 49 23 55 34 23 44 25 19 36 20 18 32 19 17 30 17 15 28 
17 15 31 19 16 32 21 18 34 24 20 38 33 24 45 40 21 50 132 106 133 90 76 98 17 21 40 20 42 63 27 69 98 32 66 94 32 60 87 32 59 85 32 56 83 31 54 81 29 52 79 28 51 78 29 52 79 32 53 82 38 58 86 46 64 92 58 74 102 72 85 112 82 92 119 89 96 124 98 102 130 97 100 128 91 92 122 89 90 119 85 86 115 71 73 104 68 70 101 80 81 111 85 88 116 87 88 118 93 95 123 96 99 127 92 97 125 87 96 122 77 88 115 63 76 104 51 66 94 41 58 86 34 53 81 30 51 78 27 51 78 28 51 78 30 54 81 32 57 83 32 59 85 32 60 87 33 69 97 29 73 102 24 44 66 19 21 42 100 83 107 130 103 131 43 22 51 33 24 45 24 19 37 21 18 34 19 17 31 18 16 29 
17 15 31 19 16 33 21 18 34 23 20 38 31 24 45 38 22 49 120 96 123 101 87 110 16 25 48 32 84 112 63 146 174 49 106 134 52 107 135 53 105 133 55 104 132 56 104 132 56 105 134 57 106 134 57 105 134 56 104 132 54 102 130 50 99 128 48 96 126 49 95 125 51 95 125 65 104 134 84 118 146 96 126 155 116 137 165 143 157 181 156 164 185 124 133 162 117 127 157 155 163 185 144 159 183 118 139 167 100 128 156 84 118 147 63 103 132 52 96 125 48 95 123 47 94 123 50 97 126 54 100 128 56 103 131 58 106 134 58 106 135 58 105 133 56 104 133 53 105 133 52 106 135 51 107 135 47 106 135 64 150 178 33 87 119 21 26 52 107 91 116 118 93 120 41 23 50 30 23 43 24 20 38 21 18 35 19 16 32 18 15 30 
17 15 31 19 16 33 21 18 35 23 21 38 29 25 45 38 24 50 105 84 110 109 94 118 22 32 58 40 87 116 47 104 131 10 25 50 14 27 49 17 29 53 20 29 54 18 26 51 18 26 52 19 26 53 22 29 56 28 34 61 38 42 70 52 53 81 64 62 90 74 70 97 84 79 105 81 75 103 76 70 98 65 63 91 49 49 78 35 39 67 24 30 61 21 30 60 23 31 61 25 31 61 35 37 66 49 47 75 66 60 86 74 67 92 82 74 100 82 76 102 73 69 97 64 62 90 51 52 80 39 43 70 30 34 62 23 29 56 20 26 53 20 26 52 21 27 53 23 31 56 20 31 55 15 28 50 10 26 51 48 110 139 39 88 118 27 33 60 114 98 123 104 82 109 41 25 51 29 23 43 23 20 38 21 18 35 19 16 33 18 15 31 
17 16 32 19 17 33 21 18 36 24 21 38 28 25 44 37 26 51 95 77 102 112 96 121 32 37 64 39 79 107 51 102 128 20 28 52 21 25 44 25 21 42 53 36 64 70 55 80 71 57 81 81 67 91 87 73 96 88 74 98 85 71 95 76 63 87 66 56 79 53 46 69 40 37 59 31 31 54 26 27 50 24 26 50 26 29 51 28 30 52 31 31 53 32 32 54 32 32 53 31 32 52 29 30 51 28 28 50 26 25 47 28 26 48 33 30 51 41 34 57 52 43 66 65 54 77 75 61 85 85 70 93 89 73 97 88 72 96 81 66 90 72 57 81 71 54 81 56 37 67 26 22 41 20 25 41 18 28 51 51 105 133 37 77 107 38 40 66 114 98 122 96 76 103 38 25 50 27 23 42 23 20 38 20 18 35 18 17 33 17 16 30 
17 16 32 19 17 33 19 18 34 23 20 38 27 25 43 36 27 51 89 72 98 106 89 115 44 45 71 37 75 102 52 100 126 22 28 52 27 27 47 67 44 76 129 103 130 115 98 119 107 87 111 93 76 99 84 69 91 75 61 84 69 57 79 66 55 77 66 56 77 67 58 78 69 59 80 70 60 81 71 61 81 70 61 81 69 60 80 69 60 80 69 60 80 69 59 79 68 59 79 68 59 79 69 59 79 69 59 79 70 60 80 71 61 81 70 60 80 69 59 79 67 57 77 66 55 75 66 54 75 68 54 76 74 59 81 82 66 88 92 74 97 105 85 107 111 94 115 124 96 125 67 42 73 27 27 47 20 27 51 51 104 131 35 73 102 52 50 77 106 89 115 91 73 99 37 26 50 26 24 42 21 20 37 19 18 34 17 17 33 16 17 32 
17 16 32 18 17 33 19 18 34 22 20 37 26 24 43 35 26 50 88 71 97 98 82 107 59 56 82 35 71 99 53 98 125 23 27 51 24 21 43 93 72 101 106 87 110 3 0 15 15 12 27 14 12 27 17 14 29 18 15 30 19 16 32 19 16 32 18 16 32 17 15 31 16 15 31 15 15 31 15 16 31 15 15 30 14 15 30 14 15 30 14 15 30 14 15 30 14 15 30 14 15 30 14 15 30 15 15 30 16 15 30 16 15 30 17 14 30 17 15 29 17 15 30 18 15 30 18 15 30 18 15 29 17 14 29 15 12 26 13 10 25 12 9 24 1 0 13 105 86 109 91 67 96 25 21 43 21 27 51 51 103 131 33 70 99 67 62 88 97 80 107 90 72 98 35 26 49 25 23 41 21 19 36 18 18 34 15 17 32 14 16 31 
15 16 31 17 18 33 18 18 34 21 20 37 25 24 42 33 25 49 88 72 97 86 71 97 74 67 93 36 69 98 54 98 124 22 26 50 22 20 41 89 72 97 93 75 97 12 9 25 15 15 26 14 13 26 15 13 26 15 13 26 15 14 27 15 14 27 15 14 28 15 14 28 15 14 28 14 15 28 13 15 28 13 15 28 13 15 29 13 15 28 13 15 29 13 15 28 13 14 28 13 15 28 13 15 28 13 15 28 14 14 28 15 14 27 15 14 28 15 14 27 15 14 27 16 14 27 16 14 27 16 14 27 15 14 26 15 13 26 15 13 26 15 14 26 12 10 25 98 80 103 90 70 96 23 21 42 21 28 52 51 102 129 35 69 98 80 71 98 83 69 95 92 75 100 33 24 48 24 22 41 20 19 36 16 18 33 15 17 32 14 16 30 
14 16 31 16 17 32 17 19 34 20 20 36 25 23 41 32 24 47 89 74 98 72 59 84 85 75 100 39 70 99 52 97 123 20 25 48 24 22 43 96 78 103 77 61 83 13 11 25 16 14 27 15 13 27 16 14 28 17 15 29 17 15 29 17 15 29 17 15 29 16 15 29 16 16 30 15 16 30 14 16 31 14 16 31 14 16 30 14 16 30 14 16 30 14 16 30 14 16 31 14 16 31 14 16 31 14 16 31 15 16 30 16 16 30 17 15 29 16 15 29 16 15 29 17 15 29 17 15 29 17 15 29 17 15 28 16 14 27 16 14 27 16 14 27 13 11 26 84 67 91 99 79 104 25 23 45 21 28 51 51 101 127 39 72 102 89 78 104 69 57 84 93 76 101 31 23 46 23 22 40 18 19 35 15 18 33 15 17 31 13 15 29 
13 15 29 15 17 32 16 18 33 18 20 35 24 23 40 31 24 46 90 75 99 60 49 73 90 78 104 45 75 103 51 96 123 17 23 47 32 29 51 98 81 105 71 57 79 15 13 27 15 14 27 15 14 27 16 15 28 17 16 29 17 16 29 17 16 30 17 16 29 16 16 29 15 16 31 14 16 31 14 16 31 14 17 31 14 17 31 14 17 31 14 16 31 14 17 32 14 17 32 14 17 32 14 16 31 14 16 31 14 16 31 14 16 31 17 16 30 17 16 30 17 16 29 17 16 29 17 16 29 17 16 29 17 15 29 17 15 29 16 15 27 16 15 27 15 13 28 74 60 82 101 83 107 32 29 50 19 26 49 50 99 126 47 77 107 92 82 107 58 49 75 94 78 102 30 23 45 23 22 39 17 19 34 15 18 32 15 16 31 13 15 29 
13 15 29 15 17 31 16 18 33 19 20 35 24 23 40 30 23 46 91 75 100 52 43 67 89 76 101 55 82 111 51 94 121 16 21 45 45 40 62 90 74 97 66 53 75 15 13 28 16 14 27 16 14 28 17 15 29 17 16 30 17 16 30 17 16 31 17 17 31 16 17 31 15 17 32 15 17 32 15 17 32 15 17 32 15 17 32 15 17 32 15 17 32 15 17 32 15 17 32 15 17 32 15 17 32 15 17 32 15 17 32 15 17 32 16 17 32 17 16 31 17 16 30 17 16 30 17 16 30 17 16 29 17 15 29 17 16 29 17 15 28 16 15 27 16 14 29 68 55 77 94 77 101 44 39 61 18 24 48 48 98 125 59 87 116 88 77 103 50 43 69 94 78 102 29 22 44 22 22 38 17 18 34 15 17 32 14 16 31 13 15 29 
13 15 28 14 16 31 16 18 33 18 20 35 23 23 40 30 22 45 92 77 101 47 41 64 81 68 94 69 92 121 48 91 119 16 19 43 61 52 75 80 64 89 65 52 74 15 12 27 16 15 27 16 14 28 17 15 29 17 15 30 17 16 31 17 17 32 16 17 33 16 18 33 15 17 32 15 17 32 15 18 33 15 18 33 15 17 32 15 17 32 15 17 32 15 17 33 15 17 32 15 17 32 15 17 32 15 17 32 15 17 32 15 17 32 15 18 33 16 17 32 18 17 31 18 16 31 18 16 31 18 16 30 17 16 30 17 15 29 17 15 28 16 15 27 16 14 29 66 54 75 84 67 92 60 51 73 17 22 46 47 96 123 74 98 129 78 67 95 46 40 66 94 78 102 29 22 44 22 21 38 16 18 34 15 17 32 14 16 30 13 15 29 
13 15 28 14 16 30 15 17 33 17 19 34 23 22 39 29 23 45 91 77 100 45 39 63 71 59 85 85 103 132 47 90 117 18 20 45 75 64 88 67 53 78 67 53 75 14 12 28 16 15 28 16 14 28 17 15 29 17 16 30 16 16 31 15 17 32 16 18 33 16 18 33 16 18 33 15 18 33 15 17 34 15 17 34 15 17 34 15 17 34 15 17 34 15 17 34 15 17 33 15 17 33 15 18 34 15 17 34 15 17 33 16 17 33 16 18 32 16 18 33 17 17 33 18 17 31 18 16 31 18 16 31 17 16 30 17 15 29 17 15 29 16 15 28 15 14 29 68 55 77 70 55 80 74 62 86 19 23 47 45 93 121 89 109 138 67 58 85 45 40 65 93 78 101 28 21 44 21 21 37 16 18 33 15 17 32 14 16 30 13 16 28 
13 16 28 14 16 30 16 18 32 17 19 34 22 22 39 29 23 45 91 77 100 46 40 64 59 49 75 98 113 140 46 88 115 25 26 52 85 74 97 52 41 65 69 57 77 13 12 27 15 15 27 16 14 29 17 16 29 16 17 31 15 17 32 16 18 33 16 18 33 15 18 33 16 18 33 15 18 34 15 17 35 15 18 35 16 18 34 15 18 35 15 18 35 16 18 34 15 18 34 15 18 35 15 18 35 15 17 35 15 17 35 16 18 34 16 18 33 16 18 33 16 18 33 16 18 33 17 17 32 18 16 31 17 16 31 17 16 30 17 15 29 16 16 29 15 13 29 71 58 80 54 43 66 85 73 95 24 27 52 45 91 120 101 117 145 54 48 75 45 41 65 92 76 100 28 21 43 20 21 36 16 19 33 15 17 32 14 16 30 13 15 28 
13 16 28 14 17 30 15 17 32 17 19 34 22 23 39 28 22 44 90 75 99 47 42 65 45 38 64 105 116 144 49 90 117 35 34 61 86 75 98 42 36 58 70 59 79 13 11 27 15 14 28 16 15 29 15 16 30 15 17 32 15 17 32 16 18 33 16 18 33 15 18 33 16 18 34 16 18 33 16 18 33 16 18 33 16 18 34 15 18 35 15 18 35 16 18 34 15 18 34 15 18 35 15 18 35 16 18 34 16 18 33 16 18 34 15 18 35 16 18 34 16 18 33 16 18 33 16 18 33 18 17 32 18 16 31 17 16 29 17 16 29 16 16 29 15 13 29 71 59 80 42 36 58 87 76 98 33 33 59 49 94 122 105 118 146 40 37 63 45 42 66 91 75 99 28 21 42 20 22 36 16 18 33 15 17 32 14 16 29 13 15 28 
13 15 28 14 17 30 15 17 32 16 19 34 22 22 38 28 22 44 89 74 98 47 42 65 34 29 54 108 116 144 54 93 121 51 47 75 74 64 87 37 32 54 72 60 80 13 11 27 15 15 28 15 15 29 14 16 31 15 17 32 15 17 32 15 18 33 16 18 33 15 17 34 16 18 34 16 18 34 16 18 34 16 18 35 16 18 36 16 18 35 16 18 36 16 18 35 15 18 35 16 18 35 16 18 35 16 18 34 16 18 34 16 18 34 16 18 34 16 18 33 16 18 33 16 18 33 16 18 33 17 18 33 18 17 31 17 16 30 17 15 29 17 15 29 14 13 29 73 60 82 36 31 52 76 65 88 47 44 72 57 97 125 107 116 144 29 28 56 47 43 67 92 76 100 28 21 42 20 21 37 16 18 33 15 17 31 14 16 30 13 15 28 
13 15 28 14 16 30 15 17 32 16 18 34 21 21 39 28 22 44 90 76 100 47 42 64 25 23 50 108 114 141 67 100 128 65 59 88 62 55 77 36 31 52 71 59 80 13 11 27 15 15 28 14 15 29 14 16 31 15 17 32 16 17 33 16 18 33 16 18 33 16 17 34 16 17 35 16 17 35 16 18 36 16 18 36 16 18 36 16 19 36 16 19 36 16 19 36 16 18 36 16 18 36 16 19 36 16 18 36 16 18 36 16 18 35 16 18 33 16 18 33 16 18 33 16 18 33 16 18 33 16 18 33 16 17 32 17 16 30 17 15 29 16 15 29 14 13 29 72 60 81 35 29 51 64 55 78 61 55 83 72 105 132 105 113 140 23 24 52 47 43 67 91 75 99 27 21 42 20 21 36 16 18 33 14 16 31 13 16 30 13 15 28 
13 15 28 14 16 30 15 17 32 16 18 34 22 21 39 28 22 44 91 77 100 46 42 64 21 22 48 100 104 131 82 110 136 74 66 94 47 42 64 38 33 54 70 59 79 13 12 27 14 15 29 14 15 30 14 16 31 15 17 32 16 18 33 15 18 33 16 17 34 16 18 34 16 18 35 16 19 36 17 19 36 16 18 36 16 18 36 16 19 36 16 18 36 17 18 36 17 19 36 16 18 36 17 19 37 17 20 38 16 19 37 16 19 37 16 18 35 16 18 34 16 18 33 16 18 33 16 18 33 16 18 33 16 18 33 17 16 31 17 15 29 16 16 29 14 13 29 71 59 81 37 32 53 49 44 66 73 65 93 84 111 138 93 101 130 21 23 50 47 43 65 91 75 99 27 20 42 19 21 37 16 18 33 15 17 31 14 16 29 13 15 28 
13 16 28 14 17 30 16 18 33 17 19 34 22 22 39 28 22 44 90 76 99 45 41 63 23 24 49 76 84 115 84 102 132 88 77 105 31 30 52 40 36 57 70 59 78 13 12 27 15 16 29 14 16 30 14 17 31 15 17 32 15 18 33 16 18 33 16 18 34 16 18 35 16 18 36 17 20 37 14 19 35 14 23 37 15 25 39 15 24 39 16 24 40 14 24 38 15 24 39 15 25 39 14 21 36 12 15 30 14 18 31 13 17 33 16 19 36 16 18 35 16 18 34 16 18 33 16 18 33 16 18 33 16 18 33 17 17 31 17 16 29 15 16 29 14 13 29 71 58 80 38 34 55 34 35 55 89 79 106 83 102 134 70 84 116 23 26 51 45 42 64 90 75 98 27 20 42 20 21 36 16 18 33 14 17 31 14 16 29 12 15 28 
13 15 28 14 16 30 15 18 33 17 19 34 21 22 39 28 22 44 89 75 98 44 41 62 23 24 48 65 83 115 119 124 154 87 73 101 21 24 45 41 37 58 69 59 79 13 12 27 15 16 29 14 16 30 14 17 31 15 17 32 15 17 32 15 18 33 16 18 34 16 18 34 16 18 35 17 20 38 9 15 29 12 28 38 15 31 41 13 32 43 11 30 39 16 35 46 14 32 41 14 34 44 10 24 33 7 7 16 15 20 28 10 13 23 17 20 38 17 18 36 16 18 35 16 18 33 16 18 33 16 18 33 15 18 32 17 17 31 17 16 29 16 16 30 14 13 29 71 59 80 41 37 57 24 27 47 87 74 104 121 128 158 65 83 114 22 25 49 45 42 64 91 75 99 27 21 42 19 21 36 15 18 33 14 17 31 13 16 29 12 15 27 
12 15 28 14 16 30 15 17 32 16 19 34 21 22 39 27 21 44 90 76 99 44 41 62 23 24 49 60 79 110 153 157 183 81 68 95 15 20 40 42 37 58 70 59 79 13 12 28 14 16 29 14 16 30 14 16 31 15 17 32 16 18 33 15 18 34 15 18 34 16 17 35 16 17 35 18 21 39 10 14 28 3 2 16 2 3 16 14 6 27 20 10 38 2 5 17 7 12 29 0 0 12 32 19 55 23 17 47 5 8 22 16 17 34 17 19 37 17 18 36 16 18 35 16 18 33 16 18 33 16 17 33 15 17 32 16 17 31 17 15 30 16 16 30 14 13 29 72 60 80 42 37 58 18 21 43 84 71 100 150 158 184 58 78 109 23 25 49 46 41 64 92 76 100 27 21 42 20 21 36 16 18 33 15 17 31 14 16 29 13 15 28 
13 15 28 14 16 30 15 17 32 17 19 34 22 22 39 28 22 44 89 75 99 44 41 62 25 26 51 52 72 105 150 158 186 74 62 88 14 19 39 42 37 58 70 58 79 14 12 27 15 16 30 14 16 31 15 16 31 15 17 32 16 18 33 16 18 34 15 17 34 16 17 35 16 18 35 17 21 38 12 19 35 14 38 54 8 33 47 103 67 147 88 40 81 25 35 29 34 34 72 82 70 124 97 73 143 87 62 129 57 45 93 17 17 36 16 19 37 17 18 36 16 17 35 16 18 33 16 18 33 15 17 32 15 17 32 17 17 32 17 15 30 16 16 30 14 13 29 71 59 80 42 36 57 16 20 42 80 68 95 147 158 186 48 69 102 25 26 50 46 42 64 92 76 100 27 21 42 20 21 36 16 18 33 14 17 31 14 16 29 13 15 28 
12 15 28 14 16 30 15 17 32 17 19 34 21 22 39 28 22 45 89 76 99 44 41 63 25 26 51 52 72 105 132 143 171 65 51 78 17 20 41 41 36 58 69 58 78 13 12 27 15 16 29 14 16 31 15 17 31 15 17 32 15 18 32 15 17 34 15 17 35 16 18 35 16 19 36 17 21 38 11 19 36 33 126 145 38 149 160 172 122 248 187 110 106 74 82 51 54 99 157 84 128 178 83 122 172 87 117 173 75 100 146 12 17 32 18 20 38 17 18 36 16 17 35 16 18 34 16 18 33 16 18 33 15 18 32 16 17 32 17 16 30 16 16 30 14 13 29 71 58 80 41 36 57 18 22 42 70 58 87 131 143 174 49 69 101 25 27 51 45 42 64 91 76 99 27 21 42 20 22 36 16 18 33 15 17 32 13 16 29 13 15 28 
12 15 28 14 16 31 15 17 32 17 19 34 22 22 39 28 23 45 91 77 101 45 42 63 26 27 52 53 73 106 153 161 186 79 63 90 15 18 39 42 38 58 70 60 79 13 12 27 15 16 28 14 16 31 15 17 31 15 17 32 15 18 33 16 18 33 15 18 34 16 18 35 16 19 36 18 22 40 11 15 32 28 95 112 48 143 157 79 60 122 120 77 72 30 31 27 6 25 47 6 19 36 4 14 33 6 21 37 2 14 26 10 16 30 18 21 39 17 18 36 17 18 35 16 18 34 16 18 33 16 18 33 16 18 33 17 18 32 17 16 30 15 16 30 14 13 29 71 59 80 42 37 58 16 20 41 83 68 96 151 160 188 51 71 103 24 27 51 45 42 64 91 76 100 27 22 43 19 22 36 16 18 33 15 17 32 14 16 29 13 15 28 
12 15 28 14 16 31 15 17 32 17 19 35 22 22 39 29 23 45 91 78 101 45 42 64 24 25 51 64 82 113 151 155 181 84 66 95 19 20 40 43 38 59 70 60 79 14 12 27 15 16 29 14 16 30 15 17 31 15 17 32 16 18 33 16 18 33 16 18 34 16 18 35 17 19 36 16 19 36 17 27 43 79 122 128 69 96 107 17 42 52 4 38 57 36 93 113 36 87 100 46 113 128 27 68 84 37 91 105 33 80 92 7 7 21 19 22 40 17 18 35 16 19 36 16 18 34 16 18 33 16 18 33 16 18 33 17 18 32 17 16 30 16 16 30 14 12 29 71 58 79 43 37 58 21 22 43 85 69 98 145 152 178 61 80 111 23 26 50 46 42 65 92 76 101 27 22 43 20 22 37 16 18 33 15 17 31 14 16 29 13 15 28 
13 15 29 14 16 31 15 17 32 17 19 34 22 22 40 29 23 46 91 77 101 45 42 64 26 26 52 67 81 113 109 116 148 90 73 102 26 24 45 42 36 58 69 58 78 14 12 27 15 16 29 14 16 31 15 16 31 15 17 32 16 18 33 16 18 33 16 18 33 16 18 35 17 18 36 17 20 37 14 19 37 70 73 125 56 52 99 23 42 65 45 115 128 53 136 149 51 134 147 49 135 149 53 135 147 50 135 147 42 112 121 12 19 35 17 19 37 17 19 36 16 18 36 16 18 34 16 18 33 16 18 33 17 18 33 18 17 32 18 15 30 16 16 30 14 13 29 71 58 79 42 36 57 30 26 48 91 76 105 105 117 148 65 80 112 25 26 52 47 42 65 92 77 101 28 22 44 21 22 37 16 18 33 15 17 31 14 16 29 12 15 28 
12 15 29 14 16 31 15 17 32 17 18 34 22 22 40 29 24 46 91 77 101 47 43 65 27 27 54 74 84 116 77 101 131 91 78 106 37 32 54 40 35 56 71 59 79 13 12 27 15 16 29 15 16 30 15 16 31 15 17 32 15 18 33 16 18 33 16 18 33 16 18 33 16 18 35 17 20 37 13 17 35 11 8 24 11 11 26 9 13 26 9 12 26 6 7 22 7 9 24 7 9 23 6 9 24 6 8 22 8 8 22 14 18 34 17 19 37 17 19 35 17 19 34 17 19 34 17 19 33 17 19 34 17 18 33 18 16 32 18 16 31 16 16 30 14 13 29 72 59 80 40 34 55 42 35 58 90 79 107 83 109 139 77 86 117 25 26 53 47 43 65 93 77 101 28 22 44 22 22 38 17 19 34 15 17 32 13 16 29 12 15 28 
12 15 28 14 17 31 15 18 33 17 19 34 22 23 40 29 24 46 91 77 101 48 44 66 25 25 52 97 103 130 82 111 136 77 65 95 51 42 64 38 33 54 71 60 79 13 12 26 16 15 29 16 16 30 16 16 30 15 17 32 15 18 33 16 18 33 16 18 33 16 18 33 16 18 34 16 18 36 16 19 36 17 21 39 16 21 38 17 21 38 17 21 38 17 22 39 17 22 39 17 22 39 17 22 39 17 21 39 18 21 39 17 19 36 17 19 35 17 19 34 17 19 34 17 19 34 17 19 34 17 19 34 18 17 32 18 17 31 18 16 30 16 16 30 14 12 28 72 59 80 38 32 53 55 46 68 74 66 94 86 117 143 99 105 132 23 24 50 48 43 66 92 77 101 28 22 43 22 22 38 17 19 34 15 17 32 14 16 29 13 15 28 
13 15 29 14 16 31 15 17 32 17 19 34 22 23 39 29 23 45 91 77 101 49 44 66 29 28 55 105 114 141 67 103 129 65 56 84 64 54 76 37 33 53 71 60 79 13 12 26 16 15 28 17 16 29 16 17 30 15 17 32 15 18 33 16 18 33 16 18 33 16 18 33 16 18 33 16 18 34 16 18 35 16 18 35 16 19 36 16 19 36 16 18 36 16 19 36 16 20 36 16 19 36 16 19 36 16 19 36 16 19 35 16 19 35 16 19 34 17 19 34 17 19 34 17 19 34 17 18 34 18 17 33 18 17 32 18 17 31 17 16 29 17 16 30 14 12 29 72 60 81 36 30 51 69 57 80 61 56 83 70 107 134 106 113 141 27 26 51 49 44 67 93 77 101 28 22 43 22 22 37 17 19 34 15 17 32 14 16 29 13 15 28 
13 15 29 14 16 31 15 18 32 17 19 34 23 23 40 29 23 45 91 77 101 49 44 66 36 31 58 109 122 149 57 96 124 52 46 74 80 67 90 39 32 55 70 58 78 14 12 27 16 15 28 16 16 29 17 16 30 16 16 31 16 18 33 16 18 33 16 18 33 16 18 33 16 18 33 16 18 33 16 18 34 16 18 34 16 18 34 16 18 34 16 18 34 16 18 34 16 18 35 16 18 35 16 18 34 16 18 34 16 18 34 16 18 34 16 18 33 17 19 34 17 19 34 17 19 34 17 18 33 19 17 33 18 17 32 18 17 31 18 16 30 17 15 29 14 12 28 72 59 80 41 31 55 81 67 90 47 45 71 58 98 126 106 115 144 35 30 57 50 43 67 92 76 100 29 22 44 22 22 38 17 19 34 15 17 32 14 16 29 13 15 28 
13 15 30 14 17 31 15 17 32 17 19 35 23 22 40 29 23 45 91 77 101 50 44 68 46 38 66 105 117 147 53 94 122 38 36 63 90 76 99 45 35 59 72 59 79 14 12 26 16 15 28 16 15 29 17 16 30 17 16 30 17 17 31 16 18 33 16 18 33 16 18 33 16 18 33 16 18 33 16 18 33 16 18 33 16 18 33 16 18 34 16 18 33 16 18 33 16 18 33 16 18 33 16 18 33 16 18 33 16 18 33 16 18 33 16 18 33 16 18 33 17 18 34 17 18 33 18 17 33 18 17 32 18 17 32 18 16 30 18 16 30 17 15 28 14 12 28 71 58 79 49 36 61 90 76 99 34 34 59 53 95 122 106 117 145 46 38 66 49 42 66 92 76 100 29 22 44 23 22 38 17 19 34 15 17 32 14 16 29 13 15 28 
13 15 29 14 16 31 15 18 32 18 19 35 23 22 40 29 23 46 93 78 101 48 42 67 59 49 77 98 113 141 49 91 118 29 29 55 86 72 97 56 43 68 71 58 78 14 12 26 17 15 28 17 15 29 17 16 29 17 16 30 18 17 31 17 17 31 16 18 33 16 18 33 16 18 33 16 18 33 16 18 33 16 18 34 16 18 33 15 18 34 16 18 34 16 18 33 16 18 33 16 18 33 16 18 34 16 18 34 16 18 33 16 18 33 16 18 33 16 18 33 16 18 33 17 17 33 18 17 32 18 17 32 18 16 31 18 16 30 17 16 29 17 16 29 15 12 28 70 57 79 59 45 69 84 71 93 26 28 52 49 92 120 100 115 143 58 49 76 48 42 66 94 78 101 30 22 45 23 22 38 17 19 34 15 17 32 14 16 29 13 15 28 
13 16 29 14 16 31 16 18 33 18 19 35 24 23 39 30 24 46 93 78 102 47 40 65 71 60 87 88 108 136 48 91 118 21 24 50 78 66 90 71 57 81 68 56 76 15 13 27 17 15 28 17 15 29 17 16 29 17 16 30 17 16 30 18 17 31 17 17 31 16 18 32 16 18 33 16 18 33 16 18 33 15 18 33 15 18 33 16 18 33 15 18 33 15 18 33 15 18 33 15 18 33 15 18 33 15 18 33 15 18 33 16 18 33 16 18 33 16 18 33 17 18 32 18 18 32 18 17 31 18 16 31 18 16 30 17 16 29 17 16 29 17 15 28 15 13 29 69 55 77 76 60 84 73 62 84 20 23 48 47 92 120 88 107 135 70 59 86 48 40 65 94 78 101 30 23 45 23 22 38 17 19 34 15 17 32 14 16 29 13 15 28 
13 16 30 15 17 32 16 18 33 18 20 35 24 23 40 30 24 46 93 77 102 49 40 66 80 67 94 72 96 125 49 93 120 19 23 48 66 56 80 86 69 93 67 54 75 16 13 27 16 15 28 16 15 28 17 15 29 17 16 30 17 16 30 18 17 30 18 17 30 17 17 31 16 17 32 15 17 32 15 18 33 15 18 32 15 17 32 15 17 32 15 17 32 15 17 32 15 17 32 15 17 32 15 17 32 15 17 32 15 18 32 15 17 32 16 17 32 16 17 32 18 17 31 18 17 31 18 16 31 18 16 30 17 16 30 17 16 29 17 16 29 16 15 29 17 13 30 68 53 76 90 72 97 61 53 75 18 22 47 47 94 120 73 94 123 81 68 95 49 39 66 94 77 101 30 23 45 23 22 38 17 19 34 15 17 31 14 16 29 13 15 28 
13 15 30 15 17 32 16 18 33 19 19 34 24 23 40 31 24 47 93 78 102 54 43 70 87 74 101 59 85 114 50 94 121 19 24 48 49 43 66 97 78 103 68 54 75 16 13 28 16 15 28 17 15 29 17 15 29 17 15 29 17 16 30 18 16 30 18 16 31 18 17 31 16 17 32 15 17 32 15 17 31 15 17 32 15 17 32 15 17 32 15 17 32 15 17 32 15 17 32 15 17 32 15 17 32 15 17 32 15 17 32 15 16 31 16 16 31 16 17 31 17 16 30 18 16 30 17 16 30 17 16 30 17 16 29 17 15 29 17 15 28 16 15 28 17 13 30 71 56 79 100 79 105 46 39 61 18 23 47 48 95 121 58 83 112 91 76 103 54 42 69 94 78 102 30 23 45 24 22 39 19 18 35 15 17 32 14 16 29 13 15 27 
13 15 30 15 17 32 17 18 33 20 19 35 25 23 41 31 24 47 93 77 102 61 48 76 92 80 106 48 77 106 51 96 122 20 25 49 35 30 53 104 84 109 74 58 80 15 12 26 16 15 27 17 15 28 17 15 29 17 16 29 17 16 30 17 16 30 17 16 30 17 16 30 16 16 31 15 16 31 14 16 31 15 17 32 15 17 31 14 17 31 14 16 31 14 16 31 14 16 31 14 16 31 14 16 31 14 16 31 14 16 31 14 16 31 16 16 30 17 16 30 17 16 30 17 15 29 17 16 29 17 16 29 17 15 29 17 15 29 16 14 28 16 14 28 15 12 28 78 61 85 106 84 109 33 28 50 20 25 48 50 96 122 47 74 103 94 80 107 62 49 76 94 78 102 31 23 46 24 22 39 20 18 34 16 17 31 14 16 29 13 15 28 
13 15 30 15 17 32 18 18 33 21 20 36 25 24 41 32 25 48 92 76 101 71 57 83 89 78 104 40 72 101 51 97 124 21 27 50 26 23 46 101 81 106 82 65 86 14 11 25 16 15 27 16 14 28 17 15 28 17 16 29 17 16 30 17 16 30 17 16 30 17 16 29 15 16 30 14 16 31 14 16 31 14 16 31 14 17 31 14 16 31 14 16 31 14 16 31 14 16 31 14 16 31 14 16 30 14 16 30 14 16 31 14 16 30 16 16 29 17 15 29 17 15 29 17 16 29 17 16 29 17 15 29 16 15 29 16 14 28 16 15 27 16 15 28 14 10 27 88 69 93 103 81 106 27 23 45 21 26 49 51 97 123 38 69 97 88 77 103 73 58 84 93 76 100 32 23 46 24 22 39 20 19 34 17 17 31 15 16 29 14 15 28 
16 16 29 17 17 31 19 18 33 21 20 36 25 24 42 34 26 50 92 75 101 83 67 94 79 70 96 36 71 98 52 99 124 21 27 50 22 20 42 95 77 102 100 82 103 12 8 23 16 15 26 16 14 26 16 15 27 16 15 27 17 15 28 17 16 29 17 16 29 16 16 29 14 16 29 14 16 30 14 16 30 14 16 29 14 16 30 14 16 30 14 16 29 14 16 30 14 16 30 13 16 29 14 15 30 14 16 29 14 16 29 15 16 29 16 15 29 16 15 29 16 15 28 16 16 28 16 15 29 16 15 28 16 15 27 15 14 26 15 14 26 16 15 27 12 9 25 106 86 109 97 76 100 23 20 42 21 27 50 51 98 124 34 68 95 79 70 96 86 69 96 93 74 100 33 24 47 25 23 38 20 19 34 18 17 31 17 16 30 16 15 29 
17 15 30 18 17 31 19 18 34 23 20 37 27 24 43 36 27 51 91 74 100 96 78 105 64 60 86 34 70 98 52 98 125 21 26 50 24 22 44 85 66 93 100 82 103 4 0 16 18 15 30 16 14 29 16 14 29 16 13 29 15 12 29 14 12 28 14 13 28 13 13 29 12 13 29 11 13 28 11 14 28 10 13 28 10 13 28 10 12 27 10 13 27 10 13 28 10 13 28 10 13 27 10 13 28 10 13 28 11 14 28 12 14 29 13 13 29 14 13 29 14 13 28 14 13 29 15 12 29 16 13 30 17 14 30 17 14 30 18 14 30 19 16 32 6 1 19 103 84 108 89 65 94 24 21 43 20 26 50 50 99 124 34 69 96 67 61 87 100 81 108 92 72 99 35 25 48 25 22 39 21 18 35 18 17 31 17 17 30 16 15 29 
17 15 31 19 16 32 20 18 34 23 20 37 27 24 43 37 27 52 93 75 102 105 88 115 49 49 75 35 72 100 50 97 124 21 26 50 32 27 51 86 58 92 116 89 117 76 55 81 66 50 74 57 44 67 54 42 65 52 42 64 53 44 64 54 46 66 54 47 66 55 47 66 54 46 66 53 47 65 52 46 65 51 45 64 50 45 63 51 45 64 50 44 63 49 44 63 50 45 64 51 45 64 51 45 64 51 45 63 52 45 64 52 45 64 53 45 65 54 47 66 54 46 66 54 45 66 54 44 66 53 43 65 53 41 64 55 41 65 59 42 68 69 49 76 83 59 87 127 97 126 90 59 93 32 26 50 20 26 49 49 99 126 34 70 98 52 49 76 110 89 117 93 73 99 36 25 49 26 22 39 21 18 35 19 17 31 18 16 30 16 15 29 
17 15 30 19 16 33 21 18 35 23 20 37 27 25 44 38 27 52 97 78 105 111 94 121 35 38 64 37 77 105 50 99 125 20 27 49 26 25 45 70 50 80 121 98 125 124 104 128 117 97 121 113 95 118 104 87 110 95 78 101 84 70 93 72 60 83 64 54 76 58 50 71 55 49 70 56 51 71 57 51 72 58 52 73 60 54 74 60 55 74 59 53 73 58 52 73 60 54 74 60 54 74 59 54 74 59 53 74 59 53 74 57 51 72 55 48 70 57 49 71 60 51 74 65 53 77 74 60 83 86 70 94 98 79 104 108 87 112 117 96 120 119 97 122 127 104 130 125 99 127 68 50 79 25 25 46 19 27 49 49 101 128 36 73 101 37 37 63 115 96 123 97 76 103 38 25 49 26 22 40 21 18 35 20 17 32 18 16 30 17 15 29 
17 15 30 19 16 33 21 18 34 23 20 37 28 25 44 38 26 52 105 85 112 114 98 124 24 30 56 38 83 110 45 98 124 12 20 42 18 25 44 20 25 47 22 22 47 25 24 49 31 30 55 40 37 61 50 45 69 61 54 78 71 61 85 77 64 89 77 64 88 72 61 84 64 55 78 48 41 64 36 33 56 27 27 50 17 20 43 12 16 39 10 15 38 13 19 41 13 19 41 10 16 39 13 17 41 19 21 45 26 26 49 38 33 57 54 46 69 66 54 78 77 63 88 83 71 95 79 67 92 73 62 88 63 54 80 51 45 70 40 36 61 31 29 54 25 22 48 23 21 47 21 25 47 19 26 45 12 20 42 43 98 125 36 80 107 26 31 56 118 101 126 106 83 110 40 25 51 28 23 40 22 20 35 19 18 31 18 16 30 17 15 28 
17 15 29 19 16 32 21 18 34 24 20 37 31 24 45 39 25 53 117 93 121 106 91 116 17 26 49 36 91 119 57 135 161 32 79 106 39 84 111 41 83 110 43 84 110 44 82 109 43 80 107 41 79 105 40 77 104 41 75 102 43 75 103 49 79 107 56 85 113 68 94 122 79 101 129 87 105 133 97 113 140 102 116 141 99 110 137 99 109 135 96 103 130 76 86 116 77 86 116 98 105 131 105 113 139 104 114 141 99 113 140 95 111 138 88 109 136 78 102 130 65 93 122 56 88 116 49 82 110 44 78 106 41 77 104 41 77 103 42 78 105 43 80 107 44 82 108 44 83 110 41 83 110 40 84 112 33 78 106 55 132 160 35 90 118 19 25 49 109 93 118 117 91 118 42 25 51 30 23 42 23 20 35 20 18 32 18 16 30 17 15 28 
16 14 28 19 16 30 21 18 33 24 20 38 33 24 47 42 23 53 133 106 135 95 82 105 15 22 44 23 58 85 42 109 138 45 104 132 47 98 126 48 98 125 50 97 125 50 97 124 49 95 122 48 93 121 47 92 120 46 89 118 48 89 118 50 92 120 54 96 124 59 99 128 66 103 132 82 114 142 94 121 150 106 126 155 124 140 167 146 155 179 153 154 178 125 129 158 124 128 158 150 152 176 142 149 174 122 135 163 113 130 159 101 124 153 84 113 142 73 106 135 64 100 129 57 96 125 53 94 123 50 92 120 47 92 120 47 91 119 48 91 119 48 93 120 49 95 122 50 97 123 50 98 126 48 100 128 46 106 135 42 111 140 22 56 82 15 20 41 99 83 107 131 105 131 44 23 52 33 24 44 24 18 35 20 17 32 17 16 29 16 14 27 
16 14 28 18 16 30 21 17 32 26 19 38 36 24 47 47 23 55 141 114 143 81 70 92 15 19 38 24 31 51 21 31 56 20 31 56 20 29 54 21 28 54 24 29 55 28 32 58 36 38 63 46 46 73 58 55 81 69 64 90 80 73 98 87 78 104 93 82 109 95 84 111 93 81 108 84 72 100 76 65 93 66 56 86 54 47 77 42 40 70 33 33 64 32 35 64 32 35 64 31 33 64 38 37 67 49 45 74 62 54 83 72 61 89 83 69 97 91 75 104 96 80 108 97 82 109 91 77 105 84 74 100 74 68 94 63 59 85 50 48 75 38 39 64 30 32 57 25 28 54 22 26 52 20 26 52 20 30 55 20 29 54 21 27 47 13 16 35 86 72 94 141 113 141 49 24 55 35 24 45 25 18 35 20 17 31 17 15 28 16 14 27 
15 13 27 18 15 29 20 16 31 27 18 37 36 23 45 60 31 66 132 99 133 58 41 66 31 21 45 44 34 58 53 44 68 63 54 78 72 62 87 83 69 95 90 75 100 95 79 104 95 79 104 91 74 100 84 68 94 77 62 88 66 52 79 53 41 69 42 33 60 34 29 55 28 26 51 25 23 48 23 22 47 23 24 47 24 25 48 24 25 48 25 26 48 25 25 47 25 25 46 25 26 48 25 25 48 24 24 47 22 22 46 22 22 45 24 22 45 27 22 47 34 26 52 41 31 57 51 38 64 64 48 75 76 59 85 85 66 93 92 72 99 97 78 103 97 80 104 93 76 101 85 70 95 77 65 88 65 54 77 52 42 65 42 32 56 27 18 40 55 39 63 128 96 128 64 33 67 35 23 44 25 18 35 20 16 30 17 15 28 15 13 26 
14 12 25 16 14 27 19 15 30 25 17 34 34 22 42 53 26 58 120 87 119 133 102 131 145 117 144 156 131 155 151 125 150 144 117 143 135 109 136 125 100 126 113 90 116 104 82 109 97 77 103 92 73 99 89 71 97 87 70 96 88 72 97 89 73 98 89 74 98 89 76 98 90 76 99 90 75 99 90 75 98 89 75 97 89 75 97 89 74 97 88 73 96 88 73 96 88 74 96 88 74 96 88 73 96 89 74 97 89 75 97 89 75 97 91 75 98 91 75 98 91 75 98 90 74 97 90 73 97 89 71 96 89 70 96 91 71 96 93 72 98 98 75 102 105 81 107 113 88 114 123 97 124 136 109 134 144 115 141 151 124 149 157 134 156 145 120 145 129 103 129 120 89 118 60 29 63 33 22 41 24 17 34 19 15 29 16 14 27 15 13 26 
13 11 24 15 13 26 17 13 27 21 15 30 25 16 33 30 16 37 67 36 70 100 59 100 91 55 93 81 50 84 71 44 77 64 40 71 60 39 69 58 40 67 57 40 67 57 41 68 58 42 67 57 42 67 56 41 66 55 40 66 54 39 65 53 39 64 53 39 64 52 38 63 51 38 63 51 38 62 51 38 62 50 38 62 50 38 63 50 37 62 50 37 62 49 37 62 50 38 62 50 38 62 50 38 62 50 38 62 51 39 63 51 38 63 52 38 63 52 39 63 53 39 64 53 39 64 54 40 65 55 40 65 57 42 66 58 43 68 59 42 68 59 42 68 59 42 68 59 41 68 60 40 68 61 39 68 64 39 70 71 43 75 79 48 81 87 52 88 93 56 93 64 36 67 32 19 39 25 17 34 20 15 30 16 14 27 15 13 26 14 12 25 
12 11 23 13 11 24 15 12 25 15 12 25 15 12 25 22 15 31 35 20 43 41 23 49 41 25 50 40 26 51 38 25 50 36 25 49 34 25 48 31 24 46 30 23 45 28 22 43 27 22 42 26 21 41 26 20 41 25 20 40 24 20 40 24 20 40 23 19 39 23 19 38 23 19 38 22 19 38 22 19 38 22 19 38 22 19 38 21 19 37 21 19 37 21 19 38 22 19 38 22 19 38 22 19 38 22 19 38 22 19 38 22 19 38 23 19 38 23 19 38 24 19 38 25 19 39 25 20 40 25 20 40 26 21 40 26 21 41 27 21 41 28 21 42 29 22 43 30 23 44 31 23 45 33 24 47 36 25 49 38 26 50 41 26 51 42 25 51 40 23 49 34 21 43 23 16 32 16 13 26 16 13 26 15 13 26 14 12 25 13 11 23 
12 10 22 13 11 23 13 11 22 12 10 21 14 12 26 18 14 29 24 17 34 28 19 38 29 21 41 28 21 40 26 22 40 25 22 41 24 21 40 23 21 39 23 21 37 22 21 37 22 20 37 20 19 36 20 19 35 19 19 34 19 19 34 19 19 34 18 18 34 18 19 34 17 19 34 17 18 34 17 18 34 17 18 34 17 19 34 17 19 34 16 18 33 16 18 33 16 18 33 16 18 33 17 18 33 17 18 33 17 18 33 17 18 33 17 19 34 18 19 34 18 19 34 19 19 34 19 19 34 19 19 35 20 19 35 20 19 35 21 19 36 22 20 37 23 20 38 23 20 38 23 21 38 24 21 38 25 22 39 27 22 40 28 22 41 29 21 40 27 20 38 25 18 34 20 15 30 14 12 25 9 7 19 12 10 22 14 12 23 12 10 21 
11 9 20 11 9 20 11 9 19 13 11 24 14 12 25 16 14 27 19 16 30 22 17 33 22 19 34 22 19 35 21 19 36 21 19 36 20 19 35 19 19 35 18 19 34 18 19 34 17 18 33 16 18 32 15 17 32 15 17 31 15 17 31 15 17 31 14 17 31 14 17 30 14 17 30 14 17 31 14 16 30 14 17 30 14 17 30 15 17 30 14 16 30 14 16 30 14 17 30 14 16 30 14 16 30 14 16 30 14 17 30 14 17 30 14 17 30 14 16 31 14 17 31 14 17 31 14 17 31 15 17 31 15 17 32 15 18 32 16 18 32 17 18 33 18 18 34 20 18 34 20 18 34 21 19 35 21 18 35 22 18 35 22 19 36 22 19 34 21 18 32 20 17 31 15 13 27 21 19 32 73 73 82 17 16 25 10 8 19 11 9 20 
10 8 18 10 9 19 10 12 22 13 12 24 14 13 25 15 13 26 17 15 28 18 16 30 19 17 31 19 17 32 19 18 33 17 18 33 16 18 32 15 18 32 15 17 31 15 17 30 14 16 30 14 16 29 14 16 29 14 16 29 14 16 29 14 16 28 14 16 28 14 16 29 14 16 29 14 16 29 14 16 28 14 16 28 13 16 28 14 16 29 13 15 28 14 16 29 14 16 29 13 15 28 13 15 28 13 15 28 13 16 28 13 16 28 13 16 28 13 16 28 13 16 28 13 16 28 13 16 28 13 16 28 13 16 29 14 16 29 14 16 29 14 16 29 14 17 31 15 17 31 16 17 32 18 17 32 19 17 33 19 16 33 19 17 32 19 18 31 19 17 31 18 16 30 12 10 23 74 74 83 153 153 158 71 73 80 5 5 14 11 10 18 
8 9 18 9 11 22 9 12 22 11 12 24 13 12 25 14 13 26 15 13 26 16 15 28 17 16 29 18 16 30 17 16 30 15 17 30 14 16 29 15 17 30 14 17 29 14 16 29 14 16 29 14 16 29 14 16 29 13 15 28 13 15 28 13 15 28 13 15 28 13 15 28 13 15 28 13 15 28 13 15 28 13 15 28 13 15 28 13 15 28 13 15 28 13 15 28 13 15 28 13 15 28 13 15 28 13 15 27 13 15 28 13 15 28 13 15 27 13 14 27 13 15 27 13 15 27 13 15 28 13 15 28 13 15 28 13 15 28 13 15 28 13 15 28 14 16 29 14 16 29 14 16 29 14 16 29 16 17 30 17 16 30 17 16 30 17 16 30 17 15 29 17 15 28 14 13 26 20 19 31 73 73 82 15 18 27 7 10 19 8 9 17 
7 11 20 8 12 21 9 12 21 9 12 23 11 12 24 13 13 25 14 13 26 15 14 27 16 15 27 16 15 28 16 15 28 15 16 28 14 16 28 13 15 28 13 15 28 13 15 28 13 15 27 13 15 27 13 15 27 13 15 27 13 15 27 13 14 27 13 14 27 12 14 27 13 15 27 13 15 27 13 15 27 13 15 27 13 15 27 13 15 27 13 15 27 13 15 27 13 15 27 13 15 27 13 15 27 13 15 27 12 14 26 12 14 26 12 14 26 12 14 26 12 14 26 12 14 26 12 14 26 12 14 26 13 14 27 13 14 27 12 14 27 13 15 27 13 15 27 13 15 28 13 15 28 13 15 28 14 15 28 15 15 29 16 15 28 16 15 28 15 15 28 15 14 27 14 14 26 12 11 24 7 8 19 7 11 20 8 11 20 7 10 19 
7 11 20 8 11 20 8 12 21 9 12 21 9 12 23 11 12 24 13 13 24 14 13 24 14 13 25 14 14 26 14 15 26 14 14 26 13 15 27 12 14 26 12 14 26 12 14 26 12 14 26 12 14 26 12 14 26 12 14 26 12 14 26 12 14 26 12 14 26 12 14 26 12 14 26 12 14 26 12 14 26 12 15 26 13 15 26 12 15 26 12 14 26 12 15 26 12 15 26 12 15 26 12 15 26 12 14 26 12 14 25 12 14 26 12 14 25 12 14 26 12 14 25 12 14 25 11 13 25 12 14 26 12 13 26 11 13 25 11 13 25 12 14 26 12 14 26 12 14 26 12 14 27 12 14 26 12 14 26 13 14 26 14 14 26 14 14 26 14 14 25 13 13 25 13 12 23 12 12 23 10 13 22 8 12 20 7 10 19 7 10 18 
