P3
64 64
255
8 9 11 11 14 17 28 34 42 29 35 44 28 33 41 28 34 42 28 34 42 28 34 42 28 34 42 28 34 42 29 35 44 14 17 21 27 34 41 47 59 71 42 54 65 44 56 68 44 56 68 45 57 68 45 57 69 45 57 69 45 57 69 45 57 69 46 57 69 46 58 69 45 57 69 45 57 69 45 57 68 45 57 68 45 57 68 45 57 69 45 57 69 45 57 68 45 57 68 45 57 69 45 57 69 45 57 69 45 57 69 45 58 69 46 58 70 46 58 70 46 58 69 45 57 69 46 57 69 46 57 69 45 57 69 45 57 68 45 57 68 45 56 67 44 56 67 42 53 65 46 58 70 27 33 39 13 16 20 28 35 43 27 33 41 27 33 41 27 33 41 27 33 41 27 33 41 27 32 39 28 34 42 28 33 40 11 13 16 7 8 10 
21 25 31 12 13 17 8 9 11 24 28 35 30 36 44 28 33 41 28 33 41 28 34 42 28 34 42 28 34 42 28 34 42 28 34 43 13 16 20 35 40 45 65 70 74 69 73 76 72 77 80 72 76 79 71 76 79 71 76 79 71 76 79 70 75 78 70 75 78 70 75 78 70 75 78 69 74 77 69 74 77 69 74 77 68 74 77 68 73 77 68 73 76 68 73 76 68 74 77 69 74 77 69 74 77 69 74 77 69 74 77 69 74 77 69 74 77 70 75 78 70 75 78 70 75 78 70 75 79 71 76 79 72 76 79 72 77 79 72 76 79 73 77 80 71 76 78 70 75 78 37 42 45 12 15 19 27 34 42 27 33 41 27 33 41 27 33 41 27 33 41 27 33 40 27 33 39 29 35 43 23 27 34 7 9 11 11 13 16 20 23 29 
20 24 30 22 25 32 16 18 24 6 7 9 16 20 24 29 35 44 29 34 42 28 33 41 28 34 42 28 34 42 28 34 42 29 35 43 27 34 43 30 31 31 181 177 161 234 233 219 227 222 204 229 225 207 229 224 206 229 224 206 229 224 206 229 224 206 228 224 206 228 224 205 228 224 205 228 224 205 228 223 205 227 223 205 228 224 205 227 223 205 227 223 205 227 224 205 227 223 205 227 223 205 227 223 205 227 224 205 227 223 205 227 223 205 227 223 205 227 223 205 227 223 205 227 223 205 227 223 205 228 224 205 228 224 205 228 224 205 229 224 206 227 222 204 234 233 218 185 181 163 31 32 32 27 33 42 28 34 42 27 33 41 27 33 41 27 33 41 27 32 40 28 34 41 29 35 43 16 19 24 6 7 8 15 18 23 21 24 31 19 22 28 
20 23 30 20 23 29 21 24 31 20 23 30 8 10 13 10 12 14 25 31 39 29 36 44 27 33 41 28 33 41 27 34 41 27 33 41 28 34 42 32 38 46 83 82 80 229 226 209 255 255 240 255 253 233 255 254 234 255 254 234 255 255 234 255 255 234 255 255 234 255 255 234 255 255 233 255 255 234 255 255 234 255 255 234 255 255 234 255 255 234 255 255 234 255 255 234 255 255 234 255 255 234 255 255 234 255 255 234 255 255 234 255 255 234 255 255 234 255 255 234 255 255 234 255 255 234 255 255 234 255 255 233 255 254 233 255 255 234 255 253 232 255 255 239 229 227 210 83 83 81 32 39 47 28 34 42 26 33 40 27 33 40 27 33 40 26 32 40 28 35 44 25 31 39 10 12 15 8 9 12 19 22 28 20 23 30 19 22 28 20 23 29 
20 24 30 20 24 30 20 24 30 20 23 29 21 25 32 15 17 22 7 9 11 20 24 30 30 37 46 29 37 45 29 37 46 30 37 47 29 37 46 31 38 48 35 42 51 56 57 56 99 99 96 110 112 110 108 110 108 107 110 107 107 109 107 108 110 108 108 110 108 107 110 108 107 109 107 107 109 107 107 109 107 107 110 108 108 110 108 107 109 108 107 109 107 108 110 108 108 110 108 107 110 108 107 109 108 107 109 108 107 110 107 107 110 107 107 109 107 108 110 108 109 111 108 109 111 109 109 111 109 108 110 108 108 110 108 107 109 107 110 113 111 98 99 96 55 56 54 36 43 52 31 38 46 29 36 44 29 36 44 29 36 44 28 35 44 29 36 45 19 24 30 7 8 10 17 21 26 22 26 33 19 22 28 19 23 28 19 23 29 20 23 29 
20 24 30 20 24 30 20 24 30 20 24 30 18 21 26 17 21 26 23 29 36 7 9 12 11 14 17 16 21 26 14 18 23 13 16 21 14 17 22 13 16 20 14 17 22 10 12 17 5 6 8 26 31 38 26 31 37 26 31 37 26 32 38 26 32 38 26 32 38 26 32 38 26 32 38 26 32 38 26 32 38 26 32 38 25 32 38 26 32 38 27 33 39 27 33 39 27 33 39 27 33 39 27 33 40 27 34 40 27 33 39 27 34 39 27 33 39 27 33 39 27 34 39 27 34 40 27 33 39 27 33 38 27 33 38 28 35 41 29 36 43 6 9 10 10 13 17 15 19 23 13 17 21 14 19 23 14 18 22 14 18 23 16 20 25 10 13 16 6 8 9 22 27 34 18 24 29 18 23 29 19 23 29 19 23 29 19 23 29 20 23 29 
21 25 31 20 25 31 20 24 29 21 25 32 14 16 21 12 16 19 24 31 38 12 16 19 20 23 28 17 18 23 23 38 42 49 80 87 44 74 80 48 80 86 48 79 85 49 81 87 48 80 86 49 83 89 53 90 96 52 87 96 49 83 94 53 88 96 54 90 99 54 90 100 54 91 100 54 91 100 57 94 104 58 96 105 58 96 106 58 96 106 58 97 106 59 98 107 58 97 106 57 96 106 57 96 105 57 95 104 56 95 104 56 94 103 55 93 102 54 92 100 54 91 100 55 91 100 54 90 98 53 88 98 54 88 95 46 76 80 44 73 78 49 79 86 51 82 89 48 78 84 42 69 75 40 63 69 45 70 77 20 31 34 20 21 26 20 23 29 11 14 17 23 30 36 13 17 21 15 19 24 20 24 30 19 22 28 19 24 30 20 24 30 
15 18 23 18 20 26 20 24 31 21 26 32 18 21 27 15 19 24 25 32 40 10 13 16 31 36 44 23 26 32 34 42 52 53 108 109 50 78 85 49 59 73 50 64 76 50 63 74 52 66 78 68 92 104 72 96 112 58 68 66 78 84 68 87 93 83 89 95 82 90 96 84 90 96 84 87 94 80 91 98 86 93 101 90 92 99 87 90 98 85 91 99 87 91 99 88 91 98 86 89 97 86 89 97 87 88 96 85 87 94 83 89 96 85 91 98 88 88 96 85 87 94 83 93 99 89 94 100 91 81 89 75 60 71 72 60 75 90 53 63 75 57 73 86 62 85 98 62 84 98 49 59 73 50 91 97 44 76 83 37 42 52 21 25 31 31 35 44 10 12 15 25 31 39 15 19 24 21 27 33 21 26 32 19 22 28 17 19 24 15 17 22 
36 48 55 25 34 39 16 20 25 14 16 22 19 23 30 25 33 41 26 33 41 12 16 20 21 24 30 21 26 31 42 52 63 33 55 60 42 57 66 43 53 64 45 56 66 45 57 67 59 78 89 68 93 106 43 53 60 174 169 32 239 237 115 235 231 154 237 232 143 238 234 153 238 235 153 237 234 146 237 233 148 237 233 149 236 232 146 236 233 148 236 232 148 236 232 146 236 232 145 237 233 147 237 233 149 236 232 148 236 231 146 236 232 145 237 233 147 237 233 152 236 232 148 238 233 146 236 232 158 236 234 117 174 170 34 44 54 61 54 68 80 49 63 73 55 74 86 57 77 90 53 71 82 40 62 69 37 54 62 47 59 70 22 28 34 21 23 29 11 15 18 25 32 40 25 32 40 23 29 36 16 19 25 14 18 22 24 32 37 34 46 53 
39 46 57 45 56 67 44 60 68 34 48 53 21 30 35 17 23 28 23 29 37 14 18 22 19 21 26 22 26 32 38 44 54 37 39 50 37 41 52 37 42 52 38 44 53 40 46 56 44 51 61 45 55 67 36 38 35 213 211 47 255 255 134 254 253 177 255 255 177 255 255 179 255 255 170 255 255 177 255 255 177 255 255 170 255 255 174 255 255 181 255 255 178 255 255 170 255 255 175 255 255 177 255 255 176 255 255 176 255 255 182 255 255 177 255 255 169 255 255 178 255 255 185 255 255 174 254 253 175 255 255 145 213 211 49 35 37 33 45 54 67 42 49 59 41 47 58 40 45 57 40 47 57 40 45 55 39 44 55 40 46 58 23 28 34 17 21 25 13 17 20 22 28 36 17 22 27 22 31 36 33 47 53 42 57 64 43 53 63 39 45 56 
36 41 51 35 39 50 38 43 54 46 56 67 49 68 77 45 65 72 30 42 48 7 10 12 30 34 41 16 20 24 35 48 56 36 49 56 36 49 55 36 49 55 35 48 55 36 49 57 32 44 50 34 38 45 45 50 64 81 78 30 233 231 101 253 251 175 250 249 162 250 249 156 252 250 164 252 250 162 251 249 159 251 249 159 251 248 160 251 249 160 252 249 162 251 248 159 251 249 161 251 249 162 251 249 160 251 249 159 251 248 159 251 249 160 252 249 164 251 248 161 250 248 155 250 248 163 252 250 172 230 229 104 79 78 29 47 52 67 36 39 48 33 43 50 37 48 56 37 47 54 36 47 53 35 46 53 35 46 53 34 46 52 16 18 22 28 33 40 7 9 12 28 39 45 40 60 67 48 69 78 45 57 67 37 41 51 34 38 48 35 40 51 
37 42 53 38 43 53 37 42 53 36 40 51 31 33 44 34 46 53 49 70 79 11 15 18 17 19 24 28 32 39 30 40 47 47 59 70 44 55 65 45 56 67 45 57 67 45 56 66 48 67 76 41 62 67 43 48 58 51 54 62 82 81 55 104 103 73 98 97 66 100 97 67 104 102 72 102 101 67 100 99 66 103 101 70 102 99 69 98 97 65 102 101 70 102 101 71 100 98 70 98 97 67 99 97 67 102 100 70 98 96 65 99 97 68 103 101 73 100 99 70 98 97 66 98 96 69 104 102 75 83 82 54 58 62 67 49 54 64 42 61 68 48 67 76 45 55 65 45 57 67 45 56 66 43 54 64 46 58 68 30 39 45 26 30 37 16 18 23 10 12 15 48 67 76 34 47 53 36 44 54 39 46 56 35 40 50 36 42 52 36 41 52 
38 42 53 38 42 53 37 43 54 37 43 53 38 45 56 38 47 56 46 63 72 18 23 28 5 5 7 14 15 19 9 8 11 20 22 28 18 20 25 19 19 25 19 19 25 19 20 25 22 23 29 25 39 42 18 22 25 44 44 37 52 51 39 48 46 35 50 48 37 51 49 38 48 46 35 49 47 36 49 48 37 49 47 36 49 48 37 49 48 37 49 48 37 50 49 38 49 48 36 48 47 36 50 49 37 50 49 38 52 49 38 46 46 36 46 46 36 54 52 39 52 50 39 53 50 39 52 50 37 58 56 43 54 53 41 21 23 25 24 37 41 22 23 28 18 20 25 18 19 25 18 19 24 18 19 24 19 20 26 8 7 10 13 14 18 6 6 8 17 21 25 44 61 69 37 46 56 43 54 65 41 51 61 36 41 51 37 42 52 37 42 52 
38 42 53 38 43 54 37 43 54 37 42 53 41 48 59 47 60 71 49 69 78 17 22 27 11 12 16 6 8 9 14 18 23 9 11 15 12 12 17 17 24 28 30 64 68 33 70 74 11 9 14 14 15 20 26 26 24 48 45 25 57 52 26 58 53 28 57 53 28 53 49 24 60 59 35 75 76 56 70 68 49 71 70 51 71 70 50 70 69 49 76 78 60 62 65 44 64 68 45 77 80 61 70 69 49 73 71 51 67 69 50 96 79 50 99 86 58 57 58 32 59 53 27 60 56 29 60 55 29 59 55 28 51 44 22 48 88 85 27 56 60 14 16 20 15 17 21 15 17 21 14 17 21 13 15 20 10 11 15 16 18 23 7 8 10 11 13 16 17 21 25 49 66 75 46 58 70 43 55 66 42 53 64 37 43 52 37 42 52 37 42 53 
38 43 54 38 43 54 38 43 54 38 42 53 42 51 62 46 59 69 50 70 79 17 22 27 10 12 15 11 13 17 13 16 20 21 28 32 17 19 24 26 35 42 45 91 99 46 96 104 20 17 25 28 32 38 41 43 37 60 60 40 66 66 43 65 65 43 67 68 45 68 67 43 72 74 53 95 98 82 89 90 73 90 92 75 91 93 75 90 90 73 99 104 88 81 89 69 80 89 68 99 105 88 90 91 72 94 94 75 82 90 74 140 111 76 139 117 85 69 74 51 76 72 44 77 75 48 76 73 46 76 74 46 69 62 36 75 127 119 47 91 96 24 27 35 24 26 33 24 27 34 22 26 33 18 22 27 20 25 29 13 15 20 12 14 17 10 12 15 16 20 25 49 67 76 45 57 68 43 55 65 43 55 66 38 44 54 37 42 52 37 42 53 
38 43 54 38 43 54 38 43 54 38 43 54 43 53 64 47 59 70 51 71 81 17 22 26 11 13 16 7 8 11 17 21 25 41 54 62 16 20 23 21 28 34 43 86 94 44 92 99 19 16 23 29 33 36 66 58 39 94 76 44 95 78 45 98 82 48 87 78 48 68 67 44 69 69 47 93 95 78 88 88 69 89 90 71 89 90 72 88 88 69 97 101 84 80 87 66 79 86 65 98 101 84 89 89 69 92 92 71 83 88 71 136 107 72 133 112 81 69 74 50 76 75 47 77 75 48 76 74 47 76 74 47 72 66 38 85 128 114 51 89 92 21 23 30 22 25 31 22 26 32 19 21 28 14 18 21 38 48 56 18 22 26 8 9 11 11 13 16 16 19 24 50 69 78 45 59 69 43 55 65 44 55 67 39 45 56 37 41 52 37 42 53 
38 43 54 38 43 54 37 43 54 39 45 55 45 55 66 47 59 70 52 73 82 17 22 26 10 11 14 11 12 15 16 18 23 18 22 26 12 12 16 25 33 40 42 84 91 44 90 98 21 18 24 34 38 37 95 75 47 139 100 56 135 99 55 140 102 57 117 93 57 61 58 34 81 84 62 95 98 80 89 89 70 91 91 73 91 91 73 89 89 70 99 102 85 81 87 67 80 87 66 99 103 85 90 90 70 94 93 73 84 89 72 138 108 74 136 114 83 69 75 52 94 139 116 79 78 51 77 75 47 77 76 49 73 67 39 94 140 123 58 94 92 25 36 43 21 22 28 22 25 32 23 25 32 13 14 19 18 22 26 16 19 24 11 12 16 11 12 15 16 19 24 51 71 80 46 59 70 44 54 65 45 56 67 39 47 57 37 41 52 37 42 53 
38 43 54 38 43 54 37 42 53 40 46 57 45 56 67 48 59 70 53 75 84 17 21 26 10 11 15 11 12 15 22 25 32 17 19 25 21 25 32 30 48 54 41 82 89 46 97 103 23 18 24 49 49 41 63 64 45 63 67 44 64 68 45 64 67 45 58 58 34 82 86 63 97 102 85 90 90 72 90 91 73 91 91 73 91 91 73 89 89 70 98 102 85 81 88 68 80 88 67 99 103 85 90 90 70 93 93 73 84 89 73 137 108 74 134 114 84 71 77 54 94 149 129 78 78 51 77 75 47 76 76 49 74 69 42 81 102 80 83 142 135 45 72 76 27 41 48 22 25 32 22 26 33 22 26 33 18 21 26 22 25 33 11 13 17 10 12 15 17 20 24 51 72 81 46 59 70 43 54 65 45 56 67 40 49 59 37 41 52 38 43 54 
37 43 54 38 43 54 37 42 53 41 49 59 45 57 67 48 61 71 54 76 85 16 21 25 10 12 15 10 13 16 22 25 32 22 25 32 32 53 59 29 54 60 60 128 133 31 50 57 32 33 36 58 60 48 70 69 46 73 72 48 72 70 47 65 62 38 84 88 67 95 100 83 88 89 71 89 90 72 89 90 72 89 91 73 90 92 75 89 91 73 98 103 89 79 88 69 78 88 67 98 104 88 89 90 73 92 92 74 81 88 72 136 107 73 135 114 83 67 75 55 78 89 68 76 77 51 74 75 47 74 74 47 75 75 49 72 65 38 79 106 91 76 141 141 36 63 68 31 51 57 31 53 58 28 49 54 29 50 55 31 54 60 14 23 26 10 11 13 17 21 25 52 74 83 46 60 71 43 55 65 44 57 67 41 51 61 37 42 52 38 43 53 
37 42 53 37 43 54 37 42 53 42 51 62 45 57 68 48 61 72 55 77 86 16 21 25 10 12 15 11 13 16 21 23 30 25 34 41 30 50 56 54 117 123 33 57 64 24 23 31 43 50 50 64 66 51 71 72 52 67 66 45 62 61 39 86 92 74 92 96 80 85 86 69 88 89 74 90 92 77 92 96 80 93 98 83 94 100 86 93 98 83 102 111 98 76 84 67 76 84 66 102 112 98 93 98 83 95 100 85 88 96 82 116 105 82 116 109 86 66 71 52 75 73 52 76 78 57 75 76 54 73 73 50 72 72 47 74 75 49 66 59 37 59 90 86 64 130 136 58 117 121 56 119 123 55 116 122 53 112 118 57 120 125 25 52 54 8 7 9 17 21 25 53 75 85 47 61 72 43 55 65 44 56 67 42 52 62 37 42 52 37 42 53 
37 42 53 38 43 54 38 42 53 43 54 64 46 57 68 49 61 72 56 77 87 16 21 25 10 12 15 11 12 16 21 23 30 24 30 38 32 57 63 59 117 124 25 27 36 33 40 47 48 53 48 68 69 54 66 66 49 62 63 44 87 93 78 91 96 82 86 90 75 90 94 81 92 97 84 93 99 86 93 100 85 93 99 86 91 93 79 91 96 81 98 106 94 81 102 84 81 99 83 99 107 95 91 96 82 90 93 79 93 100 86 90 97 85 95 105 93 74 78 58 69 70 50 76 78 60 74 76 58 74 76 58 73 74 54 71 70 49 70 70 49 52 48 37 34 47 51 32 51 58 30 49 56 30 49 56 28 45 52 29 46 53 14 22 25 11 11 14 17 20 24 53 75 85 47 61 73 43 54 65 45 56 67 43 53 63 37 42 53 37 42 53 
37 43 54 38 43 54 38 43 54 45 55 66 46 56 67 49 62 73 57 79 87 16 21 25 10 11 15 11 12 16 21 23 30 24 32 38 32 56 63 55 113 120 29 37 47 36 42 46 56 60 53 60 61 45 64 65 48 88 94 81 88 93 79 87 92 77 90 96 83 91 98 85 92 98 85 91 98 84 91 97 84 90 101 89 105 161 153 92 114 103 103 146 138 87 130 117 86 124 111 103 144 135 92 113 103 106 162 154 91 102 90 92 97 84 94 100 87 97 108 95 68 71 53 67 66 49 75 76 61 73 74 57 73 75 58 72 73 56 70 70 50 61 61 46 37 38 38 24 26 32 23 25 32 22 25 31 22 25 31 22 23 30 10 10 14 11 12 16 17 20 24 53 76 86 48 62 73 44 54 65 44 56 67 43 54 64 37 42 53 37 42 53 
38 43 54 38 43 54 39 45 56 46 57 68 45 56 67 49 63 74 57 80 89 16 21 25 10 12 15 11 13 16 21 24 30 24 32 38 32 56 63 56 116 122 29 39 47 41 47 49 52 55 43 65 68 52 87 94 82 85 90 77 85 91 78 90 95 85 90 96 86 90 96 85 90 96 85 90 96 86 90 95 85 90 103 93 101 161 153 109 174 165 100 153 149 56 53 32 57 53 31 99 151 146 108 170 162 104 160 153 91 104 92 91 98 85 91 98 85 92 98 86 97 107 95 71 76 58 64 64 46 73 75 60 71 72 57 71 73 57 71 73 57 65 67 51 45 47 42 28 33 39 24 30 37 23 30 36 23 30 36 24 30 37 11 13 17 11 12 16 16 20 24 53 77 87 48 62 74 43 54 65 44 56 67 43 55 65 37 43 54 38 42 53 
38 44 55 38 43 54 40 47 57 46 57 68 45 56 66 50 64 74 57 80 89 16 20 25 10 12 15 11 13 16 22 24 31 24 31 38 33 59 66 58 119 125 32 42 49 42 46 43 65 70 57 87 93 82 82 88 76 83 89 78 88 94 85 88 94 86 88 94 85 88 94 85 88 94 85 88 94 85 89 96 87 86 87 77 96 131 122 93 148 145 88 68 42 91 69 39 91 70 39 90 70 44 92 147 143 96 133 123 88 88 77 90 98 88 90 96 86 90 96 86 90 96 86 96 106 96 75 82 66 61 61 44 71 72 58 69 72 56 68 72 56 68 70 55 53 55 47 31 35 38 24 31 36 23 30 36 23 29 35 24 31 37 11 15 18 11 13 16 17 20 24 54 78 88 48 63 74 44 55 65 44 56 67 44 55 66 38 44 54 38 43 53 
39 44 55 38 43 54 41 48 59 46 58 69 45 56 66 51 64 75 58 81 90 16 20 24 11 13 15 11 13 16 23 24 31 25 32 38 35 63 70 58 118 125 36 45 51 45 48 42 77 85 76 83 89 78 81 86 75 86 91 83 86 92 85 86 92 84 86 92 84 87 92 84 87 92 84 87 94 85 84 87 78 99 134 126 92 148 145 70 50 28 135 107 77 79 90 78 78 87 76 139 110 81 74 52 29 95 150 146 99 135 127 86 89 81 88 96 88 88 95 86 88 95 86 87 93 84 94 103 95 77 84 71 58 59 43 68 70 57 68 71 58 67 69 56 59 62 53 37 42 43 25 30 37 24 30 36 23 28 35 24 31 37 12 15 18 11 12 16 17 19 24 54 78 88 48 64 74 44 54 65 45 56 67 44 55 66 38 44 55 37 42 53 
39 44 55 38 43 54 42 50 61 47 58 69 45 55 66 51 65 76 58 81 90 16 20 24 11 12 16 11 13 16 23 23 31 25 33 40 36 63 71 58 119 126 40 48 52 49 52 43 74 82 72 81 87 77 82 87 79 85 90 83 85 90 82 85 90 82 85 90 82 85 90 82 86 91 83 85 88 80 87 102 94 97 157 154 78 61 38 127 96 65 96 108 105 70 78 68 69 76 65 95 108 106 133 103 71 78 61 39 98 159 156 90 105 97 86 90 82 86 93 85 86 93 85 87 92 85 85 90 83 91 99 92 79 86 75 58 60 46 59 61 48 59 61 46 54 57 45 38 43 39 24 28 32 21 25 31 19 25 29 21 26 31 11 13 16 12 13 17 16 19 23 54 79 89 48 64 75 43 54 65 44 56 67 44 56 66 38 45 55 37 42 53 
39 44 55 38 43 54 43 51 62 47 58 69 45 55 66 51 65 76 57 81 90 16 20 24 11 12 16 11 13 16 22 24 31 25 35 42 36 65 72 61 121 127 45 53 53 49 53 44 72 81 72 81 86 78 82 88 81 82 89 81 83 89 81 82 89 81 82 88 81 83 89 81 83 90 82 82 85 78 90 108 102 85 136 136 103 67 37 113 108 95 86 99 97 70 78 68 67 74 65 86 99 97 108 107 96 103 68 39 87 139 138 91 111 103 83 88 79 84 92 85 84 91 84 84 91 84 84 91 84 83 90 82 87 95 88 84 92 84 79 86 78 77 83 73 75 81 72 65 72 69 49 57 63 43 49 58 41 47 56 43 50 60 20 23 28 11 13 16 17 19 23 54 80 89 48 65 76 43 54 65 44 56 67 44 56 66 38 45 55 37 41 52 
38 44 55 38 43 54 43 53 63 46 58 69 45 55 66 51 66 76 58 82 91 16 20 24 11 13 16 11 13 16 22 25 31 26 37 43 38 67 74 63 123 128 48 57 54 48 53 44 69 79 72 80 88 82 79 87 81 79 88 81 80 88 81 79 87 81 79 87 81 79 88 81 79 88 82 79 84 79 87 105 100 86 141 140 100 68 40 108 100 88 86 99 100 67 76 69 65 72 65 84 98 98 105 101 90 98 67 41 87 142 141 88 109 103 80 85 79 80 89 84 80 89 83 80 89 83 81 89 83 81 89 83 81 88 82 82 90 84 81 90 83 76 83 75 75 81 74 70 76 72 54 63 67 44 50 60 42 47 59 46 50 63 21 24 29 10 14 16 17 20 24 54 80 90 49 66 77 43 54 65 44 57 67 44 56 67 39 45 56 37 41 52 
38 44 55 38 43 55 43 53 64 46 58 68 44 55 65 51 66 77 58 82 91 16 20 24 11 13 16 11 13 16 21 24 31 25 37 43 39 67 74 66 125 128 50 59 56 47 50 44 68 78 74 79 88 84 77 85 81 78 85 82 78 85 82 78 85 82 78 86 82 78 85 82 78 86 83 77 82 79 86 104 100 84 139 139 101 68 41 112 109 101 82 96 99 66 74 68 62 70 64 81 95 98 104 100 90 97 66 39 85 141 140 86 107 103 78 83 79 79 87 84 79 87 83 78 87 83 79 87 83 79 87 83 79 87 83 79 87 83 79 88 83 75 83 77 73 79 73 69 77 72 58 67 68 45 52 61 42 47 57 45 50 62 21 24 29 10 14 17 17 20 24 55 81 91 49 66 77 43 54 64 44 56 67 44 56 67 39 45 56 38 42 53 
38 44 55 38 44 55 44 54 65 46 58 68 45 55 66 52 67 78 58 82 91 15 19 24 11 14 17 10 11 14 24 30 37 34 55 62 42 77 84 72 134 137 47 51 50 41 47 43 68 79 75 78 86 84 75 83 80 76 83 81 76 84 81 76 84 81 76 84 81 76 83 81 76 84 82 75 80 78 84 103 100 82 137 139 100 65 40 121 125 119 91 114 120 65 74 69 62 71 67 80 94 99 102 97 89 97 65 39 83 139 140 85 105 103 76 81 79 77 86 83 77 85 83 77 84 82 77 84 82 78 85 83 78 85 82 78 85 82 78 85 84 76 83 80 71 78 73 69 77 72 62 70 70 48 54 63 42 47 57 45 50 62 21 24 29 11 14 18 17 19 24 55 80 90 50 67 78 44 54 65 44 56 67 44 56 67 39 46 56 38 42 53 
38 43 54 39 44 55 44 55 65 46 58 68 45 55 66 52 67 79 58 82 91 15 20 24 11 13 17 12 16 19 36 58 65 41 73 81 68 136 142 45 65 67 52 53 50 55 53 45 65 77 75 75 84 83 73 81 80 74 82 81 74 82 80 74 82 80 74 81 80 74 81 80 73 82 81 72 78 77 81 100 99 79 134 137 99 64 40 119 122 116 95 122 130 64 74 72 63 73 71 91 115 123 104 102 96 95 63 39 82 137 140 83 103 102 74 80 78 74 84 83 74 83 82 75 83 82 75 83 82 75 84 82 75 84 82 75 84 82 75 84 82 73 82 80 69 77 73 68 76 73 64 71 71 51 58 64 42 47 57 45 50 62 21 23 29 11 14 18 17 20 24 56 80 90 50 67 79 44 54 65 45 56 67 44 56 67 39 46 56 38 42 53 
38 43 54 39 45 56 45 56 66 46 57 68 45 55 66 52 68 79 58 83 91 16 20 24 12 13 17 14 21 24 37 68 74 66 136 142 42 62 68 35 40 41 71 64 55 120 80 54 56 73 73 74 83 83 70 79 78 71 80 79 71 80 79 71 80 79 71 80 79 71 80 79 71 81 80 69 76 76 79 99 98 78 134 138 96 62 39 118 122 117 92 118 128 62 73 71 61 72 71 93 120 129 116 121 117 95 62 40 80 136 139 81 102 101 71 78 77 72 82 82 72 81 81 72 82 81 72 82 81 72 82 81 73 82 81 73 82 81 72 82 81 71 81 80 68 76 73 66 74 72 64 72 71 53 61 65 43 49 57 45 51 62 21 23 29 11 14 17 17 20 24 56 81 90 50 67 79 44 54 65 45 56 67 44 56 66 39 46 56 38 42 53 
38 43 55 39 45 56 45 56 67 46 57 68 45 55 66 52 68 79 58 83 92 16 21 25 10 9 13 22 44 47 64 136 142 33 53 60 36 37 39 37 48 49 70 62 53 124 80 53 54 71 73 73 82 82 68 78 78 68 79 79 69 78 79 69 78 79 69 78 78 69 78 78 69 78 79 68 73 75 77 97 98 76 134 138 95 61 38 107 105 100 87 114 125 60 72 71 59 71 70 90 118 128 113 119 117 95 63 41 77 135 138 78 100 100 69 76 76 70 80 81 70 80 80 70 80 80 70 80 80 71 79 80 71 79 80 70 79 79 70 81 81 72 82 83 67 76 76 66 74 73 64 74 73 57 65 69 46 51 60 46 52 63 21 25 30 11 15 17 17 20 24 55 81 90 50 67 79 43 55 64 45 57 67 44 56 66 39 45 56 38 43 53 
38 43 55 39 45 56 45 56 67 46 57 68 45 55 66 52 67 79 58 82 92 16 21 25 9 7 11 29 61 64 32 54 63 29 29 35 40 47 49 38 46 47 57 56 53 82 60 45 56 70 72 70 79 81 65 75 77 66 76 78 66 76 78 66 76 78 66 76 78 67 75 78 67 76 79 65 71 75 74 95 97 74 132 138 93 59 38 101 96 92 73 91 101 56 68 68 55 66 66 82 106 117 112 119 118 92 61 40 76 133 138 76 97 100 67 72 76 68 77 80 68 77 80 68 77 80 68 77 79 68 77 79 67 76 78 69 79 81 68 76 79 60 69 71 56 65 65 56 65 64 56 64 64 53 59 61 42 47 53 41 47 56 19 22 27 12 15 18 17 19 24 55 80 90 51 68 79 43 54 64 44 56 67 44 56 66 39 45 55 38 43 53 
38 43 54 39 46 57 45 56 67 46 57 68 45 55 66 52 67 79 58 82 92 16 20 24 12 15 18 10 9 13 25 27 34 33 40 44 38 45 47 41 46 48 41 48 51 31 39 41 59 71 72 66 76 80 63 72 76 64 73 78 64 73 78 64 73 78 65 73 78 65 73 78 65 73 79 63 69 74 72 92 96 72 130 137 91 57 38 112 116 114 75 96 108 53 64 65 51 60 62 69 84 94 102 102 100 91 59 40 74 131 138 74 95 99 65 70 75 66 75 80 66 74 79 66 74 79 66 74 79 65 73 78 68 76 81 62 70 74 46 51 49 54 56 53 55 56 51 55 55 50 51 52 48 41 46 45 33 37 39 29 35 40 13 16 19 13 16 20 17 19 24 56 80 90 51 67 79 43 53 64 44 56 67 44 55 66 39 45 55 38 43 53 
38 42 53 39 46 57 45 56 67 46 57 68 45 55 66 51 67 78 58 83 92 16 20 24 12 14 18 13 15 19 26 32 37 32 39 42 38 43 46 39 44 47 41 47 50 36 41 41 56 68 71 64 73 79 62 70 75 62 71 76 62 71 76 62 71 76 62 71 76 63 71 76 63 72 77 61 68 73 70 90 95 71 129 137 90 55 36 103 103 101 82 110 124 54 67 70 49 57 59 66 82 92 92 87 84 89 56 38 73 131 138 72 93 97 62 68 74 63 73 79 63 72 78 64 72 78 63 72 76 65 74 80 60 69 73 39 39 38 41 46 49 110 80 64 135 90 66 135 88 65 110 78 62 41 47 48 37 40 42 33 38 44 15 18 21 13 16 19 17 19 23 55 81 90 50 67 79 43 53 64 45 57 67 44 55 65 39 44 54 38 43 53 
38 43 53 40 46 57 45 57 67 45 57 67 44 55 65 51 67 77 58 83 91 16 20 24 12 14 18 13 16 19 29 34 40 35 41 45 40 44 48 40 45 49 42 48 52 34 40 41 56 69 73 62 72 78 59 69 74 60 70 75 60 70 75 60 70 76 60 70 75 60 71 76 61 71 76 59 66 72 69 89 94 69 129 136 88 54 36 93 86 84 68 89 102 53 65 69 47 57 59 63 80 89 91 87 84 88 55 37 70 130 137 69 92 96 59 67 73 61 72 78 61 71 77 60 71 76 63 74 79 55 65 68 34 30 30 58 95 98 51 75 78 38 42 44 41 48 50 40 46 49 41 47 48 40 45 45 35 39 40 32 37 42 15 17 20 13 16 19 16 19 23 55 81 90 50 67 78 43 54 64 45 57 68 44 55 65 38 43 53 38 43 53 
37 42 53 40 46 57 45 57 67 46 57 67 44 55 66 50 65 76 57 81 91 16 20 24 12 15 18 12 15 17 17 27 33 17 29 35 20 33 38 21 33 38 21 34 40 20 30 33 49 60 63 61 72 79 57 68 74 58 68 74 58 68 74 58 68 74 59 69 74 59 70 75 59 70 76 58 65 72 68 89 94 67 127 135 88 54 36 92 86 84 60 77 89 48 58 62 45 56 59 60 77 88 89 85 83 87 54 36 68 129 136 67 92 97 57 65 72 59 70 77 59 70 76 60 72 78 54 64 68 36 38 39 56 102 105 72 151 153 42 53 56 39 44 48 40 46 50 40 45 49 40 46 48 38 43 44 35 38 39 33 37 41 15 18 20 13 16 19 16 19 23 55 80 90 50 67 77 43 54 64 45 57 68 43 54 64 38 43 53 38 43 53 
37 42 53 39 46 57 45 57 67 46 57 68 45 55 66 50 64 76 57 80 90 16 20 24 13 15 18 11 13 16 70 47 40 90 58 44 89 59 46 89 59 46 93 60 46 77 56 48 32 41 45 40 47 50 57 67 75 57 67 75 57 66 73 58 67 74 58 68 74 58 68 75 57 68 75 56 64 71 66 87 93 65 126 135 86 51 35 90 83 82 59 76 89 45 56 60 45 54 59 59 75 87 88 83 82 85 52 36 67 127 136 66 90 97 56 63 71 57 69 76 57 68 75 61 72 80 40 44 48 45 66 70 70 140 143 36 42 47 37 39 44 38 44 49 38 43 47 38 43 47 38 43 47 36 40 42 34 36 39 33 37 41 15 19 21 13 16 19 17 19 24 55 80 90 50 66 77 44 54 64 45 57 68 43 52 63 38 42 52 38 43 53 
37 42 53 39 46 57 45 56 67 46 57 67 45 55 66 50 63 75 57 80 90 16 21 25 12 12 16 16 29 33 75 85 83 92 93 86 90 94 87 92 94 88 96 98 91 75 84 81 31 39 48 35 41 46 37 43 47 54 64 72 56 67 75 55 65 72 56 66 74 56 66 74 56 67 75 55 63 71 65 86 93 63 122 133 86 51 35 86 82 82 57 74 87 44 54 60 43 52 58 58 73 86 82 81 82 86 52 37 65 125 134 65 88 96 54 62 71 56 68 75 56 66 74 59 69 78 43 49 53 36 45 50 33 37 41 35 41 45 36 43 48 35 41 46 35 41 46 35 41 46 35 41 46 34 37 41 33 36 40 31 35 39 13 13 15 13 16 19 17 20 24 55 79 89 49 65 76 44 54 65 45 57 68 42 51 61 37 42 52 38 43 53 
37 41 52 39 46 56 45 56 67 45 56 67 45 55 66 49 63 74 56 80 89 16 22 26 11 9 13 27 54 57 52 116 124 43 107 115 47 112 121 49 114 122 45 108 116 55 126 133 60 120 127 33 42 50 35 43 49 33 40 43 51 61 69 56 66 76 54 64 73 55 65 74 55 66 75 53 61 70 63 86 94 63 125 135 69 37 24 108 90 80 49 71 88 43 53 58 42 51 55 48 70 85 106 89 80 69 36 24 65 124 135 64 89 97 52 61 70 55 66 75 54 65 74 57 68 77 41 48 52 34 41 46 34 42 48 34 41 47 34 41 46 33 40 46 33 40 45 33 40 45 33 39 44 31 36 40 29 31 35 32 41 47 25 45 48 12 12 14 17 21 25 55 79 89 49 64 76 44 54 64 45 57 67 40 49 59 37 42 51 38 43 53 
37 42 52 39 46 56 45 56 66 45 56 67 44 55 65 48 62 73 56 79 87 16 20 24 13 16 19 12 13 15 25 25 30 25 24 28 29 29 35 29 30 36 29 31 36 28 28 34 55 109 115 50 94 101 29 32 40 34 43 50 32 39 43 48 58 67 53 65 75 53 64 74 53 65 74 53 64 74 53 66 76 82 147 153 45 72 81 78 41 25 99 87 85 33 51 60 33 50 58 99 88 84 77 40 23 45 72 81 82 148 153 52 67 76 53 64 74 53 65 75 53 64 73 56 68 77 39 47 52 33 40 47 33 40 47 33 40 47 33 40 47 33 39 46 32 39 45 32 39 45 31 38 42 28 32 36 24 30 35 63 125 132 34 65 67 11 10 11 17 21 25 55 79 89 49 64 75 44 54 65 45 57 67 40 47 57 37 41 51 38 43 53 
37 42 52 39 45 56 44 56 66 45 56 66 44 55 65 48 62 73 56 78 87 16 20 25 13 15 18 13 16 19 28 34 40 26 32 37 28 36 41 31 39 45 31 39 45 31 38 44 28 33 40 31 43 51 31 38 46 32 38 47 32 39 47 35 43 50 54 66 76 51 63 73 52 63 74 52 64 75 50 60 71 55 72 82 79 144 152 36 62 73 84 49 34 69 59 53 69 57 50 86 49 33 34 61 71 79 146 154 55 75 85 51 60 73 53 64 76 52 63 75 52 63 74 55 66 78 38 45 53 32 38 47 32 39 47 32 39 47 32 39 47 32 38 46 32 38 45 31 39 45 28 32 37 27 33 39 61 121 127 50 102 108 18 30 31 14 15 17 17 20 24 55 78 88 49 64 75 44 55 65 45 56 67 39 45 56 37 42 52 38 42 53 
37 41 52 38 44 55 44 55 66 45 56 66 44 55 66 48 60 72 55 77 86 16 20 24 13 15 18 12 14 17 26 31 38 25 30 36 26 32 38 29 36 45 30 35 45 30 36 45 30 37 46 30 35 45 30 37 47 31 36 47 31 37 46 36 44 52 52 64 76 51 61 73 51 62 74 51 63 74 52 64 75 48 58 70 61 105 115 91 171 179 50 74 84 32 17 12 32 16 10 46 72 82 90 171 178 62 109 118 49 59 72 53 64 77 52 62 75 52 63 75 52 62 74 54 64 78 37 44 53 31 38 47 31 37 47 31 37 47 32 37 47 31 37 46 31 37 46 29 35 43 25 30 36 55 111 118 52 102 109 37 60 65 15 19 21 13 15 18 17 20 24 55 78 88 48 63 74 44 54 65 44 55 66 38 44 54 37 42 52 38 42 53 
37 42 52 38 44 55 44 55 65 44 55 66 44 54 65 47 60 71 55 76 85 16 20 24 12 14 18 12 13 16 25 30 37 24 30 36 25 30 36 28 34 42 30 35 45 29 35 45 29 36 45 29 36 46 30 36 46 30 36 46 30 37 46 34 42 50 52 63 76 50 61 73 50 62 73 50 62 74 51 62 74 49 64 77 81 158 166 71 126 135 82 147 156 42 71 79 40 71 78 81 146 155 70 125 134 82 162 168 49 64 77 52 62 75 51 63 75 51 62 74 51 61 74 54 64 78 36 43 51 30 38 46 30 37 46 30 36 46 31 36 46 30 36 46 30 37 46 24 25 32 34 57 63 62 128 133 30 51 56 27 33 39 13 15 18 12 15 18 17 20 24 54 77 86 48 62 73 44 54 66 44 54 64 37 42 52 37 42 52 38 42 52 
37 42 53 38 43 54 43 54 64 44 55 66 43 54 65 46 60 70 54 75 84 16 20 25 12 14 17 11 13 16 24 29 35 23 29 35 25 30 36 26 31 38 28 35 44 28 35 44 29 35 45 29 35 45 29 36 45 29 36 45 30 37 46 31 38 45 47 59 70 49 61 72 50 62 73 50 62 73 50 62 74 50 63 74 51 71 83 47 61 73 59 81 93 55 94 99 55 97 101 59 82 94 47 59 71 51 70 83 50 63 75 51 62 74 51 62 74 51 61 74 50 61 73 49 61 72 31 40 46 30 37 46 29 36 46 30 36 45 29 36 45 30 37 45 28 35 43 22 23 29 34 56 62 63 131 136 28 45 50 24 28 34 13 17 20 11 14 16 17 20 24 54 76 85 48 61 72 44 55 66 42 52 62 37 42 51 37 42 52 37 42 52 
37 42 52 37 43 53 43 53 64 44 55 65 43 54 64 46 59 70 53 73 83 16 20 24 12 14 17 11 13 16 23 27 34 23 29 35 24 29 35 24 30 35 26 33 41 28 35 44 28 34 44 28 35 44 28 36 44 28 35 45 29 36 45 31 38 45 44 55 65 44 55 65 48 59 71 50 61 73 50 62 73 50 62 73 50 61 72 49 60 72 57 70 83 37 47 55 36 48 55 57 71 85 49 60 72 50 60 72 50 62 74 50 62 74 50 62 74 49 60 72 45 56 67 44 56 66 31 39 46 28 36 45 29 36 45 29 36 44 28 36 44 28 35 44 25 31 38 21 23 29 33 56 62 61 130 135 28 45 51 24 28 34 13 17 19 11 13 16 17 20 24 53 73 83 47 60 71 44 56 66 41 49 60 37 41 51 37 42 52 37 42 52 
37 42 52 37 42 53 43 53 63 44 55 65 44 54 64 46 58 69 52 72 81 16 20 24 11 14 17 11 13 16 23 25 33 22 27 33 23 29 35 24 29 35 24 30 37 28 34 43 28 34 44 28 35 44 28 35 44 28 34 44 30 37 47 27 34 40 43 53 64 42 53 63 43 53 64 46 56 67 48 59 71 49 61 73 50 62 74 48 59 71 56 71 83 38 51 59 36 51 58 56 71 85 48 60 71 50 62 74 49 61 73 49 60 72 47 57 69 43 54 64 42 53 63 43 53 64 27 34 41 30 38 47 28 35 44 28 35 44 28 35 44 26 31 39 24 30 36 21 23 29 33 55 62 62 130 136 27 44 50 23 28 34 12 16 19 11 13 16 17 20 24 53 73 83 47 60 71 44 55 66 40 46 57 37 41 51 37 42 52 37 42 52 
37 42 52 37 42 52 42 52 62 44 55 66 44 54 64 46 57 68 51 70 80 16 20 25 11 13 17 11 12 16 23 25 32 21 25 31 23 29 35 23 29 35 24 28 35 25 30 38 27 34 43 27 34 43 28 34 44 28 34 44 30 36 46 27 35 43 28 35 42 43 54 65 42 52 63 43 53 63 43 53 64 44 54 66 45 56 68 45 56 67 53 67 79 37 49 56 36 50 58 53 68 81 45 57 68 46 58 69 45 56 67 43 53 64 42 52 62 42 52 62 44 54 65 28 34 42 29 37 45 30 37 47 28 34 43 28 35 44 26 32 40 24 29 35 24 30 36 21 23 29 33 54 62 62 130 136 27 43 49 22 26 33 12 14 18 11 12 16 17 20 24 52 72 81 47 60 71 44 54 65 38 44 54 37 41 51 37 42 51 37 41 52 
37 42 52 37 42 52 41 50 61 44 55 66 44 54 64 45 57 67 49 69 78 16 20 25 11 13 16 11 12 15 22 25 32 21 24 30 22 27 33 23 28 35 23 29 35 23 29 34 25 31 39 27 34 43 27 34 43 28 34 43 28 34 43 30 37 47 25 31 39 30 38 45 44 55 65 42 52 62 43 53 63 43 53 64 43 54 63 41 52 61 50 63 75 36 49 56 36 50 57 49 64 75 42 51 61 43 53 63 43 53 63 42 53 63 42 52 62 43 54 64 29 36 43 27 34 41 29 37 47 27 34 43 28 35 44 26 32 40 24 29 35 24 29 35 24 30 36 21 22 29 33 55 61 60 129 135 27 44 50 22 25 31 11 13 17 11 12 16 17 20 24 52 70 79 46 59 70 42 53 63 37 42 52 37 42 51 37 41 51 37 41 51 
36 41 51 36 41 51 41 49 59 43 54 65 43 54 64 45 57 67 48 68 77 16 20 25 11 13 16 10 12 15 22 25 32 21 24 31 22 25 31 22 28 34 23 29 35 23 29 35 23 28 35 25 32 39 27 34 43 27 34 43 27 34 43 28 34 43 29 37 46 23 31 38 35 46 53 44 54 64 43 53 63 43 54 64 43 54 64 42 52 62 50 63 75 36 48 55 35 50 56 49 64 75 41 51 61 43 53 64 42 53 63 41 51 61 42 50 61 32 38 46 25 32 40 29 37 46 27 34 42 27 34 43 25 31 39 23 29 34 23 29 35 23 29 35 23 30 36 21 23 28 32 55 61 60 129 135 27 43 49 21 22 29 11 14 17 11 13 15 17 20 24 50 68 78 46 59 70 41 50 60 36 41 50 37 42 51 36 41 51 36 41 51 
36 41 51 36 40 50 39 46 56 43 54 65 43 54 64 44 55 65 47 64 74 16 21 26 11 13 16 10 12 15 22 25 32 21 24 31 22 25 31 22 26 32 22 28 34 23 28 35 23 28 35 23 29 35 24 30 37 26 32 41 27 34 43 27 34 44 27 35 43 27 34 44 26 34 41 43 52 62 37 46 57 41 50 60 42 51 61 41 49 59 48 61 72 36 48 55 35 49 56 49 62 73 40 48 58 41 49 60 41 48 58 40 45 56 43 49 60 26 32 39 28 35 44 26 34 43 26 33 42 24 30 37 23 28 34 23 29 34 23 29 35 23 29 35 23 29 35 21 24 29 30 51 57 60 129 135 25 40 47 20 22 28 11 14 16 11 13 16 17 20 25 48 65 75 44 56 67 39 47 56 36 41 50 36 41 51 36 41 51 36 41 51 
35 40 51 35 40 50 38 45 54 41 52 61 41 50 61 50 63 75 51 71 80 14 18 21 11 13 17 10 12 15 22 24 32 21 23 30 22 24 31 22 24 31 22 25 32 22 28 34 22 28 34 22 28 35 22 28 35 24 29 36 26 31 38 28 33 41 29 35 43 28 33 43 24 32 40 50 53 61 103 71 61 38 43 55 41 45 56 39 43 54 47 56 67 35 47 54 35 48 56 47 56 68 39 43 54 41 46 56 41 45 57 41 45 56 44 50 61 25 31 38 26 32 40 25 31 39 23 28 35 23 28 34 23 28 34 23 28 34 23 28 34 23 28 34 24 31 37 17 15 20 37 69 76 58 122 128 24 38 43 20 22 28 11 13 16 12 13 17 15 17 20 50 70 79 48 62 74 35 39 49 35 38 48 36 41 51 36 41 51 36 41 51 
34 39 49 33 37 46 37 42 52 49 63 75 53 72 83 48 68 76 28 40 45 8 10 13 12 14 18 10 11 15 21 24 31 21 24 31 22 25 31 22 24 31 22 24 31 22 26 32 22 28 34 22 28 34 22 27 34 12 23 33 11 23 33 12 23 33 13 24 34 21 28 36 22 30 37 54 54 61 131 82 63 37 43 55 41 45 56 39 43 53 46 55 67 35 46 54 35 47 55 47 55 67 39 43 54 40 45 56 41 45 56 40 44 55 43 49 60 23 29 35 23 28 34 24 28 34 25 29 34 24 29 34 24 29 34 23 28 34 23 28 34 24 30 36 19 18 24 35 62 70 59 126 132 38 72 78 25 34 40 20 23 29 10 12 15 13 14 18 8 10 12 26 37 42 46 66 74 47 63 72 41 50 60 36 40 50 34 37 47 35 39 49 
37 43 53 43 53 62 44 60 68 38 53 59 24 34 39 17 22 27 22 29 35 13 16 20 11 13 17 10 12 15 21 24 30 15 17 21 18 19 26 22 25 31 21 24 30 21 24 31 22 25 32 21 27 33 26 29 35 94 60 47 105 64 49 103 63 49 104 63 49 36 32 34 17 27 33 54 54 61 126 80 62 37 43 55 41 46 56 39 43 53 46 55 67 35 46 54 34 47 54 46 55 67 39 43 53 40 45 56 40 45 56 39 44 55 43 50 60 22 28 33 19 25 32 12 23 32 11 24 32 11 23 32 11 23 32 20 27 34 23 30 35 20 23 29 34 61 69 59 129 135 37 69 75 21 30 34 13 14 18 21 24 30 11 12 15 12 13 16 12 15 18 22 29 36 18 23 28 24 34 39 33 48 53 42 57 65 42 52 62 37 43 54 
36 48 55 26 36 41 16 20 24 17 21 26 22 28 35 25 32 39 26 33 41 12 15 19 11 14 17 11 13 16 12 14 17 24 32 37 22 28 33 18 20 25 21 25 31 21 24 31 21 24 30 21 24 31 23 27 33 54 42 39 60 43 39 59 43 39 59 43 40 28 29 33 19 28 34 53 54 60 127 81 62 37 44 55 41 46 56 39 43 53 46 54 66 34 46 53 33 46 53 45 55 66 38 43 53 40 45 56 40 45 55 39 44 54 43 49 60 20 27 32 28 29 33 73 50 42 76 50 41 75 50 42 73 49 41 30 31 35 20 26 31 23 32 38 63 131 137 36 69 75 18 25 29 19 23 27 25 33 38 12 14 17 11 13 16 11 13 16 11 14 18 24 33 40 25 33 40 20 26 32 15 16 21 17 21 26 25 34 40 35 46 53 
15 17 22 16 18 23 19 22 27 22 28 34 23 31 37 20 25 32 25 32 40 12 15 19 11 14 17 9 11 14 16 19 23 34 45 52 16 22 24 17 19 25 22 25 31 21 24 30 21 24 31 21 24 30 20 24 30 14 21 30 13 22 31 13 23 31 13 24 32 19 25 31 19 27 34 53 52 59 127 81 62 36 43 54 40 45 55 38 42 52 45 53 65 33 45 51 33 45 52 45 53 65 38 42 52 39 44 54 39 45 54 38 43 53 42 48 58 20 26 31 30 30 33 91 57 44 94 57 43 93 56 43 90 56 43 32 32 35 17 21 27 24 36 43 55 116 122 32 54 60 16 18 23 15 19 23 32 40 48 16 19 23 10 11 14 11 13 16 11 14 18 24 32 39 20 26 32 21 25 32 21 24 31 19 22 29 17 19 24 16 18 24 
20 24 30 20 24 30 19 22 27 21 26 33 17 22 27 10 13 17 22 28 35 13 16 20 12 14 18 11 13 17 20 22 28 14 17 20 16 17 22 23 26 33 23 25 33 23 26 34 23 26 33 23 26 33 23 26 33 24 26 33 24 27 33 24 28 34 24 29 35 23 27 35 22 30 37 55 57 65 119 80 66 40 46 59 43 48 60 41 46 57 50 58 71 37 49 56 37 49 57 50 58 71 42 47 57 43 49 60 43 48 60 42 47 58 46 53 64 25 31 35 21 27 33 13 24 34 12 23 33 11 22 32 10 21 31 20 25 33 22 22 29 27 39 46 59 125 131 35 59 66 23 26 33 16 18 23 14 16 19 19 22 27 12 13 17 12 13 17 12 15 19 23 29 36 14 17 22 15 17 22 21 25 31 19 23 29 20 24 30 21 24 30 
19 23 29 19 23 29 19 23 28 20 25 30 17 22 28 13 16 20 24 32 39 9 12 15 5 6 8 5 5 7 11 12 15 10 11 14 11 12 15 10 11 14 11 12 15 10 11 14 11 13 17 10 12 15 11 12 15 11 13 16 11 13 16 11 13 17 12 13 17 11 13 17 11 15 18 23 26 31 27 26 29 20 23 28 21 23 29 20 23 28 24 29 35 18 24 28 18 24 28 24 29 35 20 23 28 21 24 29 21 24 29 21 23 29 22 26 32 12 15 18 11 14 17 14 15 18 13 14 17 13 13 16 13 13 16 11 12 15 10 10 14 14 20 24 28 59 62 16 26 29 10 11 14 11 12 15 10 12 15 11 12 15 5 5 7 5 6 7 9 12 14 26 33 40 14 18 22 14 15 20 16 19 26 18 21 28 20 23 29 20 23 29 
19 23 29 19 23 29 19 23 29 19 22 28 23 30 36 22 29 35 11 15 18 9 12 14 20 25 30 21 26 31 20 25 30 21 25 31 20 25 31 21 25 31 19 24 29 24 29 35 20 23 28 19 20 21 42 48 53 40 46 51 40 45 51 40 45 52 40 46 52 40 47 52 41 48 53 40 45 51 38 45 51 40 46 51 39 46 52 40 46 52 40 46 51 41 46 52 41 47 53 41 47 52 41 47 53 41 47 53 41 47 53 42 48 53 42 48 53 44 49 55 44 49 55 43 49 54 43 49 54 44 49 55 44 49 55 45 51 56 21 22 22 21 24 29 23 24 31 19 23 29 21 26 32 21 26 32 21 26 32 21 26 32 21 27 33 21 26 32 10 13 15 12 16 19 18 22 28 26 29 35 77 80 84 25 28 34 18 21 28 20 23 29 
19 23 29 19 22 28 19 23 29 20 24 30 15 19 23 7 9 12 16 19 23 28 34 42 28 35 42 28 35 42 29 36 43 30 36 44 30 36 44 29 35 43 34 40 49 48 52 57 123 120 113 187 186 174 190 187 173 189 186 173 189 186 173 189 186 173 190 187 173 190 187 173 191 188 174 191 188 175 191 188 175 191 189 175 191 189 175 191 188 175 191 188 175 191 189 175 191 189 175 191 189 176 191 188 175 191 189 175 191 189 175 191 189 175 191 188 175 192 189 176 192 189 175 191 189 175 191 189 176 191 188 175 191 188 175 192 189 176 187 186 174 119 118 111 47 53 59 33 41 49 29 36 45 30 36 46 30 36 45 30 36 45 29 36 44 29 36 44 28 35 44 17 21 26 3 4 6 72 74 77 157 159 162 79 81 85 15 18 24 20 24 29 
19 22 28 20 24 30 18 21 27 7 9 11 9 11 13 24 28 35 29 35 43 27 33 40 27 33 40 27 33 40 27 33 41 28 34 41 27 33 41 31 38 46 21 25 32 86 83 76 235 232 216 251 247 228 250 245 225 252 246 226 252 247 226 252 247 227 251 246 227 251 246 227 251 246 226 251 246 226 251 246 226 251 246 226 251 246 226 251 246 226 251 246 226 251 246 226 251 246 226 251 246 226 251 246 226 251 246 226 251 246 227 251 246 226 251 246 226 251 246 226 251 246 226 251 246 226 251 246 227 251 246 227 251 246 227 250 245 225 251 247 229 233 230 215 83 81 74 20 25 32 31 37 46 28 33 42 28 34 42 28 34 41 27 34 42 27 33 41 27 33 41 30 36 44 23 28 35 16 17 21 69 69 71 24 27 32 19 22 29 19 22 28 
20 23 30 13 16 20 6 7 9 17 20 25 29 34 41 28 33 40 27 32 38 27 33 40 27 33 40 27 33 40 27 33 40 27 33 40 30 36 44 21 26 32 15 18 21 57 61 64 79 83 84 80 82 83 81 84 85 81 84 84 81 84 85 80 84 85 80 83 84 80 84 85 80 84 85 80 84 85 80 83 85 79 83 84 79 83 84 80 84 85 80 84 85 80 83 85 79 83 84 79 83 84 79 83 85 80 84 85 80 84 85 81 84 85 80 84 85 80 84 84 80 83 85 80 84 85 81 84 85 80 84 85 80 84 84 80 83 84 78 81 82 78 82 83 58 63 66 16 19 23 21 25 31 30 36 45 28 34 42 28 34 42 27 34 42 27 33 41 27 33 41 27 32 39 28 33 41 27 33 42 14 17 23 5 6 8 13 15 19 20 23 29 
9 10 13 9 10 12 25 29 36 29 35 42 27 32 39 26 32 39 27 32 39 27 32 39 27 33 40 27 33 40 27 33 40 28 35 42 21 26 32 14 17 20 43 53 63 45 56 68 44 55 65 46 57 68 46 57 68 46 57 68 46 57 68 46 58 69 46 58 69 46 58 69 47 58 69 47 58 70 47 58 69 46 58 69 46 58 69 47 58 70 47 59 71 47 59 71 47 58 70 46 58 70 47 59 71 48 59 71 47 58 70 46 58 70 46 58 70 46 58 69 46 58 69 46 58 70 46 58 70 46 57 69 45 56 68 45 56 67 45 56 67 43 54 65 44 55 67 43 53 63 15 18 21 22 27 33 28 35 44 27 34 42 27 33 41 27 33 41 27 33 40 27 32 40 27 32 40 27 32 40 30 36 44 26 31 38 9 11 14 8 10 13 
