P3
# Created by GIMP version 2.10.38 PNM plug-in
64 64
255
164
163
147
175
173
153
153
151
134
173
172
152
150
148
134
198
200
183
141
138
119
140
134
118
173
169
155
116
110
93
147
141
127
159
152
134
128
121
107
123
118
102
151
142
121
156
147
127
65
58
48
170
168
150
173
169
154
195
192
172
174
170
149
200
196
174
112
105
91
121
116
104
110
102
87
153
141
121
97
88
76
90
85
75
112
108
91
159
154
135
155
149
130
153
146
129
114
110
94
150
146
132
132
126
109
107
102
86
122
117
101
133
127
109
90
87
78
59
58
53
103
102
96
54
51
46
98
93
79
98
91
77
87
80
68
86
80
72
78
72
62
68
60
52
78
70
60
154
147
130
93
90
80
114
108
97
87
83
73
109
105
94
87
84
75
146
141
128
140
110
81
70
56
47
63
52
42
143
115
80
76
70
61
63
59
57
87
83
72
91
85
75
172
171
153
182
180
160
172
171
151
153
152
130
146
143
130
191
194
181
135
132
114
146
139
124
182
179
167
122
112
92
154
146
128
158
149
131
137
130
115
135
129
114
155
146
123
169
162
139
71
64
54
176
172
153
174
169
155
191
188
169
188
185
165
199
195
176
124
118
103
122
116
102
113
105
87
154
146
126
86
79
66
116
109
96
85
80
66
163
157
136
160
153
135
155
149
131
146
140
121
131
127
108
127
122
103
122
115
99
131
126
108
134
128
110
77
72
63
94
91
86
91
89
85
56
54
48
102
96
83
108
100
85
91
84
71
93
86
75
93
86
74
82
74
62
84
75
63
159
154
142
108
106
98
140
135
123
96
91
82
114
110
99
92
89
79
147
145
133
64
60
52
71
61
52
63
54
47
71
64
55
63
60
54
56
53
49
89
83
71
90
83
71
131
130
117
184
180
162
162
160
142
158
156
140
139
136
123
194
197
186
140
138
122
143
138
119
133
127
111
125
115
95
146
136
118
153
142
125
138
129
113
139
133
119
158
149
125
130
118
100
76
68
59
175
172
155
153
149
136
139
134
116
99
95
81
168
164
150
115
109
96
111
105
90
121
113
94
157
147
126
93
88
77
72
68
61
106
103
90
154
148
128
138
132
115
153
147
129
152
146
129
138
132
115
134
127
110
127
121
103
120
116
100
102
98
85
82
77
66
85
80
71
82
78
70
78
73
64
100
94
81
109
102
88
92
86
74
62
57
49
67
62
52
69
62
52
80
73
62
161
158
145
106
104
97
136
131
118
86
80
69
106
103
91
93
92
83
153
151
137
67
66
59
67
62
54
50
48
43
75
72
68
69
67
62
69
66
63
83
77
65
86
79
67
106
105
92
168
164
146
139
135
120
153
150
133
133
130
119
188
190
177
142
139
123
144
139
120
182
178
163
125
115
96
144
135
117
157
147
132
141
132
116
125
118
104
179
171
149
156
150
133
77
71
62
177
174
156
165
162
148
162
159
141
106
100
83
166
162
146
135
130
117
118
112
96
101
95
79
148
139
123
136
130
114
130
125
112
138
132
116
134
130
114
133
129
112
110
103
88
133
128
112
133
127
111
125
120
104
121
117
101
125
121
105
83
80
69
106
102
90
108
103
91
83
79
67
90
86
74
90
85
73
100
94
80
89
82
71
78
74
64
74
69
58
71
66
57
70
63
53
140
138
126
86
85
76
135
131
121
90
84
72
109
107
96
96
96
88
155
154
138
74
74
65
57
51
46
62
59
53
76
73
69
68
67
63
70
67
63
66
62
56
70
63
54
117
116
104
141
135
117
143
137
122
144
137
118
123
118
108
174
171
150
131
125
108
167
159
137
197
192
179
137
129
110
131
126
116
156
147
132
142
135
118
133
127
114
222
219
205
143
136
122
67
62
54
175
173
157
166
163
148
172
168
152
156
155
141
164
163
156
125
122
111
111
105
90
94
89
77
114
108
93
148
140
121
148
141
120
147
140
118
134
130
114
164
161
141
128
123
108
95
90
78
101
97
85
128
123
106
128
123
108
125
120
105
106
102
91
124
121
107
120
116
102
81
78
66
89
84
73
101
96
84
112
108
93
102
99
86
97
94
82
87
82
70
74
69
59
83
76
66
133
128
113
103
100
93
122
119
109
90
85
74
115
112
103
101
101
94
155
153
140
76
75
68
60
58
51
61
57
53
74
72
69
71
69
67
63
59
55
65
66
64
68
63
57
97
96
88
153
146
127
156
150
133
148
139
118
104
97
84
173
169
147
144
137
119
168
158
136
169
162
145
131
124
107
140
135
123
153
143
128
149
144
128
152
146
133
217
216
197
102
98
88
65
61
54
175
172
155
157
154
138
164
159
143
167
165
144
145
143
131
120
116
107
114
108
94
105
99
87
158
155
139
154
149
136
156
151
138
162
159
143
99
95
84
117
113
99
153
149
130
129
124
111
105
99
85
134
127
111
153
147
131
138
134
119
129
126
111
97
93
82
65
61
51
60
55
46
94
89
78
131
124
107
129
123
107
120
116
102
100
98
87
92
89
79
81
77
70
91
88
82
142
132
113
82
79
72
130
126
116
96
92
82
112
111
104
100
100
93
144
144
135
68
67
61
75
71
65
72
67
62
70
68
63
73
72
70
67
65
62
68
66
59
70
66
60
123
117
103
126
120
104
129
125
112
129
125
110
127
123
112
167
163
141
130
122
106
159
150
129
135
128
108
65
58
47
90
83
71
123
117
101
117
112
100
112
104
93
54
48
38
54
48
43
66
62
54
167
163
145
173
169
150
169
167
144
123
117
92
141
138
121
113
110
98
114
106
93
114
108
95
165
161
145
167
162
146
168
163
147
160
155
139
119
115
103
138
135
121
125
120
105
124
118
104
114
109
97
132
125
110
145
138
122
145
139
124
156
153
136
106
102
91
95
91
80
88
82
70
99
94
85
123
116
102
130
123
109
121
115
103
107
104
95
108
105
95
102
97
89
82
78
72
152
144
126
87
83
76
122
119
111
93
89
79
117
116
109
105
103
98
147
147
138
78
75
68
76
71
65
79
73
68
90
86
80
70
69
69
76
73
68
69
65
60
72
68
62
167
160
139
178
173
152
177
172
151
151
145
124
144
138
119
153
148
130
181
176
159
139
129
111
87
79
65
70
62
51
78
70
59
78
70
59
73
67
58
61
56
48
67
60
52
66
61
54
133
129
114
170
169
155
162
156
140
179
174
154
116
110
92
160
156
138
104
103
97
95
87
76
114
106
93
161
156
141
168
161
145
161
155
137
117
114
99
135
130
115
151
147
131
147
142
129
132
126
111
116
111
99
131
126
111
155
149
131
154
150
133
147
144
129
136
133
121
126
123
111
112
110
100
111
107
97
119
113
99
116
111
99
113
109
100
103
101
93
102
100
91
86
84
78
74
72
66
158
151
134
95
92
85
123
119
109
89
85
75
123
123
117
105
105
101
150
149
139
89
80
71
97
77
64
100
80
67
115
105
98
82
81
80
99
98
93
64
63
59
52
50
45
127
124
111
148
147
132
168
166
152
120
116
99
146
142
125
151
148
132
173
168
153
178
173
157
152
151
137
132
128
111
134
129
110
149
143
124
139
130
109
135
122
100
132
121
95
142
133
112
178
174
157
162
159
144
149
144
129
176
171
151
137
132
115
190
187
172
122
119
111
117
108
94
114
107
93
138
133
117
164
157
137
153
148
130
124
119
104
115
109
94
61
58
51
120
114
102
127
122
107
116
113
101
110
105
93
139
135
119
141
137
122
121
116
104
110
107
97
88
85
77
79
77
70
76
73
66
76
72
63
87
83
77
85
83
78
90
88
81
79
78
75
63
63
60
61
58
56
157
151
136
114
111
105
114
111
101
89
85
77
110
111
105
101
102
99
131
127
117
98
79
68
180
147
116
180
152
125
111
100
92
80
77
76
91
92
91
95
93
92
71
67
60
149
148
132
172
169
152
150
148
131
156
153
133
156
152
134
173
168
151
162
158
144
154
151
139
140
136
126
145
142
127
146
140
126
137
133
121
139
134
123
146
141
131
135
130
120
135
131
120
166
164
150
148
145
133
154
149
134
176
172
152
147
145
128
172
170
153
128
124
113
120
112
99
119
112
98
158
151
132
169
163
143
159
154
136
164
159
138
118
113
98
134
128
116
154
147
131
146
142
126
131
129
118
130
125
115
162
159
140
151
146
129
127
122
107
101
95
84
68
65
59
102
98
86
114
109
96
83
80
73
109
106
98
110
106
98
107
104
99
105
103
98
80
79
77
82
81
77
158
152
137
116
115
107
110
106
100
90
89
84
107
108
105
104
103
99
135
131
126
106
93
87
169
133
106
171
146
123
116
102
95
87
84
83
87
85
85
94
93
92
64
63
61
115
112
98
127
124
108
119
116
100
136
132
116
134
132
117
170
166
150
177
174
160
117
113
102
143
139
125
154
149
130
157
152
135
164
159
142
153
147
130
154
149
133
152
148
131
135
131
115
132
129
116
154
151
135
162
156
142
173
171
156
197
193
172
180
176
159
135
132
120
121
116
103
119
112
94
158
150
129
139
133
115
153
150
133
164
158
138
141
136
121
149
143
127
141
134
119
119
117
107
129
125
113
137
131
116
137
130
114
129
123
108
93
88
79
111
108
95
98
95
83
114
110
96
117
112
98
93
91
82
106
105
96
108
107
98
111
111
102
113
113
107
109
110
106
100
100
96
156
151
140
99
97
89
103
99
93
101
97
90
99
99
96
105
107
109
137
136
134
96
93
95
90
74
77
99
83
83
97
87
87
84
80
84
105
100
96
80
73
70
76
69
63
73
70
64
93
89
77
110
106
94
118
113
101
125
118
100
185
182
167
132
127
110
165
158
144
133
127
111
143
129
113
152
148
136
158
154
135
168
161
143
135
130
116
139
135
122
190
186
169
110
106
99
156
151
130
178
171
151
212
212
196
203
200
180
204
201
180
146
142
130
120
116
100
65
58
49
114
107
90
98
93
82
77
68
56
99
95
85
102
97
88
101
94
80
103
100
91
87
87
80
101
100
90
109
107
94
102
100
89
96
94
82
75
71
62
81
79
69
86
85
76
84
83
76
73
72
66
73
70
63
69
68
64
75
74
72
79
81
81
83
86
86
82
87
87
85
85
81
163
161
150
90
88
83
113
110
105
120
119
113
99
99
98
106
114
122
147
147
146
99
98
102
70
69
79
72
72
88
101
101
110
82
85
93
97
92
90
137
113
97
104
88
80
96
94
86
128
124
113
140
136
120
137
134
117
159
154
140
193
192
179
150
144
129
159
152
137
133
127
113
134
127
113
168
163
153
142
134
120
151
143
126
134
128
113
139
138
122
192
188
166
71
67
61
195
194
181
194
190
174
217
217
200
208
205
187
206
203
184
127
123
112
134
129
112
100
94
81
140
133
117
146
140
124
141
134
120
124
119
107
93
89
81
92
87
77
108
106
97
157
155
140
163
160
142
160
156
138
152
150
136
145
142
129
133
132
120
136
134
120
143
140
126
140
137
125
110
109
100
108
104
93
109
106
97
109
107
98
88
88
83
95
95
93
86
87
84
99
99
94
175
172
160
91
91
90
127
131
130
117
117
116
102
110
119
103
114
122
153
154
152
101
109
117
98
119
146
99
130
161
98
109
123
75
84
102
86
94
110
101
94
94
89
84
83
79
77
68
107
105
92
165
161
142
159
157
140
144
140
128
189
188
177
155
149
135
159
151
138
142
136
122
140
133
115
157
153
142
134
126
113
147
138
120
138
131
118
144
142
125
193
188
167
78
74
66
191
190
177
191
190
175
218
219
201
207
205
187
201
199
178
126
122
111
127
123
107
72
69
62
105
101
91
103
98
90
99
94
85
98
94
84
104
100
87
133
129
116
151
149
133
168
165
148
166
163
144
158
154
137
150
145
130
150
147
134
145
143
130
138
136
122
135
132
119
124
121
109
124
121
110
127
123
112
124
121
111
98
97
90
68
69
66
82
83
80
84
88
85
85
87
84
166
164
152
112
115
114
125
127
127
88
89
89
112
122
130
107
120
130
156
160
158
105
118
129
125
152
185
133
167
194
100
117
137
76
90
117
82
93
114
100
102
108
84
85
91
92
90
79
128
125
110
179
176
156
169
166
146
124
122
111
185
183
166
134
131
117
165
159
146
139
133
122
145
138
120
148
144
133
152
146
126
157
149
131
136
132
119
149
148
131
187
183
161
93
90
82
165
161
147
177
175
163
216
217
201
203
202
185
186
183
164
118
115
104
115
111
98
72
66
57
120
112
100
119
111
99
112
104
92
114
107
95
102
96
84
160
155
141
118
114
107
163
161
145
162
158
141
148
144
127
133
128
114
145
141
127
144
142
130
131
131
120
140
140
129
136
136
125
126
123
112
132
131
121
128
127
117
105
103
96
115
116
112
107
109
105
88
91
86
85
87
83
163
163
151
127
129
128
127
130
132
94
97
102
112
125
134
107
124
137
158
163
163
114
128
141
126
156
189
143
176
202
114
133
153
85
102
126
100
113
130
122
126
129
87
92
95
115
113
100
130
129
113
148
146
130
169
166
148
141
138
129
193
191
170
140
138
121
166
162
147
125
119
108
114
108
95
160
155
142
156
150
133
152
146
133
138
135
123
126
122
104
192
186
163
81
77
70
168
167
150
178
176
162
204
205
188
198
195
177
180
176
158
106
103
95
121
114
101
68
61
51
111
102
88
123
114
99
126
118
104
122
114
101
126
120
107
140
136
123
143
139
130
154
152
138
152
150
134
114
105
92
139
135
121
142
138
126
133
131
119
144
144
131
141
140
129
136
137
125
115
114
104
128
127
117
118
116
107
107
106
97
89
89
85
83
83
80
68
69
65
75
74
70
167
165
153
121
124
122
117
122
123
99
105
111
114
127
136
106
124
141
158
163
165
114
129
143
125
155
188
144
175
201
110
132
153
79
99
124
80
93
108
145
150
151
80
90
98
108
107
95
119
114
100
138
135
120
116
115
103
136
134
124
194
194
175
146
142
127
163
158
144
118
111
98
127
119
105
148
141
127
165
158
144
156
149
136
128
123
111
141
136
117
189
182
161
83
80
73
180
179
162
173
171
156
201
200
182
181
178
161
168
164
146
107
104
97
122
116
102
95
92
77
164
159
143
171
166
150
168
163
147
159
156
139
138
133
119
133
128
115
147
143
132
146
144
132
149
149
136
131
129
118
150
148
134
145
143
130
138
137
124
140
140
127
137
137
125
132
132
120
114
114
104
122
123
114
115
114
105
103
103
96
80
81
78
75
76
71
69
69
66
84
83
79
169
168
157
119
123
122
135
138
138
102
108
117
106
118
128
108
126
144
153
159
161
116
131
145
126
154
186
145
174
199
107
132
153
75
97
125
75
88
104
141
145
146
87
94
99
136
138
126
151
152
140
165
163
147
163
160
144
141
139
128
190
188
170
146
142
125
149
146
133
112
108
97
134
127
113
163
157
144
157
150
135
145
139
126
129
125
115
138
136
121
186
182
160
76
74
68
176
174
158
147
142
128
137
130
112
173
170
151
173
170
154
103
99
91
121
117
106
117
114
98
178
174
155
176
172
155
164
160
143
150
145
128
124
120
105
116
111
97
128
125
113
173
172
159
158
156
143
149
147
135
147
146
131
141
141
127
133
131
119
136
135
122
137
137
125
132
131
119
120
119
108
126
126
117
110
110
103
103
103
97
86
86
83
96
96
92
98
100
95
98
99
96
166
165
156
123
127
125
129
132
133
107
112
118
107
119
130
107
125
141
156
161
162
112
125
137
123
150
182
146
174
198
109
132
153
74
95
124
75
88
107
135
138
138
89
94
97
163
165
153
164
163
152
173
171
155
181
178
161
129
127
118
187
182
162
147
143
125
143
139
127
110
105
96
141
134
117
147
141
126
151
144
129
136
131
118
137
134
124
144
141
123
184
178
158
88
85
75
158
157
143
138
133
120
116
108
91
194
190
172
192
189
171
124
120
112
128
126
116
126
125
111
171
169
153
160
157
141
150
148
133
158
154
138
146
142
126
143
139
123
136
131
118
146
144
131
146
144
133
147
145
133
145
145
130
144
144
132
137
135
122
131
129
117
138
137
126
124
123
112
119
119
108
118
117
109
111
111
106
108
108
104
84
85
81
89
90
86
96
97
93
84
88
88
163
162
153
110
114
113
118
122
122
110
112
115
108
121
131
107
123
138
154
158
160
109
122
134
124
151
185
150
179
203
106
130
152
72
94
126
75
89
109
118
123
127
88
94
98
151
153
140
168
168
155
179
177
161
177
176
158
116
114
106
178
174
154
140
135
118
134
130
119
112
106
96
118
109
92
165
159
144
138
133
118
138
135
123
129
127
116
127
122
103
169
162
144
85
82
75
162
160
143
146
143
129
168
165
146
196
193
174
200
197
179
138
133
125
117
114
104
128
125
111
189
186
170
185
183
167
184
182
166
186
182
167
174
171
155
153
150
134
158
154
139
125
121
109
136
134
121
143
141
127
149
149
135
143
142
130
136
134
122
133
131
119
121
120
110
127
128
116
114
113
104
122
120
113
116
115
110
108
109
105
101
102
100
99
100
98
92
94
94
81
88
91
160
160
150
106
110
111
118
121
122
97
102
108
102
114
127
107
123
138
161
166
166
119
134
147
126
153
188
148
179
206
108
133
155
72
95
126
65
82
102
129
135
137
88
95
99
160
161
148
146
146
132
169
170
156
175
174
155
111
109
102
183
180
162
142
137
123
136
131
123
109
105
96
105
99
85
157
151
141
112
108
96
124
120
109
120
116
106
111
109
97
172
167
153
79
77
71
160
158
142
150
147
133
150
145
125
186
182
163
190
186
167
120
115
107
99
95
88
142
140
126
180
176
158
137
135
124
167
166
153
179
177
162
177
174
157
168
164
149
158
154
139
132
127
114
127
123
110
135
133
119
147
147
132
140
140
127
125
124
111
131
130
119
133
130
120
125
125
114
102
101
94
112
113
108
107
107
103
99
98
95
101
103
101
97
99
98
96
99
99
91
97
99
161
161
153
107
114
116
119
123
125
92
98
106
101
115
128
108
127
140
154
159
159
113
129
144
127
156
189
145
180
207
109
134
159
72
95
125
62
78
100
136
140
141
87
93
100
139
141
128
129
130
117
131
130
118
137
134
117
121
117
107
174
171
151
129
124
110
138
134
125
110
106
97
129
123
108
157
153
141
125
120
105
147
143
130
97
92
84
138
137
123
175
171
156
80
77
71
157
156
139
142
138
125
157
152
132
166
160
141
137
131
116
98
93
86
97
94
86
136
134
121
160
158
141
126
124
115
137
134
125
185
183
167
182
179
162
175
171
153
157
153
139
129
125
114
140
137
122
137
134
120
153
153
139
146
146
132
147
145
132
140
138
125
133
130
118
120
117
106
97
96
89
113
116
112
113
116
112
110
112
108
106
109
108
103
106
106
105
110
110
109
116
118
169
169
160
109
116
121
126
131
134
86
91
101
90
104
117
103
120
136
150
154
156
107
122
139
127
156
190
147
183
209
109
135
159
70
94
124
57
71
89
136
141
144
94
101
107
129
128
114
121
119
106
131
130
116
151
147
130
110
106
97
180
178
162
144
140
127
134
131
122
110
104
94
134
128
116
147
142
130
115
109
96
130
126
115
98
92
79
144
141
128
161
155
139
80
77
72
162
162
146
139
136
122
133
126
110
152
146
128
109
103
91
98
94
87
111
108
98
143
141
128
174
172
156
163
160
146
170
170
156
181
179
164
185
182
166
182
180
163
168
165
151
141
136
122
162
159
144
158
155
139
159
157
143
157
156
141
152
151
137
141
139
126
130
128
118
118
117
107
104
102
96
110
111
107
121
123
119
119
121
119
103
108
108
101
106
107
110
115
115
120
127
126
165
166
154
97
103
108
118
125
128
86
91
100
93
104
116
100
118
134
150
153
154
104
118
132
125
153
190
146
183
210
105
131
154
70
94
122
62
73
89
141
144
144
77
86
93
147
149
134
125
125
112
133
130
116
148
144
126
116
116
110
175
172
155
139
134
121
122
115
103
101
93
81
131
126
115
141
138
123
153
149
136
129
128
115
107
104
91
128
126
114
141
139
131
96
94
88
156
155
141
138
135
123
115
108
94
116
109
94
99
91
81
99
94
86
118
114
104
141
140
126
174
172
155
178
176
160
175
173
157
175
172
157
182
180
164
180
178
162
166
164
150
89
84
74
79
75
67
87
82
75
84
82
76
87
87
80
87
86
80
77
76
71
84
83
78
84
82
76
65
63
60
76
75
73
76
77
77
71
74
75
69
73
76
71
76
80
78
83
87
91
97
99
167
167
155
96
100
100
100
100
99
88
90
93
89
97
105
98
114
128
145
147
148
110
121
130
126
152
188
147
179
204
99
123
144
68
90
118
71
82
98
123
125
125
71
80
87
146
147
132
137
136
122
126
123
109
112
107
93
96
94
86
164
160
143
122
117
103
140
136
125
114
110
100
164
160
143
154
146
130
90
86
77
92
89
79
106
99
89
152
147
133
159
156
145
84
82
76
147
146
132
140
136
125
113
105
91
104
96
83
106
97
86
100
94
86
115
113
103
135
133
120
178
175
158
179
177
161
171
169
154
164
162
146
168
165
149
169
166
151
163
161
146
99
94
86
92
89
79
91
89
78
109
106
99
110
106
99
99
96
89
102
100
94
102
100
95
93
92
86
87
86
81
91
90
89
80
82
79
85
87
84
90
91
90
88
90
89
84
87
86
85
89
88
161
160
150
94
96
96
115
113
106
91
88
87
100
105
109
101
113
121
145
146
143
105
112
119
121
144
176
139
166
191
99
115
132
66
84
110
64
72
87
127
130
132
65
73
81
150
152
134
147
145
128
142
138
120
122
117
104
94
92
85
159
155
138
129
125
110
135
130
122
116
111
101
168
162
143
132
124
107
105
106
96
128
126
117
120
114
103
139
135
122
143
138
127
85
83
76
146
145
132
139
135
123
119
112
95
83
75
64
93
87
75
94
88
80
109
106
97
100
96
84
150
145
127
153
149
133
145
141
125
144
140
124
145
140
127
150
145
130
134
130
117
89
85
77
102
98
88
115
110
99
108
106
97
108
107
97
110
110
101
109
108
101
103
102
96
101
101
94
91
90
86
94
94
91
96
96
92
94
96
92
90
93
90
90
94
92
87
90
88
85
88
87
146
144
134
88
88
85
111
109
101
84
82
80
102
107
107
101
109
114
143
144
140
91
96
102
120
136
162
130
154
176
97
109
119
62
78
103
54
63
77
123
127
127
71
78
88
143
144
128
149
148
130
138
135
118
124
119
107
92
91
83
159
154
136
111
106
93
142
137
129
118
113
101
167
161
142
146
138
119
108
103
92
129
126
117
85
83
74
148
145
132
146
140
127
77
75
66
146
147
134
134
130
119
107
101
84
93
87
73
111
106
93
95
89
80
101
99
91
119
115
100
152
146
127
157
152
133
143
139
122
142
138
123
129
125
111
139
134
120
149
143
128
124
121
112
139
137
125
143
142
130
146
146
134
141
140
130
132
133
122
129
130
120
114
115
108
111
113
106
98
98
92
96
96
93
83
87
85
84
87
85
82
85
84
90
92
90
95
97
94
91
94
91
140
137
126
84
82
77
104
99
93
83
82
80
91
93
92
98
105
109
147
148
143
88
92
94
100
113
135
114
131
152
87
95
100
58
73
96
50
58
73
120
122
121
71
78
86
130
132
117
134
132
115
126
123
108
116
112
100
90
88
79
155
150
133
107
101
88
142
136
127
108
103
93
137
132
118
170
163
145
140
134
119
131
128
113
141
138
124
145
142
126
136
129
117
70
67
60
136
135
124
128
123
112
125
119
102
129
125
110
119
115
101
100
94
87
98
97
90
106
103
88
131
126
109
87
83
73
103
97
86
128
123
110
92
90
78
123
119
105
133
129
116
127
124
111
147
144
130
150
146
134
162
161
148
158
157
146
144
144
133
137
136
126
118
119
110
105
105
98
90
89
83
96
93
86
79
82
80
90
92
90
89
92
91
91
94
92
92
93
92
93
95
92
144
141
129
85
83
77
96
90
85
98
97
93
91
93
91
96
102
104
144
144
138
78
81
84
64
68
76
64
72
82
86
93
99
54
67
90
50
60
78
124
126
125
66
75
83
122
126
113
127
124
108
131
128
113
126
123
111
95
91
83
150
144
130
110
103
92
127
121
112
102
99
92
124
118
103
154
146
131
152
148
133
151
147
131
122
116
102
134
131
117
148
144
129
63
60
54
122
121
111
126
122
111
159
153
135
162
158
141
136
131
117
96
90
81
100
100
93
108
106
94
145
142
128
131
130
119
123
118
106
134
129
116
130
128
115
131
128
115
139
136
123
143
141
126
150
149
135
152
151
136
153
151
137
149
148
135
143
143
132
126
125
114
120
119
109
109
108
99
97
97
89
105
104
99
94
98
96
82
86
85
69
71
70
93
96
94
95
97
94
106
105
101
138
135
124
83
82
77
114
112
106
80
79
73
88
91
89
96
99
100
139
138
131
66
69
73
58
62
66
70
74
82
88
93
99
75
80
88
57
64
75
122
125
126
67
75
82
132
135
123
133
133
118
139
136
122
122
119
108
95
90
81
132
128
112
116
110
99
130
123
114
103
98
89
122
115
98
143
137
123
130
124
112
96
91
79
107
102
91
114
111
100
143
140
125
65
62
57
114
112
100
141
138
125
159
155
137
175
171
154
162
157
141
102
97
87
95
94
87
103
101
90
141
139
126
138
135
122
129
125
113
139
136
122
161
159
144
160
157
142
153
150
136
144
142
128
144
141
126
150
147
134
151
149
136
142
140
127
132
131
119
117
115
105
121
121
112
115
114
106
106
105
97
111
111
104
98
102
99
83
88
87
77
80
81
104
107
105
84
88
87
83
82
80
134
131
118
79
80
75
110
110
100
82
78
71
95
95
93
95
98
98
129
127
121
72
77
79
87
87
86
80
81
83
111
112
114
66
71
81
52
56
67
114
117
118
68
75
82
111
113
103
116
116
105
131
129
116
111
109
98
94
91
81
140
136
121
110
104
93
119
113
105
101
96
88
124
116
101
128
122
108
129
122
111
111
106
94
104
98
87
114
112
99
145
141
126
72
70
63
119
116
101
141
137
123
185
182
166
174
170
154
168
163
147
114
109
98
96
93
85
84
81
72
147
144
130
145
142
128
143
141
127
135
133
119
152
149
133
160
156
140
147
143
128
134
131
118
137
135
121
142
142
129
152
150
137
144
142
129
133
132
120
124
124
112
118
117
107
111
110
102
95
95
88
104
103
96
97
99
93
98
100
97
84
85
84
98
101
100
88
91
88
80
82
77
133
129
120
84
83
78
98
94
83
69
58
51
93
92
89
96
99
98
123
122
118
48
49
50
65
64
64
68
69
70
84
88
93
54
61
73
53
56
62
108
110
111
62
68
73
86
86
77
113
111
96
113
109
97
103
100
88
98
95
83
136
132
122
108
103
93
115
109
101
102
98
90
121
113
98
121
113
100
119
113
103
112
107
96
106
102
91
111
106
92
142
137
120
74
71
65
132
128
115
127
122
111
177
173
155
165
161
144
161
156
139
108
103
93
94
91
81
81
79
72
132
130
117
137
133
120
116
113
102
80
75
66
83
78
67
132
128
114
137
132
119
122
119
107
130
127
114
137
135
122
147
146
132
146
144
131
138
137
125
127
126
116
116
115
106
106
106
98
86
87
81
92
91
87
101
100
94
89
89
85
66
65
64
72
73
72
69
71
70
65
66
64
110
106
94
80
78
70
96
91
82
74
65
56
89
89
83
90
93
93
118
118
115
90
91
90
94
90
88
84
84
86
88
91
93
57
61
70
69
63
63
124
121
114
59
62
65
87
89
83
125
124
110
130
127
114
116
111
98
94
89
78
105
99
89
86
83
76
101
96
88
83
79
70
98
90
77
115
108
95
113
107
97
103
99
87
106
103
96
97
92
79
118
112
98
63
61
57
116
113
101
124
120
109
163
157
141
164
158
141
126
121
109
94
88
81
92
90
80
93
91
80
133
129
115
134
130
116
118
115
102
124
120
108
113
110
98
121
118
106
123
120
107
128
125
113
138
135
121
146
144
130
141
139
127
134
133
121
129
128
117
122
122
113
109
109
102
100
99
92
79
79
73
85
86
81
93
93
87
96
96
92
85
85
81
64
67
66
56
60
58
75
76
72
125
121
110
73
73
67
93
93
89
63
62
58
79
81
80
74
79
84
108
109
106
96
98
93
136
113
93
134
115
102
101
100
95
69
70
74
109
89
84
114
107
100
58
58
60
84
85
78
103
102
89
108
104
91
113
108
94
88
80
72
127
121
110
99
94
83
113
106
99
97
93
84
103
96
83
121
115
103
100
93
83
89
84
74
96
94
86
96
93
81
139
134
121
73
73
68
127
123
111
124
120
109
125
118
105
139
133
118
125
120
108
93
88
80
92
89
79
89
87
77
135
130
116
127
124
109
114
110
98
129
126
114
123
121
110
128
125
113
121
118
106
135
133
120
148
145
130
146
145
132
140
140
128
125
124
113
115
114
105
111
110
102
104
104
97
91
90
84
77
77
71
89
89
84
101
100
92
98
94
89
92
93
89
93
96
94
71
73
70
93
94
90
140
137
124
93
93
88
110
111
107
74
73
71
85
87
88
76
84
89
115
114
106
69
69
68
74
68
67
86
86
86
85
87
88
66
69
74
70
57
57
115
110
104
72
74
74
91
94
86
103
102
91
119
116
102
120
115
100
87
79
70
125
121
107
102
96
86
106
101
92
92
88
79
105
97
86
118
112
100
95
89
80
100
95
85
91
87
80
96
92
80
127
124
111
60
58
54
112
109
97
112
108
99
80
74
67
99
93
83
106
102
91
91
87
78
82
79
73
91
88
79
125
121
108
125
121
108
117
115
102
126
122
110
130
126
114
133
130
117
133
129
116
127
125
113
143
140
126
145
144
130
136
136
123
121
120
110
113
112
102
108
108
99
104
103
95
96
95
88
93
92
87
92
91
86
101
97
90
106
102
93
96
95
90
80
80
76
90
92
87
82
82
79
139
136
127
87
88
83
108
109
106
75
75
73
86
90
90
79
88
94
135
133
122
83
82
82
70
66
66
73
73
77
96
99
100
60
64
74
51
52
58
124
121
114
72
76
79
100
102
93
102
100
88
120
117
101
101
96
85
97
88
76
123
119
105
95
90
81
98
91
81
89
85
75
120
114
100
118
111
99
114
109
97
109
105
95
89
87
79
105
101
89
120
115
103
59
58
53
113
109
99
129
125
112
135
132
122
148
145
129
104
101
90
86
84
75
88
87
78
79
75
66
102
99
87
111
108
96
112
109
97
117
115
104
122
121
110
127
125
113
134
131
117
128
125
116
142
138
126
141
138
122
133
131
119
120
119
108
111
110
101
114
112
103
113
111
102
110
109
101
99
98
91
101
101
95
102
101
93
105
103
95
106
105
101
92
91
88
97
97
93
84
86
84
133
132
124
91
92
89
106
106
104
77
78
76
84
87
86
80
88
92
141
140
130
73
74
76
63
63
65
61
62
66
86
91
93
52
62
76
53
55
64
116
114
107
68
73
77
84
84
76
89
89
80
113
108
96
115
111
99
94
88
77
117
113
98
93
88
78
101
94
84
79
74
64
127
119
103
114
107
95
83
80
71
113
110
101
75
73
64
109
107
96
121
117
105
61
59
54
107
104
94
132
127
116
160
157
141
143
138
124
137
134
121
108
105
95
88
90
85
80
69
61
96
92
82
103
100
90
114
111
99
111
108
97
114
111
99
122
119
108
127
125
113
124
120
111
136
134
122
129
126
112
119
116
105
108
107
97
103
102
93
115
113
103
110
109
99
105
104
95
95
95
87
91
91
85
90
91
88
96
98
96
99
102
102
90
95
96
77
83
85
74
79
83
125
123
116
99
101
98
102
104
103
79
81
82
80
84
84
80
89
91
140
142
135
58
62
66
49
52
56
49
53
57
78
84
89
47
57
74
61
63
72
97
95
90
72
73
74
70
70
63
80
79
70
100
96
86
105
100
89
88
84
73
117
112
98
89
83
73
97
89
79
85
79
70
123
115
102
117
110
96
96
93
84
91
88
80
82
79
72
107
104
97
121
116
103
62
60
56
104
101
91
125
119
108
157
153
137
143
137
121
146
142
128
108
104
96
87
90
85
85
82
74
112
109
97
112
110
97
118
116
107
96
95
85
105
101
89
116
113
102
123
120
109
118
113
102
123
119
107
117
114
101
109
107
97
101
100
91
102
100
91
108
107
98
105
104
95
97
95
88
84
83
77
82
83
79
77
79
79
82
86
88
106
116
121
114
126
132
82
91
97
77
82
86
126
123
114
98
98
95
108
109
107
78
80
81
82
85
85
80
88
89
133
133
127
73
76
79
63
64
65
57
59
61
75
80
83
48
57
73
61
63
73
111
109
102
72
73
73
44
43
37
64
62
54
87
85
77
92
89
79
79
76
65
117
113
100
84
79
70
99
91
80
83
76
65
72
67
56
115
109
97
103
99
89
106
102
93
102
97
87
77
76
66
129
124
109
62
61
57
102
99
87
127
121
111
149
146
131
158
152
135
156
150
135
100
98
90
83
81
76
77
76
69
112
111
102
121
120
109
105
103
94
96
94
87
95
92
82
100
97
87
98
94
84
111
107
98
112
108
95
110
107
96
107
105
94
102
101
91
98
97
88
102
101
92
102
100
93
91
89
83
78
78
72
76
75
72
75
77
75
80
82
81
86
89
89
86
90
91
74
78
83
73
77
76
127
124
115
83
83
78
101
100
98
73
74
72
78
81
80
80
86
88
125
124
118
64
66
65
45
45
45
46
47
47
60
65
68
45
52
66
57
58
65
105
103
97
69
69
69
58
57
49
83
82
73
87
86
77
81
79
70
87
84
72
113
109
95
82
79
69
102
94
84
77
70
59
85
80
70
123
117
105
117
109
95
134
126
110
78
71
61
103
100
90
120
116
105
72
70
66
104
100
90
119
114
105
147
143
129
156
153
137
156
154
138
95
92
84
90
87
82
68
67
60
114
113
103
132
132
121
120
119
110
117
114
105
95
94
88
94
92
84
90
88
82
114
111
101
100
96
86
101
99
88
97
95
85
96
95
87
89
88
79
99
97
89
98
96
89
87
87
81
78
78
71
80
79
74
85
85
81
85
84
80
87
88
85
86
86
84
69
71
71
71
73
71
137
134
125
73
72
69
105
103
97
69
67
64
80
81
79
78
80
79
122
118
110
77
74
71
65
63
60
55
55
53
64
67
68
46
51
61
47
48
53
100
98
94
65
64
61
73
72
64
91
91
82
103
101
90
96
93
83
90
85
74
112
107
93
83
79
70
92
86
75
80
73
62
79
75
67
120
115
104
93
86
75
85
79
69
79
74
67
82
79
70
118
112
99
58
55
50
102
99
87
119
115
105
140
137
123
150
147
132
151
148
132
104
100
92
84
81
74
69
66
58
120
117
106
129
126
115
126
123
114
117
115
107
101
100
92
101
97
92
85
84
78
110
107
98
96
93
84
96
94
86
91
90
82
90
89
80
83
80
72
91
88
80
97
95
86
93
90
84
75
74
69
101
98
91
75
74
68
93
91
88
85
86
85
82
85
85
80
82
81
77
78
74
138
136
128
67
69
65
88
85
78
65
62
60
78
78
74
73
72
70
112
107
99
74
71
67
61
56
52
57
54
54
74
73
73
67
58
58
59
51
53
87
85
82
57
55
52
85
86
76
90
90
79
98
96
83
97
94
83
79
75
65
112
106
92
81
77
68
93
88
78
85
78
67
84
79
70
117
112
101
101
93
82
100
95
84
98
94
86
87
82
71
116
109
96
54
50
45
99
96
86
118
113
104
136
131
117
122
118
105
140
137
120
98
94
86
77
73
66
44
41
37
74
68
64
78
72
66
85
79
75
75
72
65
69
66
60
100
98
90
83
80
75
100
98
88
99
96
86
94
93
84
89
88
79
89
88
80
92
90
81
96
93
84
103
100
92
94
91
82
79
77
71
92
89
82
85
82
76
70
68
65
77
77
74
90
89
84
83
81
78
84
82
76
112
109
101
72
73
71
88
85
80
70
68
68
88
87
83
77
78
75
119
114
106
69
61
56
60
48
41
69
55
49
85
78
75
53
48
50
43
40
43
106
106
105
57
57
56
85
87
78
87
86
76
87
85
74
76
73
62
71
67
58
110
104
92
81
77
68
86
80
69
84
78
65
81
75
66
111
102
91
106
97
86
101
95
85
86
82
75
80
74
62
117
110
95
51
47
43
104
100
89
110
105
97
105
101
88
86
83
72
115
109
95
99
96
91
73
69
60
47
43
40
58
54
50
81
76
68
69
65
58
68
64
59
71
67
59
93
89
81
73
71
66
75
74
67
81
78
70
90
88
79
97
94
85
98
97
87
102
99
90
109
106
95
98
94
86
94
92
83
71
69
65
81
80
76
65
65
63
68
67
65
76
76
73
78
77
73
77
76
74
82
82
79
130
128
119
84
84
82
85
83
80
75
76
76
83
85
83
78
77
75
119
113
105
84
69
61
88
60
43
99
66
48
94
82
76
57
53
56
51
47
52
105
104
102
55
53
52
64
65
58
86
85
76
92
88
78
75
72
62
72
69
61
105
100
88
77
72
64
86
78
69
71
65
56
78
72
65
99
92
79
103
95
83
89
85
76
88
85
78
71
65
54
111
104
92
56
54
49
94
89
80
103
99
90
70
67
59
92
88
75
84
79
68
82
78
70
77
70
62
48
46
44
70
66
61
79
74
66
78
72
64
76
70
61
72
68
58
72
69
60
76
74
68
78
75
66
83
79
69
98
93
82
95
91
81
101
97
87
90
88
78
104
100
89
97
94
85
100
97
90
86
85
81
72
70
67
63
64
62
70
70
69
82
82
77
91
89
87
75
76
77
72
73
74
128
125
117
81
82
83
86
86
87
72
74
74
86
86
84
80
75
72
123
113
102
103
80
66
111
78
55
121
84
60
96
75
66
62
53
53
57
51
56
108
103
99
62
60
58
57
55
50
68
66
60
52
49
44
67
63
54
62
59
50
100
95
83
76
70
63
84
77
68
66
61
52
71
64
57
102
94
81
98
91
81
84
81
72
100
97
90
76
71
60
111
104
91
58
57
53
92
88
78
103
97
89
71
66
61
84
80
70
74
70
61
64
59
52
78
73
64
52
50
44
95
90
79
89
85
76
95
91
83
105
101
92
71
67
61
80
77
67
68
68
63
90
88
77
95
91
80
103
98
86
104
99
88
106
102
91
99
96
86
103
101
92
90
90
83
84
83
77
67
65
62
76
75
71
67
69
66
69
70
68
81
81
78
79
79
76
76
77
76
72
73
73
129
127
121
76
82
84
83
90
99
65
72
81
87
85
84
84
73
70
118
100
87
116
81
62
149
121
94
149
112
85
112
82
67
67
54
50
89
62
60
104
90
81
60
56
55
56
55
49
67
63
55
76
72
63
76
69
59
57
54
46
101
94
83
75
68
61
88
82
74
67
62
55
64
59
51
92
84
74
97
92
81
81
77
68
92
90
83
72
67
55
109
101
87
49
47
43
92
87
76
99
94
85
76
71
62
89
85
76
78
73
64
61
55
48
77
73
63
35
33
31
74
70
64
85
82
75
99
95
88
88
84
76
88
84
77
93
91
81
81
80
75
84
83
76
92
89
79
93
89
80
99
96
86
104
100
90
95
92
83
96
93
85
90
88
82
92
89
84
84
81
76
72
71
68
62
63
62
69
71
70
65
66
66
68
69
71
63
67
69
63
69
76
116
118
115
92
97
103
88
111
136
75
100
131
94
94
101
89
80
76
122
103
90
117
84
66
157
134
108
148
113
85
113
85
70
72
57
52
103
65
54
106
88
78
58
53
51
65
64
57
72
69
61
80
75
65
80
72
62
72
64
53
99
94
84
83
76
67
97
90
83
71
66
59
68
62
53
82
75
65
78
73
67
80
75
69
80
77
69
71
65
54
104
96
81
44
42
38
85
81
71
99
94
84
95
91
82
75
74
65
91
86
77
66
60
54
60
58
53
64
63
57
92
89
81
103
100
91
87
84
76
89
85
77
93
87
74
90
86
76
106
106
100
77
76
73
85
83
77
91
88
79
101
97
87
103
99
89
97
92
82
92
86
78
85
83
77
86
83
79
83
80
73
113
110
103
88
89
84
87
88
86
88
89
89
98
101
104
110
115
118
95
99
103
114
115
113
77
82
90
71
90
113
64
81
107
90
89
94
87
82
80
113
98
86
108
77
60
155
131
104
139
106
82
108
85
71
67
55
49
66
46
42
94
80
71
61
53
49
94
92
83
95
91
82
89
84
75
75
69
58
75
70
62
97
91
79
83
75
66
101
94
83
64
59
52
63
57
50
94
88
75
80
75
69
96
91
84
75
72
64
70
64
53
109
102
88
39
37
33
85
83
76
96
92
83
84
79
68
73
68
60
89
82
73
72
68
62
72
70
63
63
60
53
103
97
84
107
100
90
89
84
76
97
93
83
100
94
83
91
86
77
98
95
87
95
93
87
85
83
79
103
99
92
133
127
114
120
115
106
98
96
90
81
79
74
67
66
62
69
69
64
94
92
87
72
70
65
62
63
62
85
86
85
78
83
83
80
84
87
75
81
85
72
78
83
99
99
95
70
72
75
72
75
79
68
67
70
86
85
84
77
74
73
107
95
85
104
75
61
157
134
108
154
127
104
110
87
76
67
54
48
60
39
36
113
84
70
78
53
45
134
133
124
131
129
120
119
117
109
108
105
95
113
106
93
100
92
78
74
67
58
98
90
77
51
47
42
71
66
60
87
82
71
86
81
74
93
88
80
61
57
51
65
59
48
93
87
74
37
35
33
85
82
75
94
88
80
89
83
72
84
80
71
99
93
83
65
59
55
70
66
59
75
71
64
103
96
84
107
100
89
102
96
88
118
113
100
119
113
101
106
103
94
107
104
90
99
94
87
90
87
81
94
89
86
139
130
119
136
128
118
132
128
119
117
114
108
99
97
92
80
79
76
80
80
76
79
77
73
70
69
67
65
66
65
69
71
70
63
65
64
48
52
52
78
79
81
98
98
94
59
59
60
65
66
68
65
64
66
92
91
88
73
73
73
106
98
89
94
72
61
151
132
107
141
115
91
101
85
76
65
55
50
67
51
44
135
84
58
86
55
43
92
89
78
94
91
80
94
91
80
81
79
71
81
77
69
93
88
80
93
90
83
81
76
64
23
22
19
51
49
40
62
61
52
35
33
28
35
32
29
32
29
26
50
46
39
57
52
45
86
83
77
110
109
101
90
85
75
98
91
82
67
61
51
93
87
77
70
64
58
65
59
52
78
74
64
104
99
88
108
103
92
98
92
83
118
112
99
117
111
99
108
105
93
106
101
91
102
97
88
91
86
77
101
96
88
98
93
84
103
98
90
101
96
89
82
78
71
72
68
62
67
65
63
86
84
79
78
77
73
72
71
67
61
61
59
65
64
62
58
57
55
52
54
52
73
73
71
91
89
84
53
51
50
64
64
63
66
65
67
81
80
78
69
69
69
111
107
100
70
61
59
105
87
76
90
66
55
81
73
70
70
66
63
86
81
81
58
51
50
57
44
38
81
79
71
87
85
75
90
86
77
72
69
63
84
81
73
84
82
74
97
92
80
101
96
85
131
127
115
131
127
113
130
125
112
114
108
94
109
102
87
117
109
95
120
112
100
119
113
102
141
137
126
96
93
85
84
79
71
79
73
66
74
68
58
94
88
79
79
73
66
62
56
47
74
69
60
99
93
82
104
99
89
98
92
82
105
99
87
103
97
85
65
58
50
99
94
83
88
84
74
74
71
64
57
55
49
65
62
57
98
93
85
86
80
72
53
48
43
56
52
47
64
61
56
55
52
48
57
53
50
66
62
58
77
76
69
73
70
64
65
64
58
59
60
55
74
72
70
80
77
72
51
49
47
68
67
63
63
60
60
73
72
69
65
66
65
103
100
97
60
58
57
54
47
51
47
42
44
65
62
61
54
53
54
63
62
65
67
65
64
57
53
49
71
68
59
80
75
65
83
76
66
87
81
70
84
79
69
91
87
76
85
79
68
72
68
59
85
83
76
95
92
84
91
88
82
81
77
71
80
75
70
77
73
68
80
75
70
96
92
86
109
104
96
76
73
67
88
83
75
62
59
55
72
67
57
93
89
78
72
64
55
67
60
50
68
62
54
89
83
74
83
77
68
88
81
73
91
83
73
87
81
70
100
95
84
98
93
85
75
70
62
76
71
62
73
66
58
68
64
56
78
73
63
77
71
64
61
55
50
60
56
51
61
57
53
60
57
52
78
74
68
64
60
54
65
62
55
68
64
57
64
61
56
53
52
48
63
62
60
102
98
91
61
60
56
94
92
86
69
66
64
89
87
83
66
67
66
89
87
84
58
58
58
52
50
52
43
43
46
55
55
56
50
50
50
52
52
55
84
83
84
42
41
39
44
41
36
46
42
36
52
48
41
64
60
51
67
63
55
78
75
66
86
82
72
57
53
45
106
106
94
106
105
90
87
84
73
95
92
82
90
87
77
94
92
79
108
106
91
98
96
82
70
68
60
85
82
75
86
80
70
94
82
75
79
74
63
106
101
89
66
59
52
57
50
42
54
50
45
82
78
73
91
87
79
95
89
80
98
91
80
86
79
68
93
88
80
76
74
67
68
64
59
53
49
43
60
54
48
61
57
50
60
56
50
50
46
43
60
57
52
71
67
62
70
68
63
72
69
64
70
67
62
69
67
62
68
65
61
67
65
61
72
70
68
60
60
57
49
47
44
111
110
103
58
56
54
86
86
79
68
64
61
80
78
73
64
65
63
93
89
86
43
41
41
38
37
37
37
36
38
57
57
55
50
49
50
54
53
52
33
32
32
35
32
31
44
44
42
55
55
49
59
56
48
60
55
48
72
69
62
85
79
70
61
58
51
104
103
95
206
208
204
208
208
194
144
141
125
202
200
182
174
170
154
169
168
158
214
215
203
147
146
134
48
46
40
71
67
59
93
88
79
100
90
81
101
96
84
114
108
94
66
59
53
65
58
52
37
35
32
69
66
60
73
69
62
72
68
61
73
68
61
69
64
59
87
85
79
59
57
54
56
54
49
71
67
58
72
68
58
64
61
53
61
57
51
57
54
46
55
50
43
56
53
46
57
55
49
58
55
49
46
42
38
51
47
41
42
40
37
36
36
35
37
38
38
37
38
38
48
49
47
112
110
103
57
55
52
72
69
63
61
57
52
68
66
60
62
62
59
96
91
86
38
35
33
58
54
50
39
35
33
58
54
53
43
42
43
31
31
31
42
39
37
35
31
30
51
52
49
70
69
61
77
73
64
56
53
47
74
71
64
89
83
74
64
61
53
77
74
65
120
119
109
91
87
76
66
63
59
80
75
69
74
70
64
68
66
65
96
93
83
65
62
54
34
32
29
68
64
56
90
84
75
105
97
86
90
86
76
95
91
80
64
58
52
72
64
54
54
53
50
84
83
77
97
94
83
93
90
79
100
93
82
77
71
61
79
75
68
58
56
53
72
69
61
89
83
73
96
91
80
90
87
75
85
81
71
86
80
68
94
86
73
95
88
77
93
88
76
81
78
68
70
67
59
56
54
47
68
66
59
57
55
53
60
58
54
72
71
68
93
91
88
92
89
83
60
58
55
83
80
71
58
54
50
84
81
75
61
60
57
101
95
88
64
58
56
51
45
41
44
37
33
62
55
52
40
38
38
29
27
28
37
34
32
32
30
28
52
53
48
67
66
58
81
79
69
59
55
49
61
60
54
85
80
70
66
62
54
82
77
68
88
84
73
44
41
36
54
51
48
78
72
65
80
76
69
58
55
49
84
79
71
60
58
50
32
30
27
77
72
61
88
82
72
101
94
82
87
82
71
91
86
79
62
56
50
59
54
46
25
24
22
46
43
40
55
51
47
49
44
40
52
47
42
88
82
71
82
76
67
73
70
65
86
82
73
77
73
64
82
79
69
93
89
78
93
88
77
108
102
87
108
100
87
103
96
84
99
93
81
84
79
70
80
75
67
83
79
70
75
71
62
63
59
56
67
64
59
61
59
54
64
61
56
93
90
83
56
52
48
89
85
77
73
70
66
84
81
76
61
59
57
94
86
76
56
48
43
77
63
53
58
37
28
62
52
46
45
40
39
35
32
33
38
35
33
36
34
32
48
48
43
64
62
55
55
52
45
65
60
53
57
57
51
73
68
58
66
62
52
87
81
69
97
89
76
34
33
29
57
53
48
84
78
73
78
74
68
60
55
50
73
69
60
59
57
51
39
37
33
72
68
56
89
84
73
94
87
74
72
71
65
93
87
79
66
62
56
62
57
50
25
23
22
42
39
36
52
47
42
55
52
47
43
39
36
68
64
60
74
69
61
64
61
57
82
77
69
74
70
62
86
83
74
83
79
69
89
85
74
101
96
84
106
99
87
107
101
90
99
93
81
91
86
76
88
82
72
93
86
73
85
78
67
77
69
62
80
74
67
63
59
52
77
72
63
79
73
66
51
48
43
78
73
66
67
64
60
83
81
76
59
58
57
97
88
79
58
49
43
88
63
47
81
49
30
80
66
57
50
41
37
78
73
70
41
40
40
45
41
40
57
56
50
67
65
57
66
63
55
69
63
53
47
51
48
76
71
61
61
56
49
90
81
70
84
73
67
38
35
31
62
56
49
90
84
76
73
69
61
55
50
44
64
61
51
65
52
45
37
34
31
69
64
54
90
84
74
97
91
79
50
48
40
93
88
79
62
58
53
68
61
53
31
29
26
67
63
58
81
77
69
81
78
70
72
69
62
90
85
78
64
60
52
65
61
56
82
78
70
70
65
57
73
69
60
79
75
67
83
79
70
87
83
72
93
87
77
90
86
75
91
86
75
78
75
68
86
79
67
96
85
70
86
70
56
113
87
69
95
77
58
72
61
46
66
57
46
92
85
75
55
50
47
76
70
62
61
59
54
79
76
71
61
61
59
88
84
79
63
53
47
129
86
57
127
71
39
81
65
56
51
43
38
46
35
32
36
35
35
42
38
36
47
45
40
59
56
49
55
52
43
60
54
46
75
72
65
83
79
68
58
54
48
75
69
62
57
52
42
34
30
26
57
50
43
70
63
57
66
62
54
50
46
41
61
57
48
75
68
57
28
26
24
65
60
51
80
75
66
93
86
72
47
43
38
92
86
77
60
54
49
66
60
51
43
42
38
93
90
82
101
99
90
99
96
90
95
95
87
61
58
51
74
71
64
72
68
62
68
64
58
55
52
47
67
64
56
64
61
54
71
67
59
72
68
61
73
69
62
71
68
61
68
64
57
69
63
56
82
74
63
88
72
58
95
75
57
119
91
64
118
92
66
120
99
75
93
79
64
87
78
67
52
48
43
74
67
59
64
58
54
72
70
64
62
62
62
92
89
85
50
41
37
97
60
35
103
63
39
76
60
52
57
49
44
75
62
54
60
55
52
106
101
97
126
127
119
131
130
121
122
120
111
116
112
102
102
99
89
69
65
57
56
52
45
67
61
54
52
48
38
44
38
31
65
58
47
71
65
58
64
61
54
50
46
40
64
59
50
72
66
56
32
30
27
66
61
53
75
69
60
73
67
56
61
56
47
76
70
61
54
48
43
63
57
48
39
38
34
64
63
58
88
86
76
65
63
56
82
75
63
75
73
65
65
63
58
64
61
54
59
57
52
60
58
52
64
62
56
69
66
59
69
67
62
63
60
55
79
75
68
75
71
64
76
73
66
64
60
54
70
61
52
81
67
56
89
74
59
100
77
57
107
83
63
98
82
66
80
70
57
85
77
67
53
49
44
57
51
45
53
48
41
69
64
58
60
58
57
92
88
81
52
43
39
66
45
37
59
40
31
61
49
42
46
37
33
58
40
33
82
53
36
58
46
39
49
50
46
58
58
52
58
56
50
58
55
47
69
66
60
60
57
51
47
42
36
63
57
49
60
52
42
46
41
33
62
54
44
70
64
59
54
51
44
53
50
45
53
50
41
72
68
57
38
36
33
63
58
50
68
62
54
41
38
34
56
52
45
59
55
47
49
44
38
61
57
47
29
29
25
47
45
41
61
60
52
57
56
50
66
60
51
51
49
45
56
55
49
56
54
48
56
53
48
60
58
52
67
64
57
68
65
59
71
68
61
64
62
55
76
73
66
75
73
66
77
76
69
67
63
57
72
64
55
72
63
52
75
65
52
86
75
60
77
65
51
61
52
42
59
52
43
82
76
65
48
44
39
64
59
51
58
53
47
68
66
59
59
57
54
97
92
82
53
48
45
78
71
65
64
58
53
65
55
49
52
44
40
82
48
34
194
166
117
90
64
44
54
51
46
58
56
48
61
59
52
65
61
53
61
58
51
72
68
62
41
37
32
71
64
55
61
55
45
52
47
37
69
61
52
66
61
56
46
44
38
46
42
39
51
48
39
74
67
56
32
30
26
69
63
53
69
64
55
48
45
39
63
61
54
53
49
41
46
42
37
63
57
48
37
36
33
70
68
62
68
67
62
73
73
66
59
58
54
56
54
48
81
76
64
78
75
64
75
71
64
81
79
70
76
73
65
67
64
58
76
74
65
69
67
59
80
77
70
79
78
69
83
79
71
75
70
62
82
76
67
69
63
56
52
47
42
57
53
46
55
50
42
59
53
45
76
75
70
82
77
70
52
46
40
92
86
78
64
59
53
75
73
66
55
52
48
99
94
86
33
30
28
48
44
42
43
38
36
55
47
43
40
33
31
55
42
36
103
84
66
90
63
46
36
33
28
37
35
29
39
37
32
52
49
42
63
61
53
71
67
61
45
41
36
70
65
56
55
50
42
46
43
35
81
74
65
63
57
50
61
55
47
47
44
39
45
40
32
70
64
53
23
22
18
58
54
45
74
68
59
37
33
29
38
35
29
46
42
35
45
41
36
56
54
46
29
27
23
56
52
44
59
57
50
56
54
48
40
37
32
76
71
63
85
79
67
85
81
73
47
44
38
51
48
43
47
44
38
52
49
44
52
49
44
54
52
45
56
53
47
56
53
48
59
57
50
57
53
47
59
53
46
61
55
49
51
46
41
57
53
47
55
51
43
53
49
42
55
53
47
75
70
63
53
47
41
85
80
70
56
52
46
73
69
62
56
53
47
93
89
82
32
30
28
34
32
29
33
31
29
41
35
32
32
29
29
38
31
29
43
36
31
53
42
34
53
52
50
49
49
44
53
52
48
47
46
43
54
53
45
64
59
51
44
39
34
54
50
43
46
43
35
39
35
28
65
58
50
58
52
44
57
50
42
52
47
43
45
40
33
71
63
51
25
23
21
64
58
48
82
76
67
47
43
36
56
52
43
50
45
36
37
33
29
45
42
35
25
23
21
49
45
40
43
40
36
52
49
44
50
46
41
76
70
57
85
78
66
76
70
57
56
52
49
76
73
65
71
68
60
63
61
54
67
65
58
65
62
57
72
69
65
75
73
69
72
70
65
59
56
50
60
53
47
53
48
42
53
50
44
63
58
50
57
54
47
58
54
47
41
37
31
76
72
64
47
41
35
86
82
74
53
49
43
58
53
47
57
52
46
87
84
76
20
19
20
25
23
23
21
21
20
50
46
44
31
27
28
25
22
23
40
38
36
37
33
32
