P3
# Created by GIMP version 2.10.38 PNM plug-in
256 256
255
133
133
123
100
100
90
122
123
114
136
136
129
142
141
131
150
146
127
160
157
134
163
158
137
180
177
155
140
137
121
124
124
112
109
109
98
167
169
153
192
190
171
214
215
188
140
138
124
82
86
78
216
213
201
149
143
123
80
76
62
137
139
129
230
233
219
202
201
178
197
197
167
200
199
171
119
115
100
58
54
43
118
110
91
159
149
128
110
107
97
149
144
127
151
145
131
182
178
161
243
240
223
139
127
109
47
43
36
46
41
32
60
55
42
124
119
99
174
169
145
192
186
167
199
192
178
57
51
44
97
90
78
206
193
174
133
126
112
120
118
107
154
149
138
162
154
145
75
70
62
65
59
47
209
200
178
187
180
158
45
43
29
114
110
99
98
94
86
64
61
51
124
117
100
172
163
137
178
169
144
217
205
180
138
127
110
101
93
78
54
47
41
54
48
39
80
74
66
51
44
36
110
104
92
132
120
107
124
122
113
215
211
194
205
203
180
211
209
185
188
180
167
74
68
58
198
198
185
213
210
189
216
215
189
213
212
189
109
103
90
134
127
109
177
175
153
187
185
163
179
176
154
190
185
162
191
185
162
195
189
168
189
184
161
133
127
113
122
113
98
108
104
93
81
76
66
191
181
166
112
103
92
23
22
20
23
23
21
48
46
39
84
77
67
114
105
90
144
132
112
143
132
111
129
117
97
124
112
92
152
138
119
186
176
151
122
117
100
66
63
56
39
37
29
93
91
83
116
116
102
99
98
87
62
58
54
88
85
76
107
103
88
130
127
105
120
115
103
87
82
74
143
140
122
146
143
122
141
138
118
155
149
129
150
144
125
107
105
91
164
157
140
120
113
99
142
135
121
159
151
132
159
152
133
126
124
107
123
117
98
48
43
37
42
39
33
91
89
80
116
114
99
119
117
102
132
127
112
128
124
106
133
127
109
135
129
113
124
117
102
122
116
100
112
106
90
107
102
88
101
97
83
109
105
91
119
114
100
115
110
94
124
120
103
124
118
102
120
114
98
114
108
90
122
116
98
106
105
90
103
101
91
87
84
81
80
75
69
85
81
76
76
72
69
83
82
77
68
68
60
66
64
58
81
80
75
86
84
81
89
86
83
88
87
80
57
55
53
60
57
52
80
77
68
87
83
71
93
89
73
94
89
75
96
92
78
91
84
72
100
93
78
91
84
73
79
72
62
99
92
81
103
96
85
100
93
82
43
40
34
98
93
85
50
45
40
53
47
43
62
56
53
67
62
54
64
58
53
75
70
60
76
70
64
60
55
47
68
63
52
75
68
60
56
50
40
67
58
47
82
72
63
68
61
52
70
63
53
155
147
128
157
151
138
158
149
132
154
151
126
128
126
111
134
128
112
27
24
23
101
99
88
121
113
92
27
24
20
143
137
117
100
94
76
30
29
24
135
129
113
62
59
50
73
70
61
123
113
94
30
28
21
74
73
66
153
149
130
87
85
76
113
111
100
108
104
95
65
64
59
42
41
39
195
192
178
127
116
98
123
115
97
143
135
119
73
64
55
137
85
46
221
194
151
80
54
41
70
61
55
65
55
47
56
46
38
61
50
40
65
55
45
61
52
43
66
46
32
142
81
45
202
152
94
80
60
50
120
107
101
103
93
80
55
50
47
15
13
12
58
53
49
65
59
54
57
51
47
46
41
37
72
68
72
49
45
40
56
51
44
56
53
47
43
40
34
83
79
70
87
82
73
55
51
46
102
89
78
154
155
138
165
164
148
178
176
157
174
171
151
172
171
151
187
184
163
183
179
158
192
188
167
186
183
162
155
152
138
119
118
105
98
98
85
158
161
144
200
200
180
215
214
187
143
141
126
89
92
84
220
218
204
157
150
130
86
82
67
136
136
130
227
229
220
215
218
193
214
218
186
213
212
184
122
118
104
56
51
41
126
120
101
163
154
132
117
113
103
146
139
125
141
134
118
198
194
177
249
246
228
149
138
119
47
43
36
48
43
34
65
60
48
125
119
99
169
163
139
187
180
162
228
221
205
62
56
48
89
82
68
203
192
165
137
131
114
125
123
112
145
139
127
141
133
124
92
88
80
72
64
53
209
201
177
189
182
156
46
43
33
111
107
95
109
105
97
67
63
54
132
125
108
171
161
136
167
158
134
204
193
171
156
144
120
125
116
102
48
40
34
54
48
39
85
80
72
52
45
37
114
108
91
155
144
128
126
125
113
215
212
192
192
191
166
216
213
190
188
180
167
90
83
72
204
204
190
216
213
192
215
214
189
212
210
187
119
112
98
128
121
102
174
171
149
189
186
164
186
182
161
195
190
167
200
194
171
198
193
170
178
173
152
142
134
120
128
120
105
111
106
95
79
74
61
186
177
156
114
106
92
24
24
21
24
24
21
45
42
35
81
74
64
115
107
91
147
135
114
150
139
118
133
121
100
144
132
112
197
183
166
132
120
108
95
88
74
100
91
79
98
90
78
105
98
87
73
67
57
92
89
81
73
69
65
63
57
53
107
104
85
131
128
106
147
144
122
145
141
123
165
161
143
157
154
132
152
149
127
165
160
139
150
145
125
117
115
101
178
171
154
134
127
112
157
151
136
162
154
134
162
155
138
122
119
104
140
133
115
71
67
61
48
45
39
136
134
119
178
174
155
181
178
162
150
146
130
132
127
109
131
125
107
129
123
107
122
115
100
112
106
90
115
108
92
114
109
95
104
99
85
115
111
96
127
122
108
127
123
107
124
120
103
122
116
100
127
120
104
132
126
108
142
136
118
113
112
97
107
105
95
85
81
79
93
87
80
98
94
90
85
81
78
94
92
89
85
84
78
75
75
69
83
83
77
87
85
82
83
81
77
91
90
84
63
62
60
73
70
65
78
75
66
94
89
78
98
93
78
100
95
81
99
95
80
102
95
83
104
98
83
98
91
76
88
81
67
87
80
68
86
78
67
89
82
69
35
29
26
86
82
76
75
70
62
75
70
61
73
69
58
70
65
57
63
58
52
74
69
58
66
60
53
57
51
47
64
57
51
67
60
51
57
53
43
70
63
52
71
64
52
70
63
55
68
60
51
143
131
113
162
158
141
149
148
132
145
142
122
135
129
115
140
134
118
31
30
25
96
94
86
122
113
95
21
19
16
124
118
102
100
93
80
31
29
27
128
122
104
57
54
46
65
62
54
116
107
93
26
23
20
68
67
61
150
146
128
89
86
78
119
116
106
111
107
98
67
65
60
42
42
39
197
194
180
132
122
100
125
117
95
142
133
117
79
70
61
148
96
54
218
194
144
92
58
40
71
62
55
66
56
48
56
46
38
61
51
41
66
56
46
60
50
42
68
49
33
162
99
47
207
172
102
87
62
47
123
115
102
120
110
96
63
57
54
18
17
16
61
56
52
70
64
59
59
53
48
47
43
39
62
59
62
101
97
90
105
101
91
84
82
74
79
77
70
85
83
74
83
78
70
69
65
60
95
83
71
147
145
130
161
159
143
183
182
163
180
179
159
177
175
155
180
179
159
185
184
164
183
181
160
164
161
139
159
156
141
145
146
126
208
210
184
203
205
182
193
193
171
220
217
191
147
145
130
91
94
85
215
216
203
151
146
126
85
82
64
136
137
134
227
229
224
210
215
189
211
216
185
212
211
183
121
117
103
61
53
44
128
122
104
167
160
137
111
108
97
129
121
105
164
157
138
200
195
181
247
246
230
139
130
111
47
42
35
47
43
34
70
62
50
131
121
102
159
149
127
194
187
168
211
206
187
62
55
48
89
81
68
196
186
159
134
129
111
128
126
113
150
145
134
130
125
112
94
90
85
66
59
51
202
193
168
183
172
147
46
43
33
110
105
93
116
112
104
72
66
56
141
131
112
182
170
145
171
160
138
217
210
185
195
183
154
155
146
127
50
44
35
59
53
46
84
79
72
53
43
37
121
113
97
150
140
121
130
129
115
213
211
192
192
191
171
196
193
172
179
173
161
97
89
80
205
204
190
214
213
191
208
207
184
208
207
186
113
106
95
123
118
96
178
173
150
187
182
161
202
196
175
203
200
178
202
199
177
207
201
181
207
204
183
157
147
132
128
119
105
110
105
94
86
81
67
184
178
157
116
112
99
27
25
21
30
29
25
56
51
45
96
88
78
122
114
96
152
139
117
143
132
110
130
120
99
181
171
149
162
151
135
149
135
120
66
58
48
22
19
17
21
18
17
38
33
28
124
112
97
96
85
74
87
82
78
48
44
40
80
78
63
135
131
111
141
137
116
138
132
113
171
165
147
161
156
135
147
142
121
163
158
135
153
148
128
121
117
103
178
170
149
147
139
122
155
149
132
159
153
134
161
156
138
131
127
112
165
158
136
121
119
106
74
71
63
195
191
170
158
154
140
68
64
59
162
157
148
129
123
108
124
118
102
149
143
124
134
128
112
114
108
92
103
97
83
108
103
87
106
102
85
116
109
94
116
109
93
125
119
103
132
126
110
127
120
104
135
128
112
132
126
109
140
135
114
112
111
96
111
104
94
75
71
65
92
88
78
93
95
85
88
84
80
82
80
71
89
87
82
76
77
70
84
82
73
84
83
78
78
77
73
88
89
80
68
67
63
71
67
64
73
69
62
98
92
83
98
93
80
102
98
81
106
99
83
101
94
79
107
101
85
99
92
77
96
88
77
94
87
74
90
83
69
95
88
74
54
51
43
97
90
86
105
98
87
89
83
68
89
82
67
82
75
64
85
77
67
80
74
59
73
67
53
72
65
55
64
56
48
72
64
55
63
56
47
89
81
71
80
74
63
89
80
68
91
82
69
166
153
136
155
144
124
96
87
78
100
97
89
123
121
109
100
97
88
28
25
24
85
83
75
114
105
91
35
32
28
117
117
114
86
80
74
32
30
26
120
113
102
64
59
55
83
80
75
118
107
96
28
27
22
74
76
72
131
128
116
102
99
90
121
118
106
110
106
97
68
67
62
45
44
42
202
197
185
122
110
94
125
113
96
149
138
118
83
74
65
134
88
51
209
183
131
89
60
43
72
61
51
65
55
49
57
47
41
57
48
42
62
54
45
57
49
42
77
56
36
157
101
54
183
141
73
91
68
53
125
113
100
116
107
90
59
53
47
15
16
14
57
54
49
65
61
54
65
57
49
52
49
46
53
52
54
124
121
111
98
90
74
95
88
75
77
70
57
64
56
46
79
73
63
71
70
63
106
95
84
162
162
146
182
180
164
183
181
162
181
179
159
193
192
172
194
192
172
174
173
154
143
141
122
168
165
146
163
160
146
105
105
91
144
145
126
148
148
131
153
153
134
185
181
155
133
132
117
86
88
80
213
213
199
150
144
124
91
87
70
138
138
136
223
224
220
200
204
183
201
205
179
205
204
176
119
115
100
59
51
45
127
121
100
160
152
128
106
101
91
147
138
123
161
152
132
209
205
191
248
247
231
137
128
108
46
41
34
49
45
36
75
66
55
137
127
108
168
158
135
188
181
161
219
213
195
65
58
50
92
83
71
186
175
150
135
130
113
121
119
108
150
145
133
138
131
119
107
102
98
66
60
52
203
193
169
176
164
141
45
42
31
111
106
94
116
112
104
73
67
54
164
155
132
191
180
150
179
168
143
218
211
185
212
200
171
157
148
128
52
44
35
56
51
43
79
73
66
52
41
36
122
113
98
140
128
108
132
131
117
215
215
196
192
189
164
199
195
174
180
175
163
104
94
84
206
203
191
219
218
196
209
209
186
212
210
191
112
106
94
135
130
108
179
173
150
198
192
171
197
191
170
205
201
180
209
205
184
204
201
179
211
206
185
153
144
129
133
123
110
101
96
84
83
78
65
179
173
153
112
108
96
28
26
22
32
31
27
62
58
50
101
94
82
129
120
102
148
136
113
148
137
115
146
136
115
181
172
150
147
137
122
120
108
96
24
19
17
58
49
43
73
64
56
78
71
58
58
49
41
158
147
129
78
72
67
56
53
45
62
58
49
112
108
88
140
138
109
138
133
114
170
164
144
167
161
140
160
154
133
169
164
142
153
148
128
124
119
105
173
165
144
146
139
121
159
153
135
166
159
141
160
155
137
136
131
115
167
160
136
164
159
136
129
124
107
188
182
163
159
155
139
85
85
76
165
163
151
138
135
118
131
126
107
127
121
103
124
117
101
111
105
89
109
102
88
113
109
93
110
106
89
130
124
108
119
112
96
121
114
98
137
131
115
135
128
112
139
133
117
137
131
114
150
144
124
116
114
96
109
103
96
76
70
65
89
84
73
93
92
82
75
74
70
80
77
67
91
89
83
67
67
61
76
74
66
80
79
75
79
78
74
91
92
84
68
67
63
66
62
60
77
73
66
96
91
81
102
97
84
102
98
81
106
98
83
112
105
89
112
105
89
106
99
84
99
92
80
96
89
76
97
90
76
103
96
80
66
63
52
72
66
60
103
96
84
72
65
55
80
73
62
83
76
65
76
68
59
80
73
60
83
76
64
77
69
58
71
63
52
69
62
51
70
62
51
85
78
65
77
71
55
72
65
53
79
72
59
132
127
109
125
112
95
82
73
71
99
92
86
127
128
115
116
109
102
30
27
25
92
90
81
116
103
86
42
34
27
162
160
153
106
100
91
32
30
24
138
132
116
70
65
58
89
86
78
124
114
95
37
34
29
95
98
93
139
136
123
109
107
97
121
119
106
114
110
101
75
74
68
49
48
43
204
201
185
129
119
99
136
125
105
148
137
117
85
77
67
86
56
37
110
76
50
79
58
44
77
64
55
65
54
49
58
47
42
56
48
41
61
53
43
57
48
42
75
57
43
90
55
33
87
47
29
85
72
59
134
123
107
117
107
89
67
61
54
15
16
14
57
54
49
66
62
56
73
67
58
56
54
51
42
41
42
126
123
112
97
91
72
91
84
70
86
79
66
72
64
53
73
66
57
57
55
49
91
81
68
170
170
152
190
190
172
188
189
170
194
193
173
187
185
165
183
182
161
151
150
133
122
120
105
164
160
144
146
142
132
146
146
132
186
188
164
194
193
172
199
199
171
214
211
182
137
135
121
88
91
84
211
210
196
143
135
118
86
81
67
134
136
132
227
230
227
209
215
193
195
196
169
210
208
181
114
109
95
58
49
42
140
133
116
182
173
153
114
110
101
162
154
138
147
141
118
211
207
194
247
247
233
128
119
99
44
39
33
52
46
37
78
71
55
130
118
96
162
151
125
185
179
158
193
183
162
67
56
47
98
90
76
186
174
150
135
129
114
119
115
107
161
156
143
154
146
129
113
107
99
76
68
60
208
200
175
177
168
145
43
40
31
131
124
111
113
106
98
74
70
57
151
143
120
184
173
144
180
170
145
218
212
185
211
199
170
151
141
120
50
41
36
62
54
46
81
73
66
49
40
35
122
114
100
129
117
99
132
130
117
207
206
190
172
166
148
195
192
171
183
178
166
111
102
90
207
203
191
219
215
194
212
209
187
209
206
187
103
98
85
123
118
96
190
185
162
204
201
179
191
188
166
203
200
178
211
207
186
213
207
186
212
206
186
157
149
133
131
123
112
105
96
85
89
84
70
181
173
153
114
106
94
31
27
24
35
32
27
63
58
49
96
88
76
126
115
98
153
141
119
153
143
120
144
135
113
173
167
145
165
160
140
88
84
76
34
28
28
94
85
71
86
77
63
102
93
75
76
69
57
168
158
139
82
75
69
64
57
51
55
52
46
99
93
77
136
130
107
138
132
113
171
165
144
163
155
134
159
151
131
168
162
140
156
150
132
126
122
109
175
165
147
144
137
121
160
155
135
164
159
139
164
159
143
148
141
124
165
159
133
168
164
138
159
154
131
160
156
137
142
140
119
137
138
118
116
116
98
137
133
114
130
124
106
124
118
100
125
119
101
123
116
100
129
122
107
115
108
93
120
114
98
129
123
105
122
116
97
129
123
107
136
129
113
140
134
116
138
132
114
135
128
112
137
131
111
107
106
88
103
97
90
71
66
61
95
89
79
83
79
72
73
71
67
87
83
77
94
91
87
56
55
53
73
71
65
84
81
80
87
83
79
85
83
77
64
61
60
70
66
64
74
71
63
91
86
74
101
97
82
107
100
85
111
104
86
112
101
87
117
106
92
107
100
84
106
99
84
99
90
78
95
86
73
100
92
78
52
49
39
85
79
72
108
101
89
77
69
62
80
72
64
79
74
66
75
67
59
88
81
68
85
77
64
75
68
57
65
59
48
69
63
54
64
56
47
72
64
54
66
58
48
65
57
49
66
57
50
128
121
110
99
94
85
122
112
103
120
117
99
134
134
126
118
111
100
33
28
25
91
87
75
136
124
105
51
44
36
169
167
158
107
102
90
32
30
25
137
130
117
67
59
54
89
89
80
132
124
109
43
38
34
94
94
90
140
133
121
109
107
96
119
116
104
113
111
101
76
74
68
51
51
45
206
204
186
132
123
105
112
107
89
77
72
58
62
54
47
51
39
32
52
39
32
66
52
44
70
59
51
54
44
38
48
41
35
51
41
35
55
46
37
62
50
42
57
44
37
54
40
33
62
50
38
77
68
56
124
113
100
112
102
90
61
55
50
18
19
18
54
51
47
62
57
52
67
62
54
58
56
50
37
35
35
132
128
117
90
83
65
90
83
70
86
79
65
75
68
57
74
67
60
62
58
53
69
62
52
156
157
138
186
186
167
188
188
170
188
187
167
190
189
169
181
179
158
164
163
143
173
169
151
187
183
161
182
180
164
143
142
128
178
177
153
152
151
135
155
153
132
193
191
162
134
134
119
85
89
83
214
212
197
146
136
120
78
73
60
134
136
132
220
224
221
198
204
182
202
204
176
198
196
168
105
100
86
58
50
42
135
128
111
170
160
142
111
105
97
167
160
144
161
155
132
210
206
193
245
244
230
113
104
84
44
39
33
55
48
40
80
73
57
143
131
108
169
158
132
209
203
182
210
200
179
71
60
51
101
92
79
191
178
155
140
132
118
131
123
114
151
141
126
146
135
119
109
102
94
76
69
61
210
201
176
178
170
147
43
40
31
143
136
123
107
100
91
67
63
51
138
129
107
185
174
146
178
168
142
222
216
186
214
204
172
151
141
119
50
41
36
60
53
45
81
73
66
50
41
37
118
110
96
135
122
104
141
137
124
220
217
196
200
196
172
199
197
176
183
179
166
110
102
90
205
202
189
216
212
192
210
206
184
212
210
188
105
101
90
153
148
125
204
199
178
202
198
177
198
195
173
197
194
172
214
211
189
217
212
191
212
206
185
162
155
138
137
130
118
103
94
83
94
89
76
179
171
151
113
103
92
30
26
24
37
33
29
64
60
50
91
83
69
138
126
107
149
137
114
153
143
121
146
137
116
173
167
145
160
155
135
60
56
48
41
36
31
99
89
75
113
103
87
110
102
82
81
74
62
179
169
152
71
65
58
62
56
49
43
39
33
77
71
56
121
115
93
143
138
118
167
162
140
169
161
140
160
152
132
172
166
144
158
152
135
129
124
112
176
167
149
150
144
128
153
147
127
162
156
136
164
159
143
146
139
121
148
142
118
160
156
130
156
150
126
147
139
121
117
109
91
115
108
90
136
129
111
143
137
116
126
120
100
124
118
100
126
120
102
119
113
97
128
121
105
111
105
88
108
101
84
121
115
96
124
118
100
130
124
108
139
132
116
140
134
116
140
134
115
128
122
105
128
122
102
110
107
92
103
97
90
56
50
44
99
92
83
81
77
71
76
74
69
96
92
87
94
91
87
52
51
49
79
77
71
84
82
77
84
80
75
78
77
71
66
62
61
71
66
63
78
75
68
93
88
76
98
93
78
103
96
84
103
96
81
114
106
91
108
101
85
107
101
85
103
96
81
97
88
75
96
87
74
104
96
82
69
66
57
71
65
58
101
95
82
90
83
70
91
84
72
96
92
78
85
79
66
88
82
68
90
82
69
79
72
57
78
71
56
85
79
66
78
70
57
93
85
70
94
85
69
89
81
69
97
89
77
197
187
170
139
137
129
156
153
139
118
116
102
126
126
116
120
112
103
36
31
28
95
91
79
128
116
97
45
38
30
163
162
153
103
99
87
33
31
26
151
143
130
70
62
57
91
91
83
128
120
105
42
37
33
85
86
81
139
132
119
106
104
93
119
117
104
111
109
99
69
67
61
52
51
46
208
206
188
127
121
108
74
71
66
62
63
58
59
52
46
62
55
46
84
76
62
77
68
51
73
64
49
68
60
52
57
48
44
46
36
31
59
50
40
98
85
73
75
63
51
79
69
61
87
77
65
79
70
58
69
62
50
73
64
54
38
32
28
30
30
28
53
51
47
65
60
56
54
49
42
56
53
48
44
41
40
134
130
120
91
85
67
93
86
73
87
80
67
84
77
62
79
72
62
69
66
59
94
85
70
136
136
119
169
167
150
187
185
168
187
185
165
188
186
166
187
184
162
169
166
146
193
189
170
185
183
160
182
183
160
144
143
130
177
177
150
172
172
146
142
143
117
138
137
115
99
97
87
86
86
82
214
210
195
144
135
119
73
69
58
133
134
131
229
231
228
202
205
184
210
210
184
213
211
184
110
105
91
59
53
47
124
120
108
169
159
144
104
96
90
154
146
132
145
137
125
206
201
190
243
242
226
107
99
82
46
39
34
57
48
39
84
75
62
140
127
105
172
160
134
206
199
177
219
211
188
72
61
51
101
93
79
191
177
153
143
134
120
122
120
108
147
134
120
144
131
122
103
95
92
76
67
58
212
204
177
179
172
150
45
40
33
146
139
125
106
98
88
70
65
53
135
127
104
174
162
135
169
162
134
220
216
185
220
211
181
146
137
115
49
40
35
56
49
44
80
69
63
50
41
36
110
102
89
134
121
105
145
143
128
212
209
188
197
195
170
194
191
171
177
173
161
106
98
87
198
195
181
217
215
194
209
208
187
215
213
190
122
118
106
131
129
107
202
200
177
206
202
182
214
210
193
166
162
147
211
206
188
216
213
191
211
207
185
169
160
142
139
133
119
101
94
81
96
92
76
184
177
156
113
104
93
32
28
26
38
34
30
67
61
51
82
75
60
126
120
97
146
135
112
159
147
123
141
133
113
164
156
137
118
112
99
116
111
94
34
31
28
89
78
66
119
109
88
104
96
77
100
95
87
159
153
140
63
56
52
50
46
39
39
35
33
67
63
49
116
111
90
139
133
116
171
164
141
170
164
143
161
156
135
172
164
142
156
151
133
132
126
113
172
164
143
147
141
124
156
150
130
164
158
139
163
156
140
114
107
95
115
109
96
140
135
113
144
140
116
147
144
118
151
147
122
142
137
114
144
136
117
129
122
103
111
104
90
121
115
98
119
112
94
128
122
106
112
105
88
112
106
88
131
125
107
122
118
100
126
122
105
138
132
114
131
125
106
135
129
111
130
124
106
126
120
101
122
116
97
98
94
80
103
98
89
51
45
41
102
95
87
76
70
68
76
71
67
95
94
86
78
77
72
52
51
47
88
85
78
79
77
74
77
74
72
73
73
65
61
60
57
65
61
55
75
73
65
96
89
79
102
95
82
105
97
84
107
99
86
110
103
87
107
101
85
123
114
99
103
94
80
102
95
82
107
100
86
100
95
80
66
62
53
76
71
63
104
95
83
92
85
73
105
98
86
107
99
89
95
88
71
97
90
75
93
85
73
87
78
67
77
73
61
81
75
65
73
66
54
85
76
61
85
74
65
75
67
57
82
75
60
188
177
165
135
133
125
152
151
139
122
121
108
132
133
124
121
118
110
36
32
30
97
93
82
129
117
97
47
41
31
155
155
147
106
101
89
31
29
23
146
139
124
72
63
58
95
93
86
112
104
91
42
37
31
72
75
67
139
137
120
103
102
91
122
117
105
118
115
102
75
72
66
52
52
48
208
207
192
119
114
100
87
86
77
91
91
82
54
52
48
47
43
38
61
50
41
63
50
37
77
70
59
77
68
58
69
61
58
71
65
60
70
62
54
69
64
59
55
52
47
59
51
42
67
60
50
72
68
59
75
71
70
84
80
77
63
62
60
19
17
18
45
44
41
58
53
48
57
52
48
59
57
52
48
45
44
125
123
113
91
83
68
92
85
71
88
81
67
82
75
61
80
73
61
80
75
68
108
96
78
128
126
116
146
144
132
157
155
138
171
170
150
175
173
153
184
181
162
190
187
165
200
194
174
180
177
154
187
188
165
145
143
131
182
182
155
153
151
133
110
109
92
165
165
140
128
127
110
93
93
85
212
209
196
136
130
114
76
76
65
133
134
129
228
231
228
201
207
189
202
205
182
211
209
183
122
117
104
59
55
45
135
132
117
157
150
132
106
101
91
159
151
132
153
146
134
206
200
188
215
213
199
100
93
78
48
41
35
61
52
42
88
79
65
145
132
110
171
159
132
199
191
166
220
213
188
70
63
51
103
98
82
193
179
153
144
134
117
132
129
116
147
137
120
154
143
128
102
96
90
74
66
56
205
197
169
165
158
133
46
42
32
145
138
124
101
92
83
73
67
53
145
136
115
179
167
141
176
169
142
222
213
189
176
164
142
128
118
99
51
42
37
57
50
45
82
71
66
48
40
34
106
98
80
141
128
116
138
137
119
205
202
181
206
203
180
199
195
175
174
170
157
100
93
82
187
184
170
210
207
185
195
192
169
194
190
168
41
38
31
77
77
63
207
209
185
218
217
193
201
198
184
67
63
55
180
174
170
211
206
195
209
206
186
171
163
144
144
138
122
100
93
79
84
82
65
188
181
156
112
103
92
31
27
26
39
36
31
69
64
54
92
86
70
135
127
103
137
126
103
156
144
120
147
138
118
155
146
127
155
148
135
124
116
98
102
98
81
56
51
41
59
52
42
94
89
77
166
160
146
67
62
56
71
65
56
30
26
22
40
36
31
86
82
68
127
122
101
134
128
111
171
164
141
167
161
141
154
148
127
175
168
146
157
152
134
130
124
111
169
161
140
145
139
122
162
157
137
160
154
135
160
154
138
141
134
123
90
84
73
100
94
82
114
109
97
95
90
78
91
87
74
103
98
85
99
93
81
99
94
80
100
94
76
123
117
99
118
112
96
121
115
99
108
102
85
102
97
78
126
120
102
130
126
107
131
126
110
138
133
116
130
126
109
128
121
105
125
119
103
129
123
106
133
127
110
104
99
88
107
102
94
53
47
44
104
98
92
73
71
68
72
69
65
91
90
84
72
69
65
60
58
55
91
88
82
75
74
71
76
75
72
63
63
55
55
55
51
65
61
55
80
76
69
98
91
80
102
95
82
104
99
85
107
103
88
101
95
79
100
94
78
104
95
80
105
96
81
105
98
84
100
93
79
96
90
76
65
61
52
70
65
58
112
102
91
97
89
78
104
97
86
92
86
73
97
90
76
96
90
76
99
91
77
100
91
77
91
85
69
89
79
64
79
69
55
83
72
58
77
66
57
72
64
52
72
66
49
193
184
170
135
132
125
156
155
143
123
122
108
130
130
122
127
123
116
38
33
31
101
96
85
131
120
98
53
47
35
155
154
146
110
105
94
30
28
21
143
136
121
72
62
58
95
93
87
114
106
94
45
40
35
74
77
68
155
153
135
102
101
90
122
117
105
118
114
102
75
72
66
54
54
50
214
212
197
149
144
126
125
124
111
128
128
114
32
31
30
41
40
36
48
42
35
46
39
33
85
78
68
76
67
57
61
52
49
81
76
69
76
67
63
63
58
53
31
29
25
43
41
35
61
57
53
62
61
57
112
111
103
107
104
94
72
71
66
19
17
18
44
44
41
56
54
48
56
54
48
56
54
49
52
48
48
105
102
92
92
84
69
88
81
68
85
78
65
86
79
65
78
72
59
64
59
52
106
93
75
80
80
76
137
137
127
145
144
126
167
165
147
180
176
160
188
184
165
185
181
162
194
189
170
182
178
155
186
187
164
128
126
116
154
153
133
152
151
133
162
160
145
175
174
153
128
126
112
96
96
87
206
201
191
132
126
110
81
82
72
134
137
133
228
231
231
216
221
203
191
194
172
204
204
179
105
99
86
59
56
48
119
120
103
164
159
138
94
90
79
175
167
150
206
202
185
141
136
119
126
115
89
88
80
66
53
45
40
60
52
44
90
82
68
141
131
109
168
159
132
195
183
161
189
177
159
73
64
54
102
97
81
193
178
153
143
133
116
136
132
120
146
138
121
148
139
123
102
96
88
81
74
62
214
204
177
170
160
138
45
43
33
153
149
135
92
86
76
86
79
63
169
160
139
182
170
144
162
155
130
169
160
137
96
71
53
75
62
55
52
43
39
56
50
42
78
70
65
48
39
34
112
103
89
139
128
115
138
136
119
217
217
197
216
212
189
200
195
176
180
175
162
109
103
91
201
198
182
158
153
131
176
170
149
173
166
147
109
107
98
32
32
26
133
135
125
161
162
145
98
97
87
69
66
67
198
198
203
224
221
213
211
209
190
172
164
145
149
142
127
107
99
86
84
81
64
194
187
160
112
103
90
31
28
25
41
36
32
75
68
58
101
93
78
139
131
108
151
139
116
148
139
113
158
150
126
155
146
127
146
139
122
96
90
81
71
68
57
113
111
96
116
113
100
138
135
122
66
63
54
86
78
67
70
63
53
25
22
20
61
58
51
112
110
94
116
112
91
136
131
113
166
161
138
171
166
144
168
163
142
173
165
143
156
151
133
131
126
112
171
164
142
158
151
135
153
147
128
157
151
130
154
148
133
133
127
113
163
157
140
171
164
148
150
144
127
134
128
110
132
126
109
122
116
101
124
117
102
134
128
111
128
122
105
126
120
103
122
116
98
127
121
103
123
117
99
112
106
88
136
129
113
135
129
112
117
111
99
83
79
70
105
101
88
96
92
78
123
119
104
119
115
99
122
117
103
90
85
73
89
85
76
59
54
49
82
77
72
71
67
63
73
69
64
90
86
82
67
64
59
74
73
68
87
83
79
70
68
64
77
74
70
61
59
54
49
46
42
68
64
59
87
82
75
97
92
78
96
92
78
101
94
83
108
101
87
102
93
79
102
94
78
106
99
84
101
94
81
102
95
81
100
93
80
100
94
82
44
40
34
67
64
55
88
79
69
85
77
67
83
75
64
76
70
57
85
79
66
83
77
64
84
76
62
89
81
67
86
77
63
82
73
60
84
74
63
81
73
62
67
59
50
65
57
48
67
60
47
188
178
165
133
132
126
157
157
145
133
133
119
124
124
118
127
124
115
38
34
30
101
96
86
138
126
109
58
52
40
149
149
141
104
100
88
31
28
23
138
131
116
65
56
50
88
87
80
112
107
95
47
43
36
74
76
67
158
154
136
99
98
86
117
117
103
114
110
101
72
69
64
54
53
50
214
212
195
148
145
124
123
119
105
122
123
106
33
36
32
48
43
43
46
38
35
33
32
27
86
78
66
86
72
62
66
58
53
73
71
63
75
67
58
52
46
42
33
30
30
46
43
42
73
68
64
63
61
58
105
104
98
103
100
90
62
61
55
21
21
23
48
48
47
64
60
57
69
65
60
58
56
51
51
48
49
114
109
99
92
85
70
87
80
67
86
79
65
77
72
60
77
72
61
63
60
51
105
92
76
81
85
82
113
110
102
157
155
137
170
168
151
179
175
158
186
182
165
188
184
165
191
187
168
193
187
165
184
182
161
131
131
120
122
123
103
117
115
102
174
172
154
164
163
145
127
125
114
96
94
84
204
200
189
126
119
104
82
82
73
133
136
132
227
231
230
207
215
194
206
208
183
193
193
167
106
100
88
64
57
47
132
129
117
153
147
128
103
99
88
156
149
133
135
130
110
182
178
150
136
128
103
84
77
66
55
47
41
67
60
48
96
89
72
145
136
113
164
155
128
198
186
161
212
200
177
70
62
51
98
92
78
196
181
158
153
143
127
127
123
110
145
137
120
137
129
115
90
84
76
80
74
62
217
207
181
177
170
147
50
45
36
148
144
130
94
88
78
94
85
68
178
168
147
187
176
146
172
165
136
185
171
140
123
101
76
62
51
42
51
44
39
55
48
42
76
68
63
50
41
35
116
108
93
139
130
114
134
131
119
218
218
196
204
201
175
197
192
172
158
153
142
95
90
81
141
136
124
152
147
129
156
150
131
160
154
134
151
149
128
99
95
79
99
95
77
102
98
78
125
122
96
183
181
163
195
197
186
198
193
176
191
184
166
148
140
123
118
112
99
94
86
74
91
88
72
183
176
152
108
99
84
31
28
25
40
35
31
71
64
55
91
83
68
134
125
102
146
135
111
157
147
123
163
154
129
169
159
140
134
127
109
100
94
81
102
98
84
74
69
58
66
61
52
68
61
54
91
83
73
69
64
53
27
25
22
35
33
31
90
87
80
119
116
101
119
115
94
132
126
109
167
160
139
175
169
147
168
162
141
168
160
138
157
152
134
128
123
109
159
151
131
145
139
122
147
142
121
162
156
135
159
153
137
144
138
125
169
163
145
161
155
138
138
132
115
131
124
110
127
120
107
143
137
121
139
133
116
135
129
112
134
128
112
136
129
114
132
125
109
129
123
105
130
124
106
115
109
91
134
128
111
137
131
112
104
99
85
135
133
115
131
129
115
103
99
88
93
88
75
107
103
88
104
100
86
100
95
81
98
94
80
95
90
78
93
87
76
95
87
78
84
77
67
84
78
68
74
71
61
79
77
66
79
76
66
79
76
65
78
73
64
84
77
68
82
76
66
73
67
60
97
92
82
91
89
74
97
95
80
105
98
86
112
105
90
119
111
94
106
97
83
104
97
84
95
88
75
101
94
80
104
97
84
100
94
82
57
53
47
59
56
48
77
69
60
64
60
53
67
63
56
65
60
52
62
58
49
67
63
54
66
62
51
66
62
52
71
66
55
71
64
53
72
63
53
75
68
58
72
65
55
79
71
63
76
69
57
188
179
164
137
136
129
159
159
148
133
133
118
125
125
119
128
125
116
37
33
29
110
105
95
134
122
105
53
47
35
147
147
139
104
99
88
33
32
23
153
147
128
66
56
52
89
88
81
115
110
98
42
39
32
77
78
70
155
152
134
103
102
90
118
118
105
114
111
102
68
65
61
57
56
52
215
214
190
138
135
114
120
117
103
118
119
102
27
30
26
45
44
43
45
41
37
37
37
31
74
66
54
64
54
43
69
63
56
48
45
39
49
48
41
41
39
34
38
40
38
53
52
51
80
74
69
54
52
49
103
102
95
101
98
89
64
62
57
22
23
24
52
50
49
69
64
60
65
62
55
63
61
56
53
50
51
118
113
103
90
83
68
90
83
70
83
76
63
78
73
61
78
74
63
66
63
54
106
92
76
84
88
83
101
98
89
151
150
132
159
157
139
172
169
150
183
179
160
193
189
170
187
182
164
150
143
127
95
91
78
135
135
125
179
180
160
172
170
151
182
181
162
180
178
161
124
122
111
98
97
84
201
200
186
133
125
111
81
79
70
131
132
131
230
232
230
209
214
195
212
213
190
208
207
182
107
104
93
63
54
46
134
129
116
162
156
138
102
96
86
190
188
165
149
141
112
193
188
166
160
152
134
126
118
104
53
48
38
62
56
47
98
89
73
146
134
109
166
154
129
193
182
157
216
205
181
67
62
53
94
88
75
192
176
154
145
135
118
117
113
102
137
129
112
147
136
125
92
85
79
79
73
61
201
191
165
169
159
137
46
43
34
148
142
130
102
95
87
102
94
72
179
171
144
195
184
156
172
163
141
189
177
150
123
110
87
98
90
76
50
45
40
57
49
44
76
66
60
62
53
44
128
123
106
136
129
113
116
113
101
171
170
154
193
190
172
156
152
140
136
132
122
93
87
80
72
65
58
102
99
86
105
102
84
93
84
72
92
86
74
94
87
70
103
96
77
127
121
107
118
109
96
114
107
92
140
133
111
138
132
107
151
143
119
109
98
87
71
65
57
108
101
89
69
65
56
154
147
127
114
105
89
31
27
25
39
35
31
66
60
51
97
90
73
135
128
104
147
138
114
155
145
121
165
155
131
157
147
125
140
130
112
89
82
70
58
55
46
75
70
57
73
69
55
55
50
40
32
29
23
25
22
21
41
39
37
82
80
76
113
112
103
126
119
106
112
106
88
131
125
110
164
158
138
162
157
137
162
156
134
165
156
140
120
115
103
104
99
86
107
99
86
130
124
110
144
138
121
157
152
130
152
149
130
136
132
118
166
162
143
171
167
147
138
133
113
147
141
124
143
137
120
143
137
121
138
131
116
133
126
109
133
127
109
128
122
106
127
121
106
127
121
105
122
116
99
116
110
91
140
134
114
142
136
118
117
112
95
132
129
112
127
125
111
97
93
81
87
82
71
96
92
78
94
90
76
85
81
68
93
89
76
86
82
68
87
82
68
94
89
76
90
85
73
81
76
64
83
78
66
78
73
61
74
69
60
73
68
59
73
68
59
81
76
67
78
73
61
87
82
71
88
83
72
90
85
73
99
94
81
102
95
82
106
99
86
128
122
106
104
98
83
98
91
77
100
93
80
98
91
77
104
97
84
101
95
82
75
71
63
53
49
41
42
37
31
43
40
35
38
34
31
41
37
30
43
39
32
42
38
33
46
42
37
48
42
37
50
45
37
57
51
42
59
53
44
77
70
57
76
70
56
81
74
62
84
77
63
186
180
161
138
138
129
166
165
157
133
133
120
122
122
116
128
125
116
37
32
30
110
105
95
146
135
119
58
52
42
146
146
136
103
99
87
35
31
23
147
139
121
68
61
54
94
94
87
115
108
94
43
37
32
78
80
73
149
148
132
106
105
95
120
120
110
111
110
102
64
62
59
59
56
54
216
213
190
141
136
118
99
96
87
109
108
98
30
31
28
40
40
39
59
55
51
88
88
81
63
63
55
63
63
55
79
78
71
68
64
60
63
58
52
50
51
48
53
59
55
64
65
60
72
68
60
71
68
65
110
107
101
103
100
92
66
62
59
22
24
22
49
47
45
68
65
60
61
61
54
63
62
59
57
53
53
112
110
100
87
81
68
86
79
65
83
76
63
75
71
59
79
75
64
68
65
56
102
89
73
70
72
68
77
75
68
137
135
121
158
157
139
185
181
163
184
180
162
188
184
165
182
177
158
152
144
124
155
151
134
139
138
128
182
183
164
180
179
161
176
174
156
168
166
148
130
128
118
95
94
85
203
202
183
134
126
110
80
77
69
131
131
127
225
228
222
194
200
184
190
193
172
202
203
178
104
103
91
60
55
44
134
134
115
166
160
143
114
108
97
165
162
141
148
137
112
193
190
171
224
218
200
102
93
77
50
45
35
62
57
45
94
85
66
143
131
106
162
150
124
184
172
148
201
190
166
66
60
52
92
86
73
192
177
154
142
133
116
127
123
114
121
112
98
142
132
116
86
78
71
84
78
65
201
191
167
162
153
131
46
42
33
141
135
122
110
103
94
105
97
77
186
178
147
187
177
150
179
171
150
177
169
147
162
153
132
121
114
100
47
42
37
55
47
40
79
69
66
64
55
47
130
124
108
139
131
118
127
124
111
205
205
186
181
179
164
197
194
178
169
166
152
106
100
92
107
101
93
102
97
85
114
111
92
132
125
105
127
120
102
89
81
65
71
62
47
56
50
38
61
55
42
70
64
51
164
159
139
196
190
168
185
179
158
160
155
142
107
101
93
133
127
109
80
75
68
160
153
133
113
104
88
31
27
24
39
36
31
67
62
54
91
85
68
141
134
110
141
130
107
145
135
114
165
155
133
157
147
124
152
142
124
134
122
108
107
99
89
56
52
47
42
40
35
36
34
32
41
41
35
66
65
62
100
98
95
117
116
108
118
117
104
129
127
112
135
132
113
136
130
116
130
124
106
147
141
121
114
108
90
124
115
99
110
105
92
100
95
79
137
129
113
143
136
123
152
146
128
153
147
125
153
149
130
133
128
115
163
159
140
154
151
129
132
126
105
153
147
128
147
141
123
148
142
124
143
137
119
138
132
114
129
123
105
132
126
107
135
129
111
130
124
106
132
126
109
116
110
91
141
135
114
137
131
113
111
106
89
116
113
98
136
135
115
100
96
83
90
85
74
83
80
67
92
89
77
88
83
71
83
76
66
71
65
56
76
70
61
84
79
68
95
90
79
85
82
70
95
91
79
91
86
74
66
61
50
74
68
59
77
71
62
76
71
62
86
82
69
88
84
72
89
85
73
98
94
82
89
84
71
97
90
77
97
90
76
113
107
91
102
95
79
100
93
80
102
95
81
96
89
76
96
89
75
97
90
78
81
77
68
67
63
54
44
39
32
38
35
27
64
61
56
58
54
45
73
69
60
68
65
57
76
73
65
58
52
48
65
60
52
56
51
42
61
55
47
69
62
53
73
66
57
76
70
58
79
72
59
193
187
167
143
143
134
169
169
161
141
142
131
120
121
114
119
116
107
33
29
27
97
93
81
140
128
107
60
54
40
150
151
139
102
98
86
33
29
21
146
138
121
69
62
55
90
89
83
114
106
92
42
37
31
77
79
73
150
149
133
103
102
92
121
121
111
115
114
106
64
63
60
62
59
55
217
213
193
150
145
127
107
104
95
115
113
104
31
32
30
49
49
48
52
49
44
67
65
59
69
68
61
83
77
70
93
86
79
70
65
58
57
53
45
52
53
50
56
61
57
71
72
67
86
82
74
71
67
64
109
105
99
104
101
93
65
62
58
25
26
25
51
50
48
72
68
64
60
59
53
59
58
54
54
49
49
98
96
86
87
81
68
87
81
67
80
73
59
72
67
55
81
77
66
63
60
51
94
80
65
69
70
66
53
52
48
129
128
117
150
149
131
164
162
145
177
173
156
180
177
159
186
181
163
150
142
124
125
121
107
133
131
120
154
153
136
159
157
140
176
173
157
184
180
161
134
133
122
89
87
79
208
202
188
128
121
105
76
72
63
129
132
127
223
227
222
220
225
207
214
217
194
209
210
184
101
99
88
63
58
49
129
130
114
156
154
135
124
118
106
142
140
115
145
136
107
204
203
190
230
224
207
118
110
93
51
47
38
60
52
44
98
87
73
151
139
114
161
150
123
185
170
149
211
197
173
65
60
49
97
91
76
192
177
155
142
132
117
122
118
108
123
113
100
146
135
120
87
80
72
80
72
57
200
191
169
171
161
139
54
52
42
134
130
114
112
107
97
109
101
82
193
186
158
195
185
159
180
172
150
204
199
176
188
182
159
143
136
122
48
41
36
51
45
38
74
68
61
68
58
52
121
112
100
124
116
102
136
133
118
213
214
193
202
202
181
190
189
171
164
160
149
111
105
95
160
156
145
165
159
137
179
174
146
153
150
123
126
121
107
70
60
43
84
74
56
70
61
44
66
57
40
87
81
64
185
182
161
193
189
170
197
193
172
186
182
164
88
82
73
131
125
108
72
66
51
183
175
149
112
104
91
28
24
22
37
33
29
64
59
51
97
92
74
163
154
128
162
151
126
172
160
139
168
157
136
174
163
141
164
152
131
151
141
120
153
144
124
136
128
113
132
124
110
127
119
107
136
128
116
149
147
135
152
146
135
156
151
138
158
153
136
163
156
139
160
154
137
155
149
132
128
121
105
146
140
121
153
148
120
142
137
116
154
149
130
118
113
99
103
94
80
82
74
60
130
126
109
158
153
132
158
152
134
146
140
128
168
162
143
154
148
127
144
138
120
152
146
127
155
148
132
151
144
127
151
145
128
142
136
120
137
131
115
136
130
112
135
129
112
130
125
106
138
133
114
129
120
103
143
136
118
146
141
122
126
122
103
117
113
97
152
149
130
94
90
78
89
85
74
80
78
64
100
96
82
111
105
93
104
97
85
108
100
90
110
103
92
105
100
88
107
101
89
97
92
80
97
91
79
110
102
89
92
84
73
80
73
62
87
80
71
82
77
67
90
85
75
86
82
69
98
93
79
104
100
87
82
77
64
86
81
69
95
89
74
121
113
97
104
95
80
101
94
80
98
91
78
96
89
76
98
91
78
105
94
83
94
87
75
79
74
64
72
66
59
75
69
63
82
76
71
87
82
72
81
77
64
79
73
64
84
80
65
84
79
70
71
66
57
71
66
54
82
76
64
80
71
60
88
79
68
84
77
65
77
70
58
182
176
156
157
155
147
157
158
148
131
130
125
113
113
105
123
120
111
32
29
27
94
90
79
143
129
116
60
55
42
151
152
142
104
100
89
33
29
21
147
139
121
66
59
52
91
90
85
122
114
102
42
37
34
76
78
71
151
149
133
103
101
91
122
123
111
117
116
108
67
65
62
63
61
58
215
214
194
150
149
128
129
127
112
121
120
108
35
35
34
50
51
51
63
61
58
63
59
54
64
60
55
56
52
46
79
75
69
62
56
50
55
52
45
58
60
55
61
60
56
69
68
64
76
72
68
76
72
70
105
101
95
101
100
92
66
63
60
26
27
29
51
50
48
70
64
60
58
55
50
64
61
56
56
54
51
96
92
82
84
78
66
85
79
67
80
73
61
72
67
55
80
76
64
68
63
52
97
82
66
76
75
70
72
72
64
115
114
102
131
129
115
151
147
132
169
165
149
187
183
166
175
170
151
148
140
120
138
134
121
131
128
119
130
129
115
153
150
134
171
167
151
175
172
150
133
132
120
93
91
81
207
201
189
118
111
96
69
65
56
128
130
125
221
225
221
214
222
203
212
213
189
205
204
179
107
103
93
65
59
50
147
140
121
165
163
145
138
132
119
175
171
147
139
130
102
205
204
188
247
240
225
125
118
101
50
44
37
58
50
42
92
81
67
155
144
117
169
158
132
177
166
144
206
196
171
62
57
46
98
92
77
204
189
168
153
143
129
120
116
107
138
128
115
157
147
132
81
73
67
83
74
60
198
189
167
170
160
139
47
44
34
135
130
114
115
110
99
123
116
95
198
191
167
214
205
182
188
179
158
201
196
173
179
173
150
132
124
111
45
38
32
53
47
40
70
65
58
63
57
48
131
126
110
165
157
145
130
128
113
206
206
185
196
195
173
198
196
178
165
162
151
119
113
102
154
149
137
149
146
133
150
147
126
193
191
164
172
167
154
104
100
89
60
53
37
67
58
42
69
58
45
154
147
134
191
187
172
163
159
145
132
128
118
179
176
159
108
102
92
124
117
102
97
92
77
176
169
139
112
105
86
28
24
21
37
33
29
63
58
49
96
92
74
147
143
117
158
151
127
169
160
139
167
158
138
170
161
140
165
156
135
155
148
126
153
146
126
152
147
127
150
145
126
144
138
119
149
143
125
151
147
130
155
148
131
158
151
132
159
153
130
156
147
128
155
146
128
145
139
123
126
120
105
135
129
113
129
126
107
121
118
101
124
122
105
112
107
92
88
78
66
80
70
57
73
67
52
125
120
101
144
139
121
124
118
106
133
127
110
155
149
130
155
150
133
151
145
128
135
128
113
145
138
123
136
129
114
140
133
118
125
119
104
131
125
110
123
119
103
122
119
100
124
123
103
120
115
97
128
123
107
130
125
110
111
107
94
99
95
82
121
116
105
89
85
75
87
83
72
91
90
78
99
98
85
99
98
85
98
95
83
102
99
87
102
99
86
102
97
85
106
101
89
114
108
96
107
102
90
105
101
88
95
91
77
85
81
69
86
82
70
82
77
67
86
81
71
84
80
68
89
86
72
92
88
74
99
94
82
80
75
67
67
63
52
109
104
93
98
92
81
96
90
76
94
87
74
93
86
73
95
88
75
93
85
77
80
76
66
72
67
56
73
68
59
69
64
54
66
61
52
72
68
55
72
67
57
70
65
54
72
67
56
72
67
60
72
66
59
62
57
48
63
58
49
68
60
51
63
55
46
64
56
48
56
49
40
186
180
160
156
155
147
173
176
161
158
160
151
124
125
117
118
116
106
33
30
28
97
93
82
127
114
99
48
43
31
152
152
144
102
97
85
34
30
22
136
127
110
68
61
54
101
101
95
125
117
106
44
39
36
71
73
65
147
146
129
101
99
89
121
122
110
114
113
105
66
65
61
63
61
56
209
209
186
140
139
115
133
131
113
134
133
117
38
38
33
46
48
44
62
60
54
51
46
40
61
56
51
48
45
42
64
59
56
59
53
49
41
39
33
68
66
61
100
95
84
69
68
64
78
74
70
71
67
65
108
104
98
101
100
92
66
64
60
26
27
29
52
50
49
76
70
66
63
59
54
74
72
66
65
64
60
96
92
82
91
86
75
93
87
76
77
70
60
75
71
59
88
85
74
59
55
49
81
70
56
91
91
81
101
101
90
135
134
118
155
150
136
177
174
152
166
162
145
176
173
154
154
149
130
149
142
119
138
133
120
105
101
92
112
109
95
160
156
139
161
157
140
164
161
141
115
113
104
92
90
82
204
202
189
119
115
102
67
63
56
133
133
126
221
225
216
195
198
179
154
150
132
168
164
145
109
105
93
78
75
62
109
105
91
111
106
93
122
118
109
138
133
113
120
111
90
204
200
183
244
241
220
134
129
108
52
45
38
58
51
43
89
80
66
135
124
101
172
161
136
177
167
145
206
196
173
60
54
46
94
87
75
197
183
162
149
140
125
127
121
111
122
110
96
154
143
127
78
73
65
84
79
64
198
189
168
174
163
145
53
50
40
134
128
112
105
96
84
137
128
108
201
195
172
209
203
179
191
184
162
205
198
178
179
169
150
130
123
109
44
38
32
47
44
38
67
63
58
67
60
52
104
99
84
121
114
106
124
123
110
210
208
190
201
200
176
197
198
179
162
161
149
122
116
105
148
142
131
195
192
174
152
148
137
172
168
158
84
78
74
100
96
83
89
83
64
89
83
68
89
82
69
108
101
92
161
158
143
188
185
167
184
179
162
186
182
164
109
105
94
114
107
93
75
73
59
166
160
133
115
108
91
24
22
19
28
26
21
39
35
29
52
49
40
71
63
55
86
77
66
106
99
88
124
117
106
121
114
102
121
114
101
125
118
105
131
125
110
129
126
111
123
120
108
120
116
104
121
117
106
119
113
102
116
113
99
116
114
97
111
109
91
104
98
85
102
97
82
83
79
67
116
112
101
134
130
119
138
132
120
146
142
128
121
118
102
121
116
102
115
107
93
86
77
62
77
68
54
85
76
63
128
124
107
111
106
91
111
106
90
112
109
95
106
103
87
124
119
105
130
124
108
118
112
97
120
116
101
120
116
101
120
116
101
114
110
94
102
98
83
110
108
94
103
100
88
93
90
77
114
112
98
114
111
96
107
103
89
114
110
97
102
98
87
62
58
47
81
77
68
69
68
58
100
98
87
106
104
92
107
103
91
100
96
83
110
106
93
114
109
97
109
105
92
106
102
89
98
94
82
93
89
78
79
74
64
66
63
53
81
79
67
95
91
78
91
88
75
91
89
75
90
87
76
103
98
86
108
101
90
104
97
86
97
90
79
100
94
83
111
105
89
104
97
82
106
100
85
107
102
90
85
80
70
91
84
74
90
83
72
100
95
83
109
104
94
85
80
71
85
81
68
90
86
74
88
84
72
90
85
74
89
84
73
85
80
69
74
70
59
77
72
62
78
73
63
78
73
62
78
72
62
72
65
56
69
65
55
188
184
164
134
133
126
145
148
137
147
150
140
135
135
124
119
119
106
37
35
32
96
94
83
125
112
97
47
41
32
149
151
146
90
89
77
35
32
24
143
134
115
68
60
54
102
101
96
116
110
100
41
38
33
70
71
65
151
149
133
97
96
86
122
121
111
113
114
106
64
64
61
67
64
61
208
205
187
138
137
116
136
136
113
137
136
118
37
38
33
48
50
49
56
50
45
70
56
49
62
53
47
60
56
49
75
71
64
59
54
49
52
53
46
52
47
45
76
72
62
79
78
74
81
77
75
64
62
59
107
105
99
99
98
91
64
62
60
28
27
29
51
49
48
68
65
61
55
53
45
55
53
49
53
50
49
93
90
85
32
30
30
51
48
46
54
52
47
44
41
37
62
57
50
42
38
35
58
50
45
71
70
61
70
70
60
123
121
108
159
157
131
127
123
108
172
168
150
142
138
120
140
134
118
171
165
145
118
114
103
111
107
100
110
105
93
129
123
105
162
158
139
183
179
158
127
123
113
94
94
85
204
203
190
115
111
98
67
63
56
133
135
123
220
222
203
177
177
160
156
153
138
189
185
163
120
116
100
100
97
80
127
123
106
114
109
98
120
116
107
151
145
126
140
132
109
180
177
157
242
238
220
150
144
123
56
49
41
60
54
45
82
73
58
126
115
93
173
164
139
165
157
135
208
197
176
55
49
43
97
90
79
198
185
165
143
135
120
136
130
120
112
100
86
154
144
126
80
75
70
85
80
63
198
189
168
175
165
146
49
46
35
120
113
101
109
101
90
152
142
122
205
200
176
211
205
182
193
186
164
204
198
177
171
161
142
116
109
96
43
37
31
45
41
35
55
50
45
66
59
51
107
102
86
155
148
131
143
140
125
201
198
180
197
194
172
193
193
173
162
160
147
126
119
109
164
159
147
192
189
170
162
159
145
149
148
131
157
156
134
163
161
140
172
168
142
167
162
142
151
145
126
188
183
164
159
156
141
148
145
134
191
185
174
185
182
168
123
121
108
119
108
96
94
91
78
161
155
132
109
101
87
23
21
18
26
25
20
40
37
31
63
61
52
90
85
74
105
99
85
115
110
96
133
128
114
143
138
125
136
131
118
131
126
112
131
125
112
128
122
110
127
122
109
120
118
107
118
117
104
118
118
105
124
120
110
128
123
114
124
120
109
123
120
109
128
126
113
105
103
91
128
123
112
134
130
116
115
111
94
113
110
91
114
111
91
120
114
98
118
112
95
121
113
97
81
71
60
75
64
55
76
71
62
126
120
109
100
95
81
115
112
98
86
82
74
77
72
63
118
113
92
105
99
84
114
110
95
117
113
98
110
106
91
111
107
92
97
92
78
115
110
97
104
99
88
90
89
75
119
117
102
120
117
101
104
100
84
105
101
88
84
80
70
95
90
80
65
61
53
49
47
40
84
81
73
104
101
91
106
102
90
111
106
94
114
110
98
115
111
99
112
107
95
112
108
95
106
102
90
92
88
78
73
68
59
66
63
54
64
61
52
78
73
63
71
68
56
80
78
67
88
85
75
75
70
60
89
82
71
104
97
85
94
87
76
89
82
71
92
86
71
93
87
75
94
87
77
89
84
73
72
67
57
79
72
61
83
76
65
76
71
60
82
77
67
83
78
69
86
82
69
89
84
72
81
76
65
86
80
74
77
71
64
74
69
59
71
66
56
71
65
56
74
69
59
82
77
67
77
73
63
79
76
67
104
98
85
183
176
158
125
122
116
68
67
64
60
59
56
87
86
79
136
136
121
40
39
35
96
95
84
128
117
101
52
45
37
151
152
148
101
99
87
36
32
24
140
131
113
68
60
54
97
97
92
115
110
100
38
36
31
76
76
72
155
153
138
99
99
89
124
123
113
115
116
108
66
66
63
67
65
62
208
205
190
138
136
117
132
131
108
134
134
116
34
34
30
48
50
48
59
55
49
59
54
47
54
48
45
51
48
41
70
67
60
56
52
46
53
53
47
59
55
51
63
58
54
67
65
62
75
72
69
62
61
57
107
105
101
103
101
95
67
65
63
28
28
29
49
47
47
63
61
55
49
47
42
59
56
52
55
54
53
85
81
74
39
39
38
64
65
66
52
53
52
42
41
38
66
60
55
53
49
42
75
66
56
75
77
67
90
89
81
120
119
107
111
106
96
131
126
116
133
128
116
122
120
104
136
132
121
149
146
132
124
123
116
128
126
117
145
140
126
120
115
100
168
164
143
175
171
147
132
128
114
96
97
86
174
174
162
104
98
86
62
58
51
137
138
123
219
220
192
205
205
177
190
189
167
189
186
163
112
108
96
78
73
57
130
122
102
150
143
122
161
152
137
151
145
118
142
133
112
189
183
169
242
239
229
171
166
146
83
76
62
72
65
51
91
80
66
128
116
95
161
153
133
158
154
136
160
150
134
48
43
38
99
92
81
193
182
162
140
133
119
127
120
112
114
105
96
150
141
126
79
74
70
84
77
60
202
194
172
170
159
140
61
59
47
162
156
145
141
132
123
190
181
167
183
179
159
192
188
166
213
208
190
211
204
185
176
166
150
106
98
88
42
36
30
46
40
35
52
47
40
78
72
62
102
98
87
98
91
84
119
119
108
208
205
186
197
193
172
190
189
169
164
161
148
128
120
110
180
175
163
184
181
166
200
197
178
167
166
150
118
121
110
116
121
112
114
110
100
123
119
108
120
116
105
121
119
105
149
147
133
173
169
160
152
151
145
151
150
140
125
123
109
120
109
98
64
61
50
164
157
136
109
100
88
24
22
19
27
24
19
40
36
30
63
58
50
98
92
82
109
104
85
126
120
103
122
117
102
81
78
73
99
93
85
125
119
103
137
131
110
140
133
111
142
134
113
148
140
119
145
137
117
143
136
115
143
137
117
149
142
120
137
131
108
143
136
115
141
135
116
110
104
91
143
138
119
123
121
103
146
142
126
164
163
141
165
164
142
162
158
139
152
146
132
120
113
98
99
90
80
67
58
48
73
68
56
88
83
69
103
99
83
105
101
88
91
87
76
84
81
70
98
95
84
116
114
103
131
130
113
124
120
100
136
132
112
134
129
112
125
119
104
130
126
111
121
116
102
114
109
96
136
129
115
139
135
117
135
129
112
134
129
112
102
100
85
165
159
142
101
97
87
65
64
57
93
92
82
128
128
113
131
129
114
136
134
119
138
133
119
131
127
112
132
128
113
141
136
122
132
128
114
112
108
92
94
91
77
95
94
80
69
67
54
92
89
77
91
87
74
96
92
80
95
91
78
94
89
76
102
97
84
103
99
86
107
102
89
118
113
98
112
107
92
123
119
103
110
105
92
89
84
72
78
73
60
102
98
85
97
92
80
101
98
86
99
97
84
82
77
68
95
90
77
99
92
78
91
84
73
89
82
72
77
72
62
74
69
58
80
73
63
80
72
64
69
64
54
87
82
67
90
84
70
95
87
76
96
87
72
176
166
145
84
80
72
6
4
5
7
6
5
113
111
103
129
127
116
41
37
36
95
92
84
120
110
95
48
39
31
123
126
121
89
86
75
33
30
24
131
125
107
67
60
53
87
87
81
122
115
107
38
35
31
82
83
77
157
155
140
106
104
95
127
128
117
118
119
113
69
69
67
68
68
64
213
211
195
140
136
120
137
133
114
138
135
118
33
34
31
46
49
47
55
51
47
62
58
51
63
59
52
53
52
46
67
66
60
58
54
50
56
52
49
57
54
48
57
53
48
63
60
56
76
74
71
62
61
57
106
107
102
104
101
96
70
66
65
27
27
28
48
46
45
79
73
64
46
41
39
70
65
61
50
48
49
79
74
66
72
74
72
74
81
79
61
67
67
45
46
48
77
73
65
55
50
46
86
77
67
105
106
93
138
139
124
131
131
114
149
148
130
129
125
108
124
119
103
152
148
130
156
151
131
154
148
126
154
150
135
120
117
108
163
155
140
128
120
106
153
145
125
170
162
139
138
132
118
102
99
87
158
154
142
114
107
97
62
57
51
113
109
100
157
154
134
174
174
150
204
203
176
189
184
162
97
92
82
79
73
56
164
157
121
163
157
125
137
131
107
147
141
117
175
169
145
187
181
168
243
239
230
179
173
153
128
121
106
124
117
99
130
120
102
143
131
109
160
152
131
137
132
118
123
119
110
53
48
44
98
92
81
192
180
162
145
138
124
133
124
112
125
115
103
151
142
128
77
72
68
89
81
66
201
194
172
166
156
133
79
77
63
155
150
139
139
134
124
206
201
188
236
234
222
235
233
218
233
231
212
199
193
174
169
158
142
97
90
80
42
36
31
42
36
31
46
41
33
62
58
50
135
129
112
140
132
118
124
122
113
209
206
187
209
205
186
204
203
182
173
168
155
123
116
106
180
176
164
127
123
110
216
212
192
194
189
175
102
101
93
150
150
137
144
143
124
134
132
118
142
141
126
154
153
143
135
132
130
200
197
189
147
147
141
95
97
88
136
137
122
124
111
100
89
84
72
166
158
137
112
102
90
24
22
19
34
30
26
47
43
38
68
63
53
105
101
88
119
115
99
129
122
105
132
126
108
65
62
55
126
120
111
139
133
115
154
148
126
152
144
122
152
144
122
151
143
121
151
144
121
144
138
115
150
143
122
155
147
126
146
139
118
152
144
122
149
142
120
118
111
96
154
149
130
157
153
136
169
165
147
167
166
144
164
163
141
167
164
144
173
170
148
160
154
135
123
115
103
105
98
88
55
51
41
80
76
62
104
99
85
112
107
95
94
89
77
114
109
95
105
101
86
126
122
114
152
148
133
140
137
116
143
139
119
148
144
122
149
144
125
141
137
117
140
134
115
136
130
112
137
130
113
141
135
117
133
126
110
127
122
106
87
85
72
134
128
110
99
94
86
73
72
66
96
95
85
125
123
108
131
129
114
130
128
112
137
133
117
126
122
107
123
119
103
130
126
110
125
121
106
92
88
74
84
81
68
92
90
77
78
75
64
82
77
67
74
68
60
70
66
56
88
83
71
99
94
82
97
92
81
89
85
74
118
113
102
132
129
109
129
125
106
122
118
102
118
114
98
103
99
85
106
102
87
110
107
92
109
106
91
108
106
93
109
107
94
99
94
84
103
98
84
99
93
77
98
91
79
95
88
77
86
82
70
87
82
70
81
75
63
85
77
68
67
62
53
88
81
71
72
64
55
90
82
74
81
76
61
160
153
131
91
83
77
6
4
5
23
22
20
117
115
106
149
147
135
43
39
38
94
90
83
114
104
88
48
39
31
143
144
139
90
86
77
30
27
23
132
126
108
70
63
55
84
84
78
125
117
109
37
34
29
82
82
76
157
155
140
104
102
92
127
128
117
121
122
116
71
71
69
68
67
64
213
211
195
143
138
122
143
139
121
137
135
119
31
31
29
50
52
50
59
57
52
59
56
48
55
52
44
52
51
44
68
67
61
59
55
52
60
56
53
61
57
52
61
58
52
72
69
64
82
78
75
62
59
56
100
100
96
103
100
95
68
64
63
25
25
26
43
41
40
78
67
60
76
70
61
81
77
71
51
50
52
67
62
55
88
90
89
83
87
85
78
82
81
50
50
49
63
59
55
60
56
51
90
81
70
122
118
107
114
113
101
121
118
111
119
117
104
150
146
125
149
144
124
173
166
144
156
147
125
154
147
125
142
138
122
140
136
127
139
132
115
127
121
102
138
129
116
166
156
131
128
121
106
85
82
71
189
183
174
119
111
99
54
49
42
132
127
116
189
181
160
151
146
128
156
152
135
188
182
161
100
94
85
81
73
60
97
90
74
154
149
123
108
102
85
149
140
121
194
183
159
199
193
180
244
241
231
173
167
150
130
124
107
135
128
110
138
133
112
148
140
117
157
149
131
127
119
112
136
132
123
69
64
58
92
90
78
193
180
161
140
132
118
127
119
105
133
124
109
157
146
132
92
86
79
93
87
67
202
198
174
172
161
142
83
78
68
136
132
122
161
157
144
206
203
192
233
234
227
239
237
226
234
233
214
202
197
178
170
162
142
91
85
77
39
35
32
41
37
30
46
42
35
43
37
34
57
51
44
124
117
103
122
122
113
210
210
189
216
216
194
207
206
183
179
175
161
122
116
106
190
185
172
164
162
146
221
216
194
187
183
166
77
78
68
151
152
139
146
147
133
137
134
124
144
145
135
143
145
137
140
137
137
187
186
178
136
136
134
137
138
133
130
130
120
126
113
103
86
81
68
169
161
136
107
100
85
28
24
21
41
37
32
69
63
56
85
80
70
120
115
99
144
138
123
131
124
108
150
143
121
159
152
131
152
145
123
164
159
137
167
158
137
174
163
142
175
166
146
169
161
138
170
164
141
167
160
136
173
166
142
169
162
138
164
156
132
166
158
136
167
159
139
128
123
105
146
143
124
159
156
136
167
163
144
160
156
137
171
167
148
169
165
144
176
173
151
169
166
144
164
159
142
148
145
131
98
95
88
55
50
43
87
80
69
106
100
87
99
93
80
103
96
85
99
93
84
86
81
74
141
137
120
139
133
114
133
126
109
136
130
113
139
132
116
119
113
103
136
132
116
145
141
122
134
129
112
140
133
117
132
126
111
129
125
109
88
86
74
147
145
128
92
89
81
78
74
69
112
110
99
133
130
116
141
137
123
141
137
121
148
144
128
133
129
113
130
126
110
124
119
105
131
126
113
93
89
76
83
78
67
99
95
84
93
91
77
111
107
94
94
90
77
95
91
78
108
104
91
106
101
88
116
111
97
110
105
91
104
100
88
129
124
109
122
118
102
119
117
101
113
111
95
118
116
100
111
109
93
109
108
94
111
110
96
108
106
94
106
103
91
106
103
89
104
100
86
100
95
83
99
93
82
98
91
78
92
86
73
85
81
67
88
83
70
92
88
74
80
75
64
90
85
75
83
78
69
78
73
63
100
91
76
140
132
112
134
125
107
78
75
67
81
79
74
142
141
133
137
132
126
43
37
37
96
92
85
125
114
98
46
42
32
146
147
140
95
91
81
32
29
23
136
126
110
71
64
57
83
83
77
125
119
109
39
36
31
58
58
53
129
126
116
105
104
95
128
129
118
122
123
115
71
72
68
68
68
63
210
211
190
144
140
122
126
124
111
109
108
100
45
44
42
51
51
48
59
58
51
65
61
56
62
58
52
60
57
52
79
78
73
61
57
54
62
58
55
64
60
55
63
59
56
63
59
56
77
73
71
70
67
63
105
104
99
105
104
98
70
67
66
23
24
26
56
55
53
74
73
67
66
63
57
64
62
58
48
48
48
80
76
70
83
83
82
77
78
76
76
76
72
72
71
65
67
63
58
54
50
43
92
86
69
100
99
89
121
117
109
140
138
123
129
127
114
158
154
133
138
130
112
152
144
123
163
154
132
175
164
140
155
148
129
131
129
116
155
148
127
153
148
125
142
134
115
161
149
125
122
114
97
88
81
72
172
163
146
109
96
81
53
46
36
124
122
108
201
196
172
190
186
165
191
185
161
190
183
160
104
98
88
76
67
56
125
118
100
107
101
84
110
103
91
185
175
154
194
183
157
192
186
170
245
243
229
166
161
144
122
115
98
126
118
101
125
120
100
147
139
116
143
134
118
157
152
142
210
207
194
77
74
66
93
91
77
192
179
158
133
125
112
115
107
93
107
99
85
126
115
100
90
82
76
97
90
70
191
189
166
170
156
138
58
53
43
149
145
131
176
172
164
213
211
202
231
230
221
233
231
215
232
231
210
199
195
175
160
152
132
80
75
66
40
36
33
40
37
29
48
43
37
47
40
38
70
64
58
122
114
99
124
123
114
201
202
181
202
204
181
187
187
164
180
176
161
113
109
97
195
190
177
188
187
168
222
217
194
190
186
168
94
93
83
154
153
137
156
154
138
146
147
131
149
146
132
151
151
136
163
165
162
194
193
188
179
180
175
196
193
183
137
132
128
120
108
97
94
88
77
166
158
132
106
99
84
29
25
22
40
36
32
59
54
45
64
59
50
91
86
76
99
96
85
115
111
103
139
135
124
122
119
106
120
116
105
129
124
114
137
130
112
143
138
119
145
141
125
144
141
125
140
137
121
145
140
121
142
137
118
141
136
116
138
135
114
140
134
118
148
143
128
110
107
92
98
94
81
111
106
93
129
125
110
133
130
113
158
154
136
151
147
126
148
144
123
155
152
129
160
157
136
155
152
132
153
148
135
97
93
85
52
45
39
84
76
69
79
72
63
93
86
77
112
105
94
104
97
88
98
91
80
107
101
87
109
103
89
105
100
85
99
94
81
97
91
81
105
101
86
100
96
81
109
105
92
109
102
88
112
107
94
102
99
85
71
68
58
84
82
71
84
82
71
80
77
70
99
96
86
112
107
98
92
87
79
111
106
96
99
95
84
99
94
84
103
99
88
95
90
80
86
81
73
83
78
70
78
73
65
79
74
64
94
90
79
86
82
72
87
82
73
99
95
84
90
85
74
90
85
75
89
83
73
94
88
77
94
90
77
103
98
87
95
90
80
95
93
81
93
91
79
100
98
86
94
92
81
94
93
83
94
93
83
87
84
77
90
87
80
84
84
73
83
82
72
78
78
69
73
72
63
74
69
62
72
67
60
69
66
59
66
63
56
71
68
61
66
63
58
65
62
56
55
52
48
68
64
58
98
90
81
125
117
99
134
126
108
136
129
114
135
128
115
143
142
130
133
128
118
44
38
38
105
101
94
118
107
91
41
37
28
146
147
141
94
90
80
35
31
26
136
126
110
71
65
58
86
87
81
135
130
120
45
42
38
80
80
76
147
144
132
102
101
92
130
131
120
122
124
115
72
73
69
67
68
62
214
211
191
148
144
127
81
80
75
117
115
110
68
67
65
69
68
65
57
56
48
70
66
61
67
63
57
63
60
54
82
81
75
61
57
54
63
59
56
64
60
54
64
60
56
67
63
60
80
77
75
62
57
54
109
107
102
108
107
101
70
69
67
25
25
27
53
52
49
78
76
71
61
59
53
68
68
63
34
34
34
73
69
63
77
74
74
79
77
75
81
80
73
70
67
61
60
56
51
46
44
40
63
57
47
99
99
88
100
97
91
96
94
88
123
121
114
154
146
124
154
144
122
155
145
121
154
145
127
128
119
104
127
122
108
125
122
113
159
151
134
118
112
93
157
148
126
150
140
116
125
114
96
85
74
66
185
180
163
105
92
75
58
52
40
123
120
107
198
192
168
192
188
165
178
174
152
188
182
158
97
90
81
62
53
45
145
139
120
153
145
127
125
119
105
192
182
157
188
177
149
187
177
165
248
243
231
165
161
142
117
110
96
123
117
99
130
124
106
145
139
117
135
125
112
126
124
110
196
193
176
87
82
74
93
90
77
189
176
154
132
123
111
106
98
90
103
95
87
113
102
91
95
87
82
102
96
74
197
193
172
175
161
145
59
53
43
176
171
156
182
179
169
227
226
212
234
233
219
232
231
212
231
228
208
182
178
160
153
149
131
77
73
65
44
38
32
43
37
32
50
44
40
48
43
40
94
90
82
140
130
115
131
129
119
210
209
190
201
200
178
197
196
173
179
177
162
118
110
99
210
207
189
202
201
182
207
201
179
196
190
172
79
79
70
98
97
88
95
94
86
96
99
93
99
101
98
92
92
87
134
135
131
181
181
171
162
161
149
177
176
162
139
137
130
121
109
99
80
74
62
167
158
137
114
106
93
32
28
26
44
40
35
71
65
56
105
99
91
158
151
141
102
97
88
163
158
146
131
126
113
140
139
126
158
154
142
141
135
123
169
163
144
127
123
111
173
169
157
174
168
152
134
131
121
178
173
159
153
149
137
168
163
146
150
146
131
158
154
139
159
155
138
131
127
112
120
114
99
81
75
64
101
97
88
141
137
120
134
131
111
145
142
123
160
157
136
154
150
129
156
150
129
160
156
135
163
157
138
150
143
131
85
78
73
63
58
48
88
83
71
105
100
89
75
70
58
88
83
71
112
106
92
119
113
96
127
120
104
125
118
103
120
114
99
116
110
94
125
119
104
139
135
117
132
128
112
127
123
108
126
122
107
130
126
111
106
101
90
93
89
75
147
142
127
126
122
107
96
91
78
119
115
102
94
89
79
114
110
96
92
89
77
69
67
56
59
56
46
65
62
53
62
57
48
61
58
51
54
51
42
72
67
56
64
59
48
90
85
75
67
62
53
84
79
68
94
88
77
122
116
99
159
152
135
138
131
110
148
143
124
156
150
131
132
125
108
131
124
109
123
119
103
129
125
109
123
119
103
129
123
109
109
104
96
103
100
88
95
92
80
95
92
81
85
81
73
65
62
53
70
66
59
61
58
51
64
61
53
59
55
49
75
71
64
82
79
72
88
84
77
103
99
93
86
85
77
114
112
104
98
93
86
137
126
110
157
143
126
160
146
124
142
132
111
139
139
124
130
126
114
43
37
37
109
107
99
118
107
91
42
38
32
140
141
133
98
94
85
36
34
29
135
126
113
74
67
61
80
81
76
118
117
109
41
39
35
87
89
82
154
151
140
98
99
89
131
130
121
121
123
117
69
71
69
68
67
63
218
217
198
150
147
131
88
88
85
124
122
117
77
77
73
66
65
62
61
59
52
65
59
54
61
60
54
64
60
57
83
79
76
63
60
54
65
62
56
66
63
57
65
61
56
65
63
58
95
92
88
68
63
58
124
119
113
111
110
106
68
68
67
25
24
28
56
55
54
90
86
84
69
61
60
71
67
65
48
46
49
49
47
40
84
83
74
69
68
60
66
65
57
69
68
61
67
66
60
49
46
44
82
76
65
104
104
91
91
89
84
89
88
81
88
87
81
121
116
105
149
144
125
156
150
126
144
131
115
149
139
125
125
122
107
128
126
113
159
152
131
145
137
116
156
149
122
153
147
123
125
111
94
82
76
62
168
160
139
95
83
58
59
54
42
127
124
110
211
206
182
193
191
163
194
190
164
194
188
162
103
95
85
57
48
40
155
148
129
170
162
139
124
118
99
187
176
150
183
174
145
183
175
156
198
191
178
147
141
123
108
102
86
120
113
100
119
112
100
132
124
106
134
123
109
113
112
97
177
174
156
87
82
74
97
94
80
187
174
152
134
125
112
114
107
100
82
72
64
116
104
92
100
93
86
108
102
79
197
194
172
165
151
135
63
58
49
173
169
154
177
174
164
210
210
192
224
222
204
216
215
194
188
185
166
141
137
123
117
113
100
64
59
52
43
37
31
45
38
34
51
45
40
46
42
38
111
108
94
149
139
122
130
126
114
207
206
185
215
214
189
194
194
172
178
175
160
111
107
95
206
206
186
185
185
165
150
144
125
179
172
158
156
151
140
183
179
166
177
174
153
167
168
146
180
180
163
158
155
140
183
181
167
177
176
166
153
153
142
172
172
158
141
140
133
122
109
98
90
83
70
171
162
141
112
104
91
34
30
28
45
42
36
80
75
64
52
45
35
142
135
120
82
77
69
130
126
111
140
135
119
129
129
111
173
169
154
61
55
48
172
166
152
123
120
108
146
142
130
146
140
124
131
129
117
194
188
171
85
82
73
166
163
143
118
115
103
142
136
122
147
142
128
66
62
53
112
107
96
99
93
81
52
49
42
109
107
87
120
116
99
102
98
85
141
135
120
151
147
129
158
152
133
155
149
130
161
154
135
154
148
131
143
136
125
98
93
85
57
52
47
79
76
63
91
88
72
91
87
72
115
109
93
122
116
98
138
132
114
135
128
113
123
117
101
127
121
105
145
138
122
164
160
141
155
151
134
150
146
129
141
137
122
139
135
119
98
94
81
124
120
104
116
112
98
81
77
66
89
85
74
123
119
106
98
94
82
100
96
81
78
76
62
73
71
58
55
52
42
63
61
51
78
73
64
48
44
37
53
49
42
57
52
45
47
41
33
64
59
50
84
80
69
120
115
104
121
118
107
118
115
101
111
108
93
135
124
108
143
136
117
141
135
117
133
127
109
128
120
104
123
118
102
127
123
106
127
123
106
124
118
103
111
107
97
112
109
97
106
102
90
106
103
94
96
93
83
87
85
77
83
80
73
82
78
70
86
83
75
80
77
69
96
93
85
91
87
80
95
90
84
69
64
59
56
52
47
76
74
67
75
72
66
124
118
100
152
142
124
156
147
120
124
118
99
118
117
107
121
116
109
37
34
33
97
93
85
125
114
96
46
43
34
152
154
145
101
97
89
37
35
30
141
134
120
78
70
64
86
87
82
114
114
106
38
36
32
80
82
76
151
148
138
105
105
95
127
126
116
115
117
111
66
68
66
68
66
64
214
215
202
144
144
128
54
52
49
94
90
84
57
57
54
54
53
50
62
61
54
75
71
63
68
65
56
68
64
60
77
73
70
65
61
56
66
62
57
67
63
57
66
62
57
73
71
65
52
50
46
63
62
57
113
113
105
111
110
106
66
67
65
25
24
28
58
57
57
88
84
83
72
64
63
70
67
64
40
37
42
43
42
36
121
118
110
63
62
55
59
59
52
68
67
60
62
60
54
49
45
39
61
55
48
97
96
88
105
105
93
99
98
90
84
83
75
126
124
110
160
154
132
174
168
142
174
166
141
174
166
139
176
166
145
124
121
109
173
167
146
139
131
114
166
157
133
150
142
117
115
102
85
82
79
66
146
139
123
77
66
54
56
48
42
114
112
96
199
193
167
157
153
131
179
174
151
188
180
154
114
107
92
56
50
40
155
149
128
155
147
124
123
114
96
200
190
168
175
164
143
131
119
95
172
163
137
138
131
113
139
132
114
129
123
106
126
119
104
135
130
113
116
108
91
126
120
109
171
167
156
97
90
86
112
104
95
186
171
151
121
112
99
122
119
108
101
93
79
110
98
84
108
102
93
116
111
87
205
203
180
169
157
138
49
42
32
165
163
148
174
172
160
212
211
193
227
226
207
216
215
193
195
193
175
143
139
125
65
60
52
39
35
31
42
38
34
48
42
38
55
49
44
48
45
39
109
105
93
142
135
118
141
137
124
212
210
192
211
210
186
191
191
169
173
170
157
126
119
106
147
143
133
118
114
101
91
85
77
167
161
147
191
184
164
165
159
134
194
187
157
181
178
150
198
196
165
183
178
148
180
177
163
83
82
79
97
95
95
97
96
91
126
125
121
121
108
97
98
91
79
170
160
137
116
108
95
37
33
31
52
46
41
96
89
79
66
59
49
167
158
141
108
103
95
160
156
141
145
140
125
123
122
107
179
176
158
93
87
79
193
187
173
136
133
120
173
171
156
175
171
153
136
133
121
192
185
171
103
101
92
170
169
150
149
147
134
136
132
118
167
162
148
80
79
68
101
98
88
92
85
76
73
70
60
91
88
76
122
117
105
117
112
101
105
100
85
141
137
121
157
153
135
155
151
132
163
158
140
154
150
133
154
149
133
144
137
125
132
125
114
94
89
78
93
86
72
122
116
100
116
109
93
135
128
110
154
147
129
144
138
122
139
132
116
144
138
122
161
155
139
168
162
146
163
157
141
154
149
135
134
129
115
124
120
105
141
138
118
139
136
116
88
84
75
127
123
112
147
144
131
111
108
96
119
116
104
100
98
81
83
79
65
84
80
68
52
47
37
57
52
42
59
53
45
61
56
48
47
41
35
60
55
49
49
44
36
58
53
43
64
59
47
94
90
78
132
127
114
142
138
124
130
126
111
131
121
103
128
119
101
131
124
107
129
123
107
130
124
109
127
120
106
124
120
105
123
119
104
120
117
104
107
104
96
111
108
98
108
105
95
106
103
92
109
106
95
104
101
90
109
106
96
100
98
87
102
100
89
90
88
81
95
94
83
90
83
77
107
101
97
89
82
78
81
77
72
99
96
88
106
103
94
140
129
112
136
127
111
155
145
123
134
128
113
125
123
113
122
117
108
36
31
32
93
90
82
129
117
103
48
45
34
155
156
147
101
97
89
34
32
27
137
131
114
74
68
61
89
91
86
121
121
112
39
38
34
75
78
71
151
151
139
102
102
92
125
124
114
114
113
107
67
67
65
66
66
63
205
206
196
136
135
123
76
74
68
119
116
106
39
39
33
40
39
35
57
56
52
76
73
67
82
79
70
82
77
71
79
75
71
69
62
58
80
77
71
73
69
64
66
62
56
59
57
50
42
39
37
74
72
67
118
120
113
112
110
107
69
68
68
26
25
27
59
58
56
81
80
75
62
59
54
73
73
68
24
23
23
46
44
40
84
83
75
85
82
79
65
66
59
68
68
61
55
50
45
57
52
46
70
65
58
97
95
82
92
89
82
85
84
77
99
98
91
119
117
104
152
147
127
152
149
130
149
145
126
159
155
133
152
146
131
125
122
111
151
146
127
153
147
126
153
146
119
146
139
114
86
76
60
78
74
64
132
125
115
109
102
93
66
62
54
124
120
105
202
195
171
164
160
138
160
155
136
181
174
149
117
109
94
60
54
45
154
148
127
162
155
131
124
115
97
192
182
160
171
160
138
145
133
111
232
222
194
127
120
103
139
134
116
136
131
110
135
129
110
135
130
113
121
112
97
136
127
114
144
140
129
110
103
96
159
151
136
197
179
150
127
114
100
113
110
101
122
115
102
111
101
86
115
108
98
141
134
117
201
198
180
161
150
133
63
53
45
148
148
131
180
176
163
199
198
180
221
219
200
221
219
199
200
198
182
121
117
106
59
54
46
43
39
36
39
35
32
47
41
36
56
50
46
46
42
37
105
102
91
129
124
107
144
137
127
128
124
115
184
182
168
192
192
171
176
173
160
123
115
104
118
113
106
160
156
138
147
142
131
116
113
103
177
174
156
165
161
135
203
200
167
175
172
148
204
202
174
187
180
150
158
154
141
117
115
115
124
122
122
112
111
108
107
106
103
125
112
101
104
97
83
171
161
138
119
111
98
41
36
34
55
49
44
98
91
81
80
72
62
163
155
134
112
106
94
154
150
134
148
143
129
145
143
128
178
174
156
101
96
86
186
181
164
140
136
123
180
176
160
181
176
157
133
129
117
192
185
173
117
113
105
174
172
154
147
145
131
138
134
122
145
140
127
83
81
72
120
117
107
104
97
89
88
84
77
31
28
24
66
63
62
28
27
23
113
112
102
120
118
102
140
136
120
156
152
135
157
150
134
155
148
132
151
145
128
144
137
120
144
138
121
131
124
109
85
79
68
117
111
98
129
123
106
139
133
115
148
141
123
150
143
127
145
138
122
149
142
126
168
161
145
167
161
145
155
149
133
151
147
130
141
137
122
131
126
110
147
143
123
120
116
102
155
151
138
151
147
129
147
145
127
116
112
103
75
71
65
80
77
67
86
81
71
84
79
70
61
56
47
65
60
51
63
58
48
64
59
48
66
60
48
67
62
50
61
56
43
68
63
51
80
75
64
87
82
71
124
119
106
144
139
125
129
124
109
127
115
97
127
119
102
134
127
112
129
123
107
130
123
109
124
117
103
125
120
106
123
119
104
123
121
107
106
103
96
104
101
90
107
104
94
109
106
96
107
104
94
104
101
91
112
109
99
111
108
98
111
108
98
86
85
77
95
92
83
97
91
84
104
98
92
92
85
80
91
86
82
100
97
90
100
97
89
144
132
116
141
131
115
145
134
117
132
126
108
127
125
114
119
114
106
36
32
32
97
94
87
126
115
101
43
40
29
155
156
149
99
95
86
32
29
24
133
127
110
76
71
64
87
89
84
116
116
107
43
42
38
74
77
70
157
156
144
101
101
92
131
130
120
122
121
116
70
71
69
72
73
70
201
203
193
137
137
125
90
87
82
124
121
110
40
40
34
55
54
47
69
67
60
87
80
74
76
69
63
88
84
78
84
80
76
74
68
63
77
73
67
78
74
69
76
72
66
80
77
71
80
76
75
73
70
65
117
118
111
112
109
106
65
64
64
28
28
29
58
57
55
81
79
74
68
67
61
77
76
72
21
20
20
51
50
46
82
79
72
86
83
79
67
67
60
71
70
61
110
104
98
53
48
43
56
53
46
84
81
70
89
86
76
108
106
96
95
92
84
95
93
84
77
72
62
80
76
65
80
76
66
88
86
76
84
82
73
59
54
49
72
65
59
68
61
52
73
66
55
70
61
50
61
52
43
101
93
81
133
128
110
87
76
65
110
103
92
136
134
120
182
177
153
160
156
134
153
150
128
177
171
148
110
101
85
63
55
47
157
149
129
172
163
140
119
110
92
192
182
157
164
154
130
209
198
166
224
215
184
68
60
49
53
48
37
73
67
56
82
75
64
93
87
76
96
89
75
131
123
112
116
111
99
120
114
103
142
132
111
212
202
172
186
178
158
174
170
153
172
169
148
169
165
146
162
157
139
198
192
179
137
134
123
123
111
97
93
82
73
139
139
124
141
135
127
117
115
102
128
126
113
109
106
97
70
66
57
49
41
34
54
47
41
55
48
44
42
36
31
43
37
32
56
50
45
45
41
36
103
100
89
132
127
113
145
139
129
147
141
129
167
164
149
195
193
171
180
178
164
105
100
88
191
188
164
143
140
126
127
126
112
169
167
145
168
165
143
140
131
110
138
129
103
123
116
87
122
115
91
123
113
86
161
156
142
132
129
121
126
125
122
107
105
97
123
123
113
123
112
95
106
100
87
168
157
137
119
109
98
40
36
31
58
53
46
102
97
85
79
72
62
160
153
135
118
112
100
145
142
128
149
145
130
141
138
123
184
179
162
106
99
89
191
184
168
145
140
128
183
177
161
181
175
157
148
144
133
196
189
178
102
98
89
162
157
140
159
157
144
158
154
141
153
148
136
83
81
73
113
109
97
104
99
87
102
100
87
133
130
121
108
107
104
151
151
139
111
111
99
165
163
143
163
158
138
141
134
117
147
140
123
152
145
129
153
147
127
137
130
113
138
132
117
136
133
117
120
115
103
80
74
64
115
106
92
145
136
120
145
137
119
157
149
132
145
139
120
154
147
129
172
166
148
168
161
145
167
161
143
161
155
139
143
138
119
157
151
133
138
134
122
128
126
116
172
170
152
148
146
128
134
131
114
126
122
112
88
85
76
91
86
76
72
67
56
93
88
76
96
91
78
79
75
63
84
77
67
75
67
58
58
51
41
65
59
49
64
59
48
62
57
46
83
78
67
99
94
85
137
133
119
138
133
119
129
124
110
131
119
101
134
126
110
138
129
116
131
122
109
128
121
107
128
121
107
126
119
105
126
119
105
117
112
101
102
97
88
95
92
82
106
104
93
104
101
92
105
102
94
102
101
92
111
111
98
109
106
96
105
102
92
88
85
79
99
94
85
90
85
77
102
97
91
87
81
76
91
86
81
80
76
67
96
92
85
154
142
126
151
142
125
162
151
130
149
143
123
121
119
109
123
117
108
37
34
34
100
98
91
124
112
101
42
38
31
151
152
146
102
98
89
31
28
24
135
128
114
76
71
64
86
88
83
118
117
111
44
42
40
77
78
73
158
155
145
105
101
94
134
132
123
129
129
122
73
75
74
75
75
73
198
199
189
147
146
134
104
104
97
112
111
103
45
43
40
69
61
57
80
76
67
84
79
75
68
63
59
85
81
76
83
80
75
69
63
59
72
66
61
76
72
67
84
81
75
83
78
71
89
84
78
83
74
72
118
116
112
115
113
110
68
66
67
30
29
33
59
58
58
82
81
75
67
66
60
71
68
64
18
16
17
54
51
49
86
83
77
100
96
93
84
80
74
121
116
112
71
65
58
94
91
84
68
64
58
77
72
62
76
72
62
80
78
69
93
89
81
81
78
68
88
83
72
86
82
70
88
83
72
78
75
63
85
82
71
82
77
68
76
71
60
78
73
61
82
77
64
83
76
64
94
88
76
123
115
105
96
91
78
99
86
76
75
66
58
150
147
135
165
160
137
173
169
141
200
198
170
195
188
166
96
86
72
67
58
50
151
143
124
163
153
131
110
100
83
205
197
173
175
164
138
228
218
179
162
154
130
50
40
31
45
40
30
53
46
35
60
52
41
63
56
44
70
64
49
102
93
85
82
73
60
121
114
100
99
87
73
144
132
116
62
53
40
75
63
53
72
60
46
75
63
46
85
74
56
149
142
129
96
92
80
85
75
62
116
105
90
136
128
118
101
94
88
58
50
41
55
46
37
51
43
34
47
39
30
51
42
34
45
38
34
58
55
49
55
52
47
44
38
33
48
42
38
47
44
39
97
94
81
130
126
113
124
119
107
198
193
170
201
199
173
189
186
163
178
174
161
99
95
84
193
191
165
203
200
172
204
203
175
191
187
162
82
78
60
102
92
70
117
107
82
113
105
79
122
116
87
125
116
83
158
152
133
166
163
149
152
153
142
154
152
136
119
121
109
123
111
96
106
100
87
170
158
138
119
109
98
41
37
33
59
53
47
87
82
72
85
78
68
151
145
129
120
114
104
157
153
138
154
150
135
141
138
123
183
179
163
114
109
96
194
188
169
146
140
127
185
178
161
182
173
155
159
155
142
190
186
169
163
160
143
170
165
147
146
143
129
153
150
136
143
139
125
108
103
95
101
97
85
110
106
92
108
106
92
127
125
109
108
107
94
120
118
108
108
105
93
125
122
108
155
150
138
125
118
107
99
90
81
93
84
76
124
116
101
125
117
107
72
67
56
71
68
56
117
113
99
119
113
102
74
64
59
131
122
108
147
138
121
158
151
133
152
144
126
159
152
134
168
162
144
158
151
134
157
150
132
147
140
122
153
146
126
136
130
117
114
111
103
162
160
144
153
152
130
149
147
129
147
143
127
134
130
119
87
83
72
103
99
84
103
99
82
114
110
94
116
112
96
85
79
66
80
73
61
83
76
65
86
79
66
85
79
67
76
69
57
69
64
55
80
75
65
107
101
93
129
125
111
144
139
126
126
120
107
124
112
94
144
138
123
129
120
107
131
122
109
131
125
111
129
122
108
124
117
103
124
118
104
119
114
102
108
103
94
100
97
86
109
106
95
113
110
102
109
106
98
106
105
96
111
110
98
108
106
95
107
104
94
84
82
75
96
90
82
103
97
89
99
94
87
86
82
76
91
85
80
81
77
71
99
96
86
152
141
126
139
131
114
157
147
126
145
138
121
118
116
107
126
121
111
39
36
35
102
100
94
126
115
104
44
40
34
143
144
137
106
101
92
32
30
26
143
137
121
74
69
62
88
90
85
116
115
109
43
42
40
81
82
74
157
155
142
101
97
90
134
131
124
116
116
109
64
66
64
78
77
76
193
194
184
132
134
118
114
112
103
112
110
103
48
46
43
72
66
62
72
64
57
81
77
68
71
66
63
81
77
73
78
74
69
81
75
70
80
74
70
78
74
68
74
70
64
75
69
63
83
78
71
78
72
70
110
110
105
112
110
107
61
60
61
31
30
33
60
59
59
88
87
81
80
79
72
66
62
58
15
12
13
59
56
54
75
72
65
63
61
56
81
76
66
114
107
103
59
52
48
63
59
54
62
59
52
80
75
66
98
93
81
88
83
74
89
85
74
91
87
76
93
87
75
94
88
74
100
93
80
101
94
81
100
92
80
103
96
83
106
99
85
114
105
90
117
109
89
114
108
93
107
101
85
99
93
81
125
118
108
87
81
73
146
143
135
168
165
146
162
160
134
188
186
156
176
174
150
170
163
144
73
63
55
74
64
55
157
149
130
173
163
144
125
115
101
150
140
126
177
168
141
217
207
179
62
53
44
50
43
36
48
42
34
54
46
36
60
53
41
60
53
42
61
55
44
51
43
36
69
61
50
126
120
105
71
62
50
41
33
25
52
45
37
54
46
38
55
47
39
56
49
39
56
48
38
59
50
43
54
47
39
62
55
42
120
110
92
72
63
54
48
39
32
52
43
34
49
41
32
48
40
32
46
38
30
47
39
33
45
37
32
62
56
51
72
66
62
59
55
50
47
43
38
54
49
46
96
92
82
131
127
111
101
96
85
198
194
174
198
197
169
193
190
168
179
175
161
114
108
97
198
194
170
207
205
177
205
205
172
181
178
158
67
60
49
89
83
68
98
96
79
105
106
86
107
103
85
105
96
79
159
153
133
164
162
143
150
153
133
158
156
143
113
112
111
117
108
98
117
114
100
169
158
137
117
106
95
40
36
32
61
55
49
89
84
73
104
98
87
151
144
131
116
110
102
155
151
136
158
155
138
147
143
126
185
182
165
123
122
105
190
185
167
167
161
146
189
182
164
181
172
155
161
157
145
184
182
161
151
149
128
184
179
159
160
155
139
164
161
144
150
146
131
99
94
85
128
124
109
119
115
102
157
152
139
150
146
129
152
148
133
127
122
110
116
111
102
75
69
60
92
84
75
117
111
98
129
123
109
115
108
96
95
89
81
123
116
102
109
106
91
132
127
114
130
125
114
129
124
113
126
118
111
80
73
65
140
132
120
150
142
124
149
141
121
151
144
126
145
138
120
139
131
112
155
147
128
150
142
123
154
147
127
120
114
105
161
159
144
154
152
134
162
158
140
164
160
143
162
158
141
133
130
117
79
75
67
112
108
95
112
108
94
107
104
91
118
114
102
100
94
83
95
88
78
95
89
79
89
83
68
87
80
66
98
91
75
68
62
56
98
93
83
99
94
86
117
112
99
138
133
121
114
108
98
134
122
107
137
131
115
132
126
112
133
126
112
132
125
112
131
124
111
129
122
109
127
119
107
123
116
102
108
103
94
99
96
86
111
108
98
113
109
101
110
108
100
105
102
92
107
104
94
107
105
93
105
103
92
85
82
77
100
96
87
118
114
105
101
96
88
88
83
78
86
82
77
84
80
74
106
102
93
148
139
125
140
133
116
159
150
128
148
142
124
112
110
99
118
112
103
37
34
33
99
97
92
125
117
106
45
41
37
141
143
134
101
97
90
33
30
25
140
133
116
72
66
62
99
101
96
115
113
107
44
42
41
80
83
76
161
160
148
95
93
87
132
130
124
118
116
111
64
62
61
83
81
79
196
196
185
141
141
127
117
116
108
122
119
110
50
46
41
72
66
59
75
69
62
80
75
64
85
80
73
92
84
76
82
75
67
81
75
68
82
77
70
80
75
68
86
80
73
81
77
72
101
96
90
89
84
80
110
108
104
106
105
103
57
57
59
31
32
35
60
60
61
94
91
86
95
92
86
67
63
58
13
12
10
57
56
50
61
59
52
55
50
48
92
85
77
92
85
78
60
52
49
63
61
56
62
61
54
189
180
159
186
177
155
179
171
149
177
170
146
186
177
153
186
179
153
191
186
159
202
198
172
216
210
192
212
206
188
211
211
190
208
208
189
213
210
193
216
213
193
221
220
201
223
222
207
220
218
205
222
221
207
217
215
198
197
192
176
159
153
136
157
154
129
179
175
147
189
186
162
185
178
159
82
74
65
71
61
51
148
139
123
179
168
151
157
147
133
158
149
131
149
141
119
158
149
131
51
42
34
46
40
33
46
40
33
51
44
34
54
47
36
56
48
37
56
49
38
47
39
33
52
44
35
89
82
71
53
43
36
43
34
30
42
33
29
45
37
33
45
36
32
48
40
33
51
43
37
50
42
38
45
36
32
51
42
33
73
62
52
56
48
41
42
35
27
48
39
31
46
38
30
45
38
29
45
37
29
45
36
31
45
37
32
48
42
38
76
70
65
52
49
43
50
44
39
62
53
47
99
93
79
137
132
115
124
121
108
197
193
174
193
190
164
182
179
155
180
176
161
104
94
80
203
194
177
209
205
180
189
187
164
181
180
161
79
72
62
93
86
71
122
113
90
146
141
108
154
146
113
128
117
96
158
158
141
166
164
144
150
152
134
160
157
145
118
115
115
121
116
106
101
95
80
167
156
133
112
102
89
42
38
33
59
54
46
110
105
90
136
130
113
151
145
127
125
119
106
159
155
140
155
151
133
153
148
130
180
175
159
148
147
129
193
187
171
162
155
141
187
181
161
180
171
153
150
147
134
188
184
165
159
155
136
164
158
138
171
165
147
143
140
123
128
124
109
109
104
93
144
140
124
127
122
109
166
161
147
163
160
138
170
166
146
158
154
136
160
156
141
102
97
85
101
94
85
168
162
143
163
158
138
158
152
133
119
115
103
113
107
93
140
136
121
130
125
113
126
121
110
118
113
101
128
121
110
124
117
106
107
101
93
96
90
81
106
101
90
111
108
97
103
100
89
105
100
92
113
108
100
97
92
85
120
117
109
153
150
137
158
153
135
160
155
137
168
164
148
165
161
144
166
162
145
141
139
125
78
75
67
87
83
74
87
82
74
79
76
68
83
80
72
86
84
76
81
78
71
99
95
87
109
105
90
111
107
92
93
89
73
89
82
77
88
83
74
98
93
85
109
105
93
116
111
101
106
101
92
148
138
123
135
129
113
132
125
112
133
126
112
132
125
110
127
121
106
129
123
108
128
121
107
119
115
102
106
103
95
100
97
87
110
107
97
113
109
101
110
108
100
107
104
94
105
102
92
108
105
97
105
101
94
83
80
75
101
97
89
99
94
84
102
96
88
85
82
77
78
74
70
94
92
86
102
99
88
159
151
138
147
140
124
163
152
131
147
141
123
117
115
103
120
115
106
39
36
35
109
107
102
130
121
111
46
42
38
146
147
139
100
96
88
34
32
27
143
136
119
76
70
66
103
104
100
115
112
107
42
41
39
79
81
73
164
163
151
95
93
88
132
130
124
122
120
115
68
66
65
93
92
87
197
197
182
131
131
117
106
105
98
115
112
103
51
47
42
69
63
57
72
67
58
72
67
56
64
58
51
67
62
52
69
64
55
71
65
58
67
62
55
68
62
55
83
77
70
80
74
66
101
91
83
93
86
81
111
107
103
104
103
101
57
57
59
35
35
37
55
55
55
100
97
91
98
94
88
85
82
77
15
14
12
61
59
57
65
63
59
53
49
44
62
55
51
41
38
35
55
43
37
46
45
39
59
58
52
176
167
144
179
170
149
180
172
155
178
171
148
190
182
157
193
186
163
191
183
160
182
176
154
188
184
161
198
194
170
177
172
149
174
167
147
155
148
128
155
148
125
162
157
133
177
170
147
173
165
142
182
173
145
181
174
145
185
176
153
191
181
160
159
153
136
190
185
159
197
195
169
193
187
164
190
183
166
70
63
53
107
99
83
152
141
120
172
162
145
168
157
133
115
105
84
67
58
45
42
37
28
42
34
26
44
36
28
45
37
30
45
37
31
44
38
31
45
39
32
45
40
31
44
39
31
41
33
28
41
33
29
39
33
28
38
32
27
42
36
31
45
38
34
43
37
31
46
40
33
45
37
31
57
49
43
50
44
37
38
32
25
50
44
37
43
38
31
44
36
31
45
37
31
42
36
29
41
35
28
38
32
27
38
31
27
36
30
25
42
36
32
40
34
30
64
59
49
114
107
92
126
120
99
123
120
102
181
180
163
192
190
174
176
175
156
194
191
166
187
182
167
111
100
85
204
195
178
212
207
184
200
196
172
177
176
157
69
61
50
98
90
75
92
83
68
71
63
53
95
87
70
136
127
103
178
174
151
162
160
142
133
134
119
114
113
106
88
86
81
108
105
98
94
89
83
165
154
141
109
98
86
41
38
31
61
56
46
90
83
69
118
110
95
150
143
130
134
127
113
148
144
129
147
144
128
155
150
133
164
159
143
102
100
84
183
176
160
152
145
131
187
179
161
178
169
149
152
149
134
177
173
154
158
155
135
150
145
127
138
132
117
112
109
95
114
112
99
107
103
89
137
133
119
148
144
130
155
151
138
157
154
138
169
166
149
154
151
133
131
127
111
140
134
127
141
135
130
128
126
114
139
136
125
128
125
114
124
121
103
118
112
99
96
88
80
109
102
91
128
120
109
122
115
104
124
116
105
129
125
111
131
125
112
135
129
117
152
144
127
163
158
139
165
160
141
162
157
139
173
168
150
161
157
141
172
168
152
160
157
140
159
156
138
169
166
147
173
169
150
161
157
141
165
160
147
155
152
140
146
143
132
133
130
118
143
141
128
138
135
123
140
138
125
133
131
118
135
132
124
133
130
122
105
100
91
94
89
81
115
110
98
113
108
100
105
100
91
97
92
83
129
124
110
120
116
104
110
105
94
147
135
122
133
126
110
133
126
112
132
126
112
134
128
113
131
125
110
128
123
109
124
120
105
114
111
103
96
93
86
98
95
87
108
105
97
110
107
99
107
103
95
106
103
95
106
103
95
106
103
95
103
99
92
74
74
69
85
82
75
94
90
83
95
91
85
78
76
72
77
76
73
77
77
70
99
97
80
165
157
143
136
127
111
169
157
134
152
144
124
117
118
106
124
121
112
37
35
35
114
112
106
122
114
103
46
42
37
150
148
139
107
102
93
36
33
29
140
134
118
80
73
68
107
108
102
124
120
115
43
42
40
78
80
73
168
168
154
96
94
91
131
130
126
122
122
116
68
68
66
102
101
96
198
198
185
135
132
122
136
134
123
119
117
106
55
51
47
66
59
52
60
51
45
74
61
53
80
67
56
76
64
52
76
67
54
82
71
63
79
68
59
87
76
66
90
78
69
98
81
73
103
90
81
113
105
97
115
110
106
101
100
100
55
55
55
82
82
80
86
86
80
108
107
99
116
115
106
100
99
92
39
38
37
56
54
54
55
54
49
53
50
43
61
58
51
62
58
53
53
42
39
48
46
41
76
77
71
171
162
142
166
158
137
184
178
155
186
181
154
188
181
156
204
197
174
194
187
164
200
195
172
188
184
160
185
180
157
172
167
144
184
178
157
150
143
125
150
143
121
173
165
143
179
174
151
168
163
139
148
142
124
87
81
72
122
115
101
165
159
142
99
97
85
203
196
173
146
143
121
194
187
169
204
199
176
175
170
153
93
87
76
119
109
94
125
113
92
127
116
92
145
135
112
95
88
72
40
34
28
41
33
26
40
32
24
41
33
27
41
33
27
42
36
29
42
37
29
44
39
28
46
41
29
44
36
28
74
68
61
62
56
48
56
50
42
59
53
44
60
54
45
59
54
44
58
53
42
48
40
34
84
76
70
58
52
46
37
32
25
46
40
33
59
54
48
45
38
31
44
36
29
41
35
28
41
36
28
40
34
30
36
30
26
37
31
26
39
33
28
64
59
51
118
111
96
131
126
106
122
117
102
184
180
162
206
205
185
167
165
154
112
110
103
169
166
141
190
185
170
112
100
88
200
193
175
206
200
177
210
205
182
178
177
158
83
76
64
87
80
65
111
105
89
149
144
125
150
146
120
126
120
96
196
190
164
165
161
143
116
116
105
84
84
77
104
103
98
119
119
113
112
113
104
124
119
105
104
94
83
40
36
30
64
59
50
90
83
69
115
107
93
131
126
110
123
118
99
149
144
128
152
149
134
164
158
142
161
156
140
139
133
118
183
177
161
146
140
126
184
176
157
177
168
148
150
146
131
178
172
155
155
149
132
115
109
95
96
91
79
93
89
78
102
100
87
97
92
79
125
120
109
110
105
94
136
133
122
141
137
125
138
135
123
133
133
120
134
132
120
157
154
142
161
158
146
105
103
95
113
109
100
126
122
108
147
140
123
136
130
112
130
123
112
115
108
98
114
107
95
120
113
101
119
113
101
126
122
107
132
125
111
127
120
108
157
149
131
160
155
134
175
169
149
176
170
152
174
168
150
171
167
150
177
173
156
157
153
136
164
160
143
174
170
154
159
155
137
156
152
137
71
67
60
149
146
136
143
140
129
138
135
123
135
132
119
133
131
118
140
138
124
128
126
108
137
135
122
134
131
122
91
88
81
104
100
97
87
84
75
111
106
96
94
89
81
85
81
72
132
128
111
118
113
101
117
111
99
131
119
106
130
122
107
130
123
109
124
117
106
109
105
96
111
108
99
118
112
104
107
102
95
107
104
97
100
97
91
104
101
93
112
109
101
108
105
97
102
99
91
103
100
92
102
99
91
102
99
89
97
95
84
74
74
68
83
80
73
89
84
77
89
85
79
75
73
70
74
73
71
59
58
55
85
82
73
172
164
149
135
125
110
169
156
134
155
145
127
121
122
110
123
119
110
40
38
38
107
105
99
123
114
103
45
41
36
149
146
137
108
103
94
36
34
29
138
131
115
78
70
65
116
116
111
122
119
114
44
43
41
76
78
72
164
164
153
96
95
91
129
127
124
119
120
114
66
67
65
109
108
103
192
192
179
131
128
119
118
115
106
136
134
123
70
67
62
86
75
66
89
68
61
78
58
50
90
71
57
93
69
56
89
68
56
96
74
62
95
72
61
94
72
57
99
76
64
119
99
90
99
86
77
115
107
97
117
112
106
104
102
102
64
63
65
46
43
47
104
103
100
130
129
123
127
126
119
104
103
98
80
78
77
41
39
39
50
48
43
56
55
50
50
49
43
51
49
43
49
41
37
54
52
47
59
60
54
167
159
138
171
163
144
180
175
151
176
172
147
159
153
134
191
186
165
189
184
165
177
173
150
178
175
151
167
164
140
174
171
148
186
182
160
142
137
118
141
137
114
143
136
112
155
149
129
154
148
128
92
84
72
99
94
85
138
131
124
124
119
107
67
62
52
159
154
134
191
186
173
148
142
131
173
169
156
213
207
187
198
192
174
104
96
86
91
82
65
126
117
100
145
136
114
143
132
113
75
66
55
72
63
53
65
54
45
65
54
45
65
55
46
68
58
47
74
64
52
90
81
67
80
72
58
72
63
52
80
72
62
81
72
61
78
68
57
80
70
59
77
68
56
78
71
60
77
70
59
69
64
56
85
80
71
54
48
44
59
54
47
69
64
54
75
69
60
68
60
55
62
54
48
66
58
50
85
78
67
81
76
68
59
54
48
36
30
24
69
63
58
114
109
99
124
119
102
113
110
95
191
187
173
203
201
181
146
144
138
163
162
150
176
175
163
138
137
118
188
183
170
117
105
91
191
185
166
206
201
176
210
205
180
189
184
167
80
75
64
79
73
59
131
125
107
130
124
106
166
162
133
135
130
109
189
185
163
167
162
146
131
129
122
70
71
69
88
85
80
118
112
109
110
110
110
134
126
116
108
99
86
41
35
31
66
58
53
91
84
70
84
76
62
131
122
109
134
127
111
165
159
145
143
139
124
161
156
139
166
161
145
164
159
143
188
180
164
169
161
144
187
178
158
171
163
142
152
148
133
182
177
161
158
154
137
147
143
127
118
115
101
119
117
102
121
117
102
107
101
86
142
137
117
134
130
111
156
152
134
182
176
158
178
169
150
175
168
146
166
160
137
171
164
142
176
169
148
161
152
135
146
138
123
148
140
123
136
130
113
134
128
111
128
121
106
104
97
87
117
111
99
124
120
108
128
124
112
117
113
99
125
120
106
127
123
109
156
152
132
166
160
142
174
167
149
175
169
151
178
172
154
174
167
149
183
177
158
165
161
144
167
163
146
171
170
152
167
164
147
156
153
137
145
141
131
157
153
138
148
146
129
143
141
126
146
144
129
140
137
126
150
148
133
131
129
115
128
126
113
128
125
114
116
114
100
79
76
72
113
110
102
114
110
98
110
105
98
79
75
69
132
127
114
130
126
111
127
122
109
126
118
103
126
120
102
120
114
102
111
106
93
105
101
93
105
101
92
116
113
103
94
91
82
124
119
111
106
101
94
105
104
96
109
108
100
109
105
97
102
97
90
106
103
95
104
101
93
97
97
89
91
92
85
69
72
69
84
83
77
82
79
74
74
71
67
63
61
59
88
86
82
85
85
79
97
94
85
181
180
165
127
121
107
144
137
121
147
138
125
127
125
116
132
127
120
41
40
39
112
111
104
127
117
109
48
41
38
150
149
137
112
107
97
38
37
34
138
129
117
79
71
67
111
112
106
121
118
113
43
42
40
77
81
75
154
157
150
97
98
92
134
135
129
126
126
123
73
73
71
112
111
108
185
184
171
133
132
124
64
63
61
70
69
62
90
91
83
96
82
71
101
76
62
93
70
59
107
85
69
100
80
63
105
84
71
109
89
72
96
78
65
99
79
68
106
86
75
115
96
87
105
93
85
110
106
98
118
115
109
114
112
112
71
72
74
49
49
48
88
88
86
107
106
100
115
113
109
96
94
91
79
77
76
92
91
89
57
56
53
41
40
36
59
58
52
52
46
42
56
51
44
59
57
53
56
55
51
145
139
124
133
128
114
127
122
106
124
120
105
100
94
85
142
139
121
126
123
110
122
121
104
129
125
110
99
95
82
113
111
99
182
178
163
149
144
129
124
120
98
141
133
110
124
118
97
168
163
139
138
134
115
117
113
101
106
104
95
117
116
103
112
111
100
159
155
136
162
156
143
174
166
155
161
158
146
208
202
183
213
207
186
204
196
177
107
100
91
99
91
78
131
123
103
127
117
99
118
111
92
124
116
97
115
107
89
102
93
77
110
101
85
96
87
70
96
87
70
114
100
84
114
101
84
109
98
86
82
72
61
108
100
84
108
100
84
104
95
79
105
96
80
96
88
77
89
82
71
72
66
57
82
76
67
86
81
71
73
67
60
74
68
59
84
77
68
89
81
70
89
82
71
93
86
75
106
99
86
101
96
84
93
87
77
82
77
68
110
105
95
123
118
103
117
114
97
188
184
167
204
200
182
191
189
174
160
158
148
161
159
151
122
120
114
144
148
129
184
178
166
115
103
91
190
185
167
208
203
178
212
208
181
185
180
162
73
70
58
106
101
82
90
84
69
134
128
106
114
109
86
177
174
154
198
194
174
193
188
173
168
165
158
99
101
98
75
73
68
109
106
96
115
114
110
135
124
106
115
108
92
43
36
32
67
59
53
96
90
75
91
82
68
102
94
80
105
98
87
185
178
164
132
128
114
171
166
150
170
163
147
164
158
142
184
176
159
179
171
152
178
170
150
175
166
146
149
145
130
179
174
153
155
152
130
162
159
140
118
115
102
92
90
74
99
95
82
121
114
100
157
150
130
144
140
121
145
139
119
159
153
134
147
143
127
132
130
115
133
131
115
154
151
135
168
164
148
161
155
140
145
136
121
160
152
135
139
133
117
150
144
128
141
134
120
108
101
92
126
120
107
128
125
113
127
124
111
122
118
103
129
125
110
126
121
108
130
127
107
137
132
115
140
134
117
127
120
105
136
129
114
133
127
111
142
136
118
124
120
104
126
123
107
121
119
104
119
118
103
112
108
96
104
100
93
94
90
82
99
96
87
101
98
89
106
103
95
101
98
91
100
97
88
105
102
94
93
90
83
103
101
90
125
124
108
101
101
86
96
95
84
118
116
105
103
100
94
71
68
62
114
109
98
121
116
106
106
100
92
107
102
92
109
105
92
117
113
101
135
130
120
121
115
108
110
105
97
108
106
96
100
97
87
97
92
84
110
104
98
101
99
92
106
105
97
101
99
91
98
96
88
104
104
95
102
103
93
98
100
92
98
99
92
77
79
75
90
90
84
78
76
70
72
71
65
65
63
61
83
80
76
76
72
72
83
79
72
186
182
168
143
138
122
179
171
150
146
137
119
130
128
118
137
131
123
41
40
39
110
110
102
131
121
108
51
44
38
140
142
126
114
107
95
40
38
33
139
132
116
79
71
66
115
115
109
119
116
111
40
39
37
83
88
82
150
152
146
105
105
100
132
133
126
121
121
119
70
70
68
110
109
106
179
177
163
152
146
136
128
122
111
95
89
80
77
71
62
78
64
52
106
81
67
115
92
79
119
96
82
120
97
81
125
102
82
128
104
85
119
97
81
126
103
88
122
99
84
119
100
87
81
71
68
121
118
110
119
117
109
118
114
111
77
76
77
56
57
55
74
74
72
83
82
79
102
100
99
83
82
80
84
82
81
84
82
81
90
89
86
83
81
78
34
32
32
44
40
39
49
46
41
51
49
46
55
53
50
164
161
147
153
150
138
152
149
136
147
145
133
139
136
125
150
150
132
156
155
139
159
157
144
149
147
135
114
112
101
121
119
109
177
173
159
94
89
70
117
112
92
138
133
113
126
123
102
144
140
118
172
167
143
147
144
123
143
140
126
145
142
126
112
109
99
132
128
114
189
185
169
195
189
173
203
197
182
206
199
182
209
203
182
214
209
185
221
215
196
169
163
149
115
108
97
163
158
148
163
158
148
166
160
147
152
148
130
131
128
113
132
128
110
129
120
105
130
123
108
149
142
127
164
158
145
162
157
141
160
155
139
158
153
139
162
157
143
159
148
134
161
151
133
155
146
128
147
138
121
134
124
108
134
124
106
129
117
103
123
113
97
119
108
92
127
116
95
126
117
95
126
115
96
130
120
100
132
123
102
136
124
107
127
115
101
122
115
100
123
116
102
131
123
110
183
176
161
210
206
184
217
214
190
201
200
176
183
182
158
170
170
150
172
170
156
110
108
98
184
177
164
115
102
91
193
187
171
203
197
174
211
206
179
187
182
162
43
37
31
111
106
91
166
162
140
149
142
123
178
173
153
150
145
129
197
195
177
203
197
183
174
171
164
91
92
90
108
106
106
118
112
98
119
110
93
177
161
136
125
112
98
43
36
33
63
55
49
96
89
75
112
104
85
121
111
97
129
120
109
159
151
142
131
125
112
161
155
139
171
164
149
168
162
144
195
189
167
193
186
165
185
176
156
190
179
160
159
157
141
186
184
165
151
148
130
154
150
132
116
112
100
76
72
61
91
86
73
118
112
98
142
137
118
116
113
94
137
131
111
110
105
90
87
82
78
71
67
60
77
73
62
105
102
88
165
159
146
164
157
142
142
135
122
144
138
123
128
121
111
118
114
100
99
94
84
84
79
69
111
107
96
90
86
77
97
92
84
109
104
94
100
95
84
98
93
83
80
76
64
101
95
84
100
93
83
95
90
78
95
88
74
108
100
88
115
110
96
95
90
80
96
94
83
96
95
83
105
103
91
113
108
97
94
90
80
91
89
80
103
101
92
93
91
82
90
88
79
84
81
74
80
78
71
92
89
84
72
69
64
53
52
48
55
54
49
64
63
59
65
63
62
50
49
46
62
58
57
65
61
57
94
91
80
100
97
86
82
79
69
93
88
80
93
87
80
105
100
91
97
92
82
103
98
87
96
92
80
103
99
89
95
92
84
94
91
85
100
97
92
101
100
94
100
98
93
98
96
90
97
96
90
101
102
95
103
104
97
101
102
96
93
94
90
78
78
76
91
90
83
96
96
89
82
82
76
65
62
59
89
84
81
79
75
72
79
76
67
176
171
156
146
139
121
184
175
146
152
144
122
129
126
115
138
132
127
44
43
42
111
110
104
132
124
110
49
44
35
139
138
124
113
109
95
43
40
36
142
135
120
80
73
68
120
121
115
113
108
103
39
40
37
84
90
84
143
146
139
107
105
102
131
132
127
126
124
122
70
69
67
102
102
100
164
161
148
139
132
120
149
141
126
94
86
74
72
56
47
65
46
37
96
73
59
101
77
66
116
91
77
124
96
80
125
101
83
130
105
86
128
105
88
129
101
88
116
95
84
97
80
72
114
102
93
130
124
118
128
123
117
127
121
120
61
60
61
52
53
51
71
72
70
106
106
104
109
109
107
96
96
94
107
107
105
96
94
95
85
83
82
83
81
81
84
82
83
68
66
63
76
73
65
74
72
65
73
71
64
162
159
144
150
148
134
144
143
129
159
157
144
110
108
97
158
158
141
183
184
167
186
186
169
190
188
170
196
194
177
117
116
107
160
157
145
70
67
58
38
35
27
141
138
118
133
127
107
98
95
75
155
152
130
173
170
149
170
166
150
140
135
124
134
130
115
163
160
143
167
164
147
209
205
187
202
196
180
187
181
162
189
185
161
209
204
180
212
207
186
227
221
201
229
224
206
237
235
216
241
239
221
242
240
221
202
201
179
204
202
183
209
207
184
211
205
182
205
197
174
206
199
175
214
206
180
213
208
182
219
214
189
223
217
194
224
217
195
223
215
190
226
219
188
203
194
165
210
201
171
201
188
157
196
182
150
190
173
142
196
175
144
196
179
142
194
177
143
196
177
141
198
180
141
199
185
146
202
187
151
207
193
163
216
202
178
221
210
180
221
212
182
217
209
180
216
210
187
201
196
174
185
183
160
185
185
161
192
191
167
171
170
149
169
165
154
117
121
115
182
176
163
114
101
87
189
185
164
208
202
179
210
206
177
186
180
160
34
30
25
68
66
55
151
148
128
167
159
141
122
116
99
101
95
80
202
200
183
208
203
188
178
176
166
132
134
130
124
123
122
127
115
104
90
83
76
162
150
133
121
109
99
45
38
34
48
40
35
97
90
77
114
106
89
124
117
100
114
106
97
99
93
85
108
102
88
156
150
132
138
132
114
152
146
126
140
135
113
147
140
122
147
140
121
156
150
131
126
121
108
130
126
109
109
105
87
119
113
97
99
93
81
63
58
47
62
58
47
66
59
49
105
99
83
122
115
101
92
87
79
89
85
78
62
59
52
66
62
51
36
32
22
76
72
60
148
141
129
143
137
119
126
120
103
112
106
92
76
71
61
91
88
74
130
127
106
126
122
104
118
114
96
141
138
113
113
109
94
105
101
88
93
88
77
77
72
64
128
124
105
137
131
114
153
147
129
138
133
117
104
98
89
109
105
94
120
119
108
114
108
101
101
98
91
99
98
91
103
101
94
112
106
99
107
103
95
90
87
81
99
97
89
97
94
86
92
88
80
89
85
77
80
77
68
81
77
69
78
74
67
65
63
57
119
122
106
93
94
86
62
63
58
52
52
48
59
57
53
56
55
49
70
66
59
68
65
56
66
63
55
68
64
55
78
74
67
90
85
77
85
80
73
77
75
69
66
64
58
69
66
62
65
62
58
64
61
58
64
61
57
80
78
73
84
82
77
80
79
74
83
82
76
85
84
78
70
71
65
72
72
67
55
55
52
48
46
45
47
47
41
55
55
53
63
61
59
62
60
58
77
73
71
62
61
61
55
54
48
177
170
156
141
134
119
158
151
137
136
130
122
124
122
111
135
129
124
45
44
43
105
105
99
139
131
118
48
44
36
129
128
114
109
105
93
47
44
40
133
127
113
76
70
65
99
98
93
116
111
105
37
39
37
85
90
85
141
143
137
105
104
100
130
132
127
121
123
120
70
71
69
94
94
92
157
153
140
125
118
105
153
147
131
109
101
89
80
70
66
105
77
66
110
75
60
116
75
54
148
100
71
161
114
83
164
120
89
165
120
87
161
118
88
152
110
87
115
81
67
109
92
80
114
102
89
118
107
99
116
106
98
111
104
97
58
57
53
69
68
68
86
85
85
98
98
97
109
110
107
106
106
105
93
93
93
94
91
92
90
88
87
83
82
79
81
79
76
91
88
83
126
118
105
132
123
108
133
124
109
104
101
91
111
108
97
130
128
113
146
143
130
95
93
82
150
147
136
186
185
172
184
184
166
194
192
173
201
200
182
124
123
113
167
164
153
27
25
22
62
60
51
148
144
123
146
140
119
103
99
86
112
108
94
152
148
129
168
164
147
88
83
73
165
162
144
194
190
170
193
190
170
197
193
175
133
129
117
78
70
56
37
31
24
102
97
85
198
190
172
195
190
174
132
130
118
117
117
104
98
99
85
95
96
83
104
104
90
120
120
98
136
134
112
141
137
117
145
139
120
146
139
119
141
133
113
134
125
101
122
113
88
130
121
100
139
130
109
137
130
107
125
118
95
129
122
103
149
142
123
147
140
118
141
134
112
148
138
117
150
141
119
151
142
117
149
140
116
143
135
109
140
131
105
135
126
99
130
121
95
129
121
97
129
121
96
127
120
94
123
116
92
130
128
109
209
204
187
170
167
150
95
90
83
57
52
52
122
118
107
176
172
154
170
166
154
137
142
133
174
172
155
117
107
93
189
185
165
205
203
176
210
208
181
187
181
164
37
33
26
67
63
56
130
130
116
163
157
140
116
111
90
94
90
75
212
209
194
216
211
196
186
187
171
146
150
137
136
135
127
118
108
98
87
78
70
176
167
145
110
100
87
42
36
32
54
48
42
102
95
83
110
103
86
129
122
102
78
69
58
109
102
91
102
95
83
155
149
128
159
153
133
175
169
148
176
170
149
174
166
146
168
163
142
178
172
151
146
142
126
179
173
153
170
164
143
156
150
131
132
125
110
98
92
79
82
77
68
95
89
75
77
71
56
127
122
104
106
101
90
57
55
48
75
74
63
38
36
29
69
66
61
86
82
74
109
103
94
93
87
74
96
87
77
86
77
67
120
114
100
136
131
112
135
133
118
150
147
137
143
141
126
127
125
111
85
80
74
80
74
69
100
95
85
144
138
120
151
146
129
142
136
120
137
132
116
161
157
137
162
160
141
160
156
137
163
159
142
157
152
136
136
132
117
143
139
125
148
143
128
155
148
134
142
135
122
91
86
77
143
139
125
128
126
110
121
115
102
116
110
99
111
103
95
102
98
87
96
92
81
85
81
76
63
60
55
81
79
73
68
67
60
80
78
69
101
100
87
73
71
63
80
75
66
72
68
57
74
70
60
70
66
54
67
65
54
88
85
77
97
92
88
84
81
78
50
48
47
65
64
62
52
51
49
73
72
70
69
69
62
101
98
88
95
92
82
92
91
83
82
79
74
78
76
73
72
72
69
75
76
73
62
64
62
61
63
60
57
59
55
70
71
69
52
52
50
46
44
43
61
59
57
56
54
54
45
42
41
171
166
156
144
137
122
168
163
148
149
146
132
125
123
113
140
134
126
48
46
45
109
107
101
110
102
95
32
29
27
120
118
112
94
90
85
45
45
41
120
117
103
74
69
66
82
80
77
114
109
102
39
40
39
100
105
99
145
149
136
118
117
113
131
133
128
117
121
119
65
65
68
77
78
75
149
145
132
121
116
104
99
93
84
103
98
87
92
86
79
110
82
69
120
84
67
148
95
64
196
138
82
206
154
95
213
163
108
217
169
114
212
163
108
192
144
101
147
108
85
130
110
94
122
113
103
120
108
103
105
94
89
97
88
80
76
70
67
35
33
33
90
88
89
108
109
108
98
102
102
96
97
97
89
89
89
59
59
60
65
65
61
102
100
97
89
88
85
33
35
33
47
49
47
52
50
50
59
56
54
93
90
82
81
79
70
129
127
112
121
119
104
139
134
123
136
132
121
141
139
125
149
147
133
166
164
149
176
174
160
133
132
119
164
162
147
86
85
78
123
121
108
147
143
121
151
145
124
118
111
99
98
94
82
161
157
139
171
167
150
106
102
87
184
181
159
154
151
138
132
128
117
150
146
133
52
47
41
114
110
104
202
194
185
157
151
136
135
127
116
101
97
88
32
30
26
34
32
28
36
33
29
38
33
30
39
34
30
43
38
31
45
38
33
49
41
36
45
39
34
41
36
31
36
32
26
37
32
27
35
30
24
34
31
27
32
28
25
35
30
28
34
30
27
33
27
26
30
25
24
31
26
23
29
25
22
28
24
22
29
25
23
31
27
23
32
28
24
34
30
26
37
33
29
41
37
33
41
37
33
41
37
32
43
39
36
46
41
38
52
47
44
123
118
111
187
183
167
110
107
94
177
173
175
183
179
177
54
49
44
103
99
89
172
166
149
141
143
126
177
171
155
115
104
87
169
163
147
179
174
158
184
179
161
165
159
143
38
34
28
73
74
61
128
125
109
163
161
139
98
95
77
84
80
66
210
207
193
223
219
201
204
206
186
141
146
132
134
134
126
119
110
100
86
78
69
168
159
137
116
107
93
42
35
32
56
50
44
102
95
82
121
115
98
127
121
107
81
75
66
109
102
92
104
98
86
162
156
132
172
167
143
183
177
154
178
172
152
184
176
156
178
172
151
175
169
149
141
137
123
181
175
154
183
178
157
176
170
152
160
154
136
144
139
122
157
153
136
146
140
123
115
109
92
113
108
95
64
59
53
53
48
43
43
41
31
33
29
23
29
23
20
78
75
69
129
122
114
127
120
110
132
124
109
150
141
124
150
144
125
159
154
134
149
147
135
105
102
98
84
82
74
124
121
110
56
51
46
77
74
68
123
120
109
105
103
91
118
115
104
145
141
127
166
161
145
174
171
152
168
167
147
165
161
142
166
162
143
154
151
130
155
152
131
130
126
110
113
107
98
128
122
106
136
130
114
128
123
109
93
89
80
60
58
53
37
39
34
45
47
42
44
46
42
51
51
46
58
56
51
66
65
60
79
75
69
104
99
90
101
96
85
96
92
80
105
101
91
83
78
69
61
59
53
59
56
52
57
54
50
57
56
45
80
76
68
84
80
73
88
85
78
115
112
105
70
69
62
103
99
93
77
76
70
77
76
72
100
99
90
102
99
88
98
96
85
88
86
80
72
70
63
85
81
79
82
80
77
75
74
72
72
71
70
64
65
62
60
63
60
69
69
67
74
75
72
63
61
60
53
51
50
88
86
83
57
55
51
170
164
153
158
152
137
159
154
137
138
136
120
131
128
118
148
142
134
51
49
48
116
114
109
121
113
107
33
30
28
140
139
130
102
98
97
45
45
41
127
123
111
82
79
75
102
100
96
125
119
112
44
45
45
60
65
62
130
132
126
113
112
110
127
129
124
114
118
117
67
66
69
71
69
67
141
138
128
71
69
70
100
91
83
83
78
71
98
92
91
110
83
70
121
83
65
167
111
68
239
217
154
247
238
202
247
240
216
250
243
222
250
243
221
237
221
180
165
130
100
127
105
90
133
122
113
101
91
89
89
82
81
78
72
69
43
41
38
48
50
52
120
121
123
64
64
67
100
104
106
99
100
101
33
33
35
103
103
103
141
142
137
101
99
97
128
126
125
28
26
27
17
15
15
18
16
16
16
13
16
134
132
116
123
121
109
141
139
127
119
117
103
147
145
129
144
142
125
160
158
143
137
132
118
175
171
153
151
147
134
125
124
113
145
144
130
89
88
78
129
125
113
155
152
130
152
149
127
148
143
128
160
156
140
170
166
148
149
145
132
105
101
87
189
186
162
177
173
159
132
128
119
151
147
137
38
31
26
125
120
115
220
218
212
158
157
145
125
123
112
124
121
112
44
41
38
69
65
62
114
106
100
111
102
94
104
96
86
125
117
106
121
112
100
109
98
86
117
108
97
122
112
103
125
113
104
118
107
97
116
104
94
120
109
99
120
108
103
126
114
109
121
113
105
118
109
101
121
111
102
120
112
101
116
109
100
117
112
104
116
110
102
119
112
102
131
122
114
134
126
117
125
117
108
141
132
121
151
143
132
141
132
122
133
125
116
136
130
120
139
134
124
150
145
131
181
180
159
47
44
38
181
179
180
196
194
191
43
41
38
43
39
34
133
129
114
140
140
126
157
148
138
101
90
80
178
171
154
174
168
146
178
171
149
149
141
122
66
62
54
83
82
73
123
119
106
108
105
94
71
68
55
83
79
66
188
187
171
202
199
183
175
175
159
124
128
119
134
134
129
114
104
97
85
79
66
172
161
139
120
109
96
42
36
32
57
49
44
95
88
77
124
116
99
139
131
113
111
103
94
114
107
96
116
110
97
168
162
142
178
173
150
180
174
154
175
169
148
179
171
151
175
170
149
164
158
140
141
137
124
180
174
154
182
176
156
180
174
153
160
155
134
145
139
120
137
131
114
116
109
96
123
118
105
97
93
82
121
118
107
115
110
97
61
58
51
68
64
60
71
66
62
110
105
100
152
146
132
167
161
142
153
147
128
161
155
136
168
162
145
160
156
137
128
126
112
79
77
76
76
75
71
115
113
104
137
135
127
125
122
113
104
104
96
105
104
97
126
124
117
149
147
133
171
168
147
174
171
151
174
171
152
165
162
143
162
158
139
157
153
134
152
149
129
131
127
110
126
119
107
146
139
124
135
129
112
132
126
111
107
103
92
67
64
59
46
45
39
76
73
66
79
76
69
83
79
74
79
75
70
92
90
84
98
95
85
114
111
99
105
100
88
101
96
84
112
107
91
98
93
79
99
96
88
71
69
65
84
82
80
69
67
63
54
51
46
87
83
76
82
80
72
84
81
74
102
99
91
128
125
117
122
119
109
122
118
111
113
110
102
105
102
95
101
98
90
98
96
88
91
89
82
70
69
65
90
91
87
85
87
84
82
83
81
85
84
82
80
81
78
83
83
81
88
88
87
71
69
70
87
85
85
90
89
83
79
78
70
163
157
146
153
145
131
158
153
131
147
143
125
133
128
119
142
137
126
47
47
45
115
115
109
121
112
106
37
36
35
140
139
132
105
102
97
49
48
42
136
130
125
89
87
85
117
118
112
142
137
130
48
49
48
49
55
55
118
121
122
91
92
91
100
103
97
79
81
79
65
66
66
60
58
56
130
124
117
112
106
99
134
128
113
96
93
89
96
94
95
109
85
75
125
86
67
162
107
72
224
184
127
235
211
162
239
218
184
239
221
193
236
222
195
228
211
172
163
130
102
123
104
93
142
126
118
102
88
87
106
98
96
67
61
58
54
52
50
61
61
65
126
127
126
40
40
42
99
103
108
95
95
98
17
16
19
149
147
145
60
59
57
15
15
15
130
130
130
52
49
53
25
22
24
85
87
84
82
81
79
135
134
121
154
152
135
170
168
149
170
169
150
172
170
153
178
176
159
197
193
178
157
151
135
155
151
131
140
136
121
128
131
115
124
120
101
121
118
101
124
120
107
154
151
128
158
156
131
165
162
141
165
162
140
144
140
122
110
106
94
113
109
96
182
179
157
200
197
175
177
171
155
186
182
166
78
74
65
43
39
27
112
109
98
41
39
33
177
175
160
130
128
119
50
46
44
98
94
88
130
122
112
136
127
119
123
114
105
125
116
107
136
127
116
133
124
112
122
113
102
134
125
114
142
132
121
137
128
114
135
124
110
131
120
109
129
118
112
130
120
110
117
112
101
120
113
103
122
113
104
119
113
104
132
125
116
144
139
130
129
123
116
118
110
101
129
119
111
136
127
119
129
122
112
121
112
101
115
109
97
133
126
116
122
116
105
116
111
102
135
131
120
132
127
114
180
177
160
143
141
127
61
59
55
81
78
77
35
31
29
76
73
68
172
168
152
172
172
158
162
154
143
109
98
85
165
156
141
148
145
127
155
151
130
154
147
129
75
71
62
92
90
81
134
129
117
125
122
106
129
126
109
126
122
107
162
163
148
171
167
155
148
147
135
135
136
126
120
118
112
110
104
97
99
93
78
177
166
144
123
111
99
42
36
32
59
51
46
93
87
76
118
111
96
134
125
110
130
121
111
138
132
114
162
156
138
171
165
144
183
175
155
186
180
159
178
172
152
182
174
154
178
172
151
162
156
139
142
138
126
179
174
153
183
177
157
176
173
151
172
168
147
160
154
135
156
149
132
121
115
100
113
107
95
107
103
89
123
117
104
137
129
114
136
131
121
131
125
117
135
128
120
132
126
116
142
136
122
160
154
135
164
158
139
164
158
142
169
164
148
144
139
124
135
132
112
119
115
100
127
123
110
118
115
108
156
154
146
102
99
90
112
109
100
129
125
115
129
123
113
161
157
141
173
169
151
175
171
152
169
165
146
168
165
146
159
156
137
141
135
120
115
109
99
106
101
94
124
117
105
126
120
104
109
102
88
104
97
84
95
89
76
84
79
72
50
49
43
61
62
53
64
64
55
64
60
55
69
66
60
73
69
62
85
82
70
108
105
92
106
101
89
107
102
90
128
124
107
113
107
93
97
93
84
43
40
36
98
94
92
35
30
26
82
78
73
115
113
105
130
127
117
124
122
111
119
116
106
120
116
107
137
132
123
102
97
93
100
95
92
76
73
69
99
95
93
104
100
97
89
88
84
76
75
71
93
94
90
89
89
85
80
81
79
78
78
76
77
76
74
70
69
68
64
63
61
80
78
75
94
93
88
117
116
110
88
88
79
169
162
150
153
144
132
163
156
139
135
131
117
126
122
112
138
134
119
47
47
44
113
115
108
120
112
103
37
37
34
141
139
129
104
101
92
53
55
48
148
146
141
86
85
80
114
114
111
131
127
119
48
50
49
63
69
69
137
140
141
107
105
106
126
123
117
143
138
131
84
83
83
56
54
53
175
166
159
118
116
109
113
111
104
127
124
114
96
95
98
104
88
82
125
87
72
147
98
73
173
120
88
174
126
91
177
130
88
178
132
90
171
128
90
160
121
91
139
108
89
125
106
97
134
119
109
128
115
110
120
112
105
121
114
111
53
50
50
59
58
63
97
96
95
108
107
105
115
119
119
92
91
93
31
30
32
112
111
107
93
91
88
65
65
64
140
140
139
48
46
49
28
26
28
84
86
84
84
82
81
113
114
99
141
141
125
162
163
143
169
168
149
188
186
170
190
188
172
197
193
176
179
175
153
158
155
134
143
141
123
131
133
119
166
162
144
149
145
127
148
144
127
172
168
148
183
179
158
170
166
147
165
162
141
135
131
112
133
128
112
137
133
117
175
169
152
194
188
168
202
196
176
196
193
172
191
187
166
129
123
110
82
77
72
151
149
137
216
210
190
129
123
116
56
55
50
79
78
70
68
66
60
87
85
79
98
96
90
88
86
80
92
90
82
98
97
87
100
97
87
89
85
77
91
86
77
97
94
82
103
102
90
102
100
90
106
105
96
110
108
100
95
92
84
102
100
91
116
115
108
89
85
80
96
88
86
96
89
86
73
69
65
85
83
76
74
73
66
84
82
74
93
90
84
82
79
73
77
76
70
92
90
82
85
83
75
85
83
77
103
98
100
126
122
115
186
182
164
174
172
151
144
142
129
103
101
95
131
127
121
179
176
161
189
184
164
169
169
154
163
159
145
121
114
96
155
151
133
203
201
181
178
178
154
160
158
141
121
119
105
157
156
141
157
155
140
139
137
122
153
152
133
154
153
137
148
146
134
157
157
140
168
169
152
162
160
145
127
124
117
108
105
96
99
90
73
181
171
151
125
116
105
39
35
31
55
49
43
90
86
74
105
99
86
129
122
106
175
169
152
179
173
154
181
173
152
168
161
140
180
172
152
180
174
152
178
172
153
177
169
150
160
154
137
143
137
121
146
142
127
174
168
147
171
165
144
170
164
144
169
163
142
162
156
136
168
163
142
130
124
105
117
111
94
120
115
98
128
123
108
140
134
122
116
110
98
130
127
114
132
128
113
141
134
117
131
123
107
170
162
143
156
149
131
154
147
131
138
132
118
134
127
113
128
126
111
123
121
109
135
132
125
151
148
137
138
133
120
143
140
126
126
121
111
138
132
122
127
120
107
148
144
127
158
154
136
166
162
143
168
164
145
166
160
141
157
151
133
140
133
121
132
125
112
135
130
115
132
128
110
125
121
104
123
117
101
117
110
94
114
107
92
105
99
89
43
40
35
58
57
51
55
53
48
60
56
49
63
60
52
75
71
63
96
92
78
111
107
94
115
110
98
106
102
88
130
125
111
114
109
97
98
92
83
98
97
87
88
87
76
96
88
79
102
95
90
70
66
60
97
94
88
102
99
91
104
101
91
114
112
102
124
121
110
123
120
108
112
109
98
116
113
105
117
115
106
131
128
119
124
121
112
132
129
121
126
125
116
148
144
134
131
126
116
105
101
94
106
104
99
93
92
89
90
88
87
103
101
99
96
94
91
84
84
81
86
87
78
168
162
148
148
141
127
158
149
133
132
127
117
118
116
109
140
138
126
48
45
41
108
109
99
122
116
107
41
39
36
142
141
132
111
108
98
58
57
51
150
151
145
90
87
82
101
101
98
133
129
124
49
51
52
65
72
70
132
135
133
119
118
118
139
139
130
148
143
133
75
75
74
51
51
50
179
175
167
138
136
129
137
134
127
127
123
115
97
94
97
98
85
81
115
84
72
129
87
73
144
102
89
141
102
90
142
102
90
147
109
89
143
108
93
137
108
98
130
105
91
124
105
96
129
113
105
119
109
99
127
118
110
124
117
112
64
62
65
65
66
72
77
74
73
105
103
101
98
96
96
97
95
94
67
65
64
53
52
49
98
96
94
115
115
114
86
86
87
32
29
31
37
36
35
36
36
36
43
42
44
112
113
105
102
101
91
151
151
133
159
157
139
168
166
150
160
158
143
162
159
140
172
168
147
165
161
141
133
130
112
141
141
127
166
163
144
175
171
150
177
174
153
198
194
172
188
185
163
179
176
154
140
137
121
121
118
101
148
144
128
192
188
172
166
160
144
188
182
162
193
187
166
192
188
167
195
192
167
205
200
176
209
204
187
208
204
185
215
208
186
117
112
102
133
132
122
192
192
178
196
197
183
207
207
191
214
214
195
213
213
193
216
216
195
220
221
197
214
213
191
217
214
195
186
183
169
189
189
172
195
196
178
205
205
188
199
199
183
201
201
185
197
196
181
197
196
181
199
200
183
208
206
188
204
197
182
187
183
169
192
190
177
199
198
184
195
194
181
189
189
176
188
187
175
189
187
175
182
182
169
186
184
171
186
184
171
190
189
172
206
204
190
212
210
194
190
187
168
178
174
157
193
190
171
191
187
169
185
183
166
190
189
172
187
183
163
162
162
146
165
162
148
123
116
99
172
166
149
195
191
171
209
206
185
202
201
177
188
187
164
167
166
145
161
160
137
201
201
177
202
201
181
213
212
191
205
205
181
205
204
181
207
204
181
198
193
171
134
129
120
109
104
95
100
91
74
179
169
150
124
116
105
37
33
29
53
47
41
87
83
72
106
99
87
137
130
114
160
152
135
163
157
137
164
156
136
157
149
129
146
137
117
151
145
122
140
134
115
122
114
98
128
122
105
158
152
135
118
114
103
173
168
147
177
171
150
171
165
145
173
167
147
168
162
141
160
155
134
132
126
109
127
121
103
123
117
99
121
115
99
159
153
134
158
152
135
150
141
122
139
131
116
154
147
130
154
146
129
158
150
132
154
147
131
138
132
116
138
134
119
142
137
123
148
146
133
145
143
132
159
157
140
132
130
116
139
134
120
149
145
130
141
134
124
136
129
118
146
140
126
150
147
130
157
153
135
166
162
143
160
156
137
162
156
138
150
145
127
137
134
118
129
124
113
123
119
104
132
129
109
121
118
102
129
123
110
129
121
106
122
116
100
122
116
106
50
47
43
57
56
50
65
64
58
68
64
56
76
72
64
87
82
73
110
105
92
119
115
98
127
122
105
122
118
103
121
116
102
132
127
115
113
107
96
110
108
96
111
108
96
129
125
113
114
110
103
93
90
82
88
85
78
90
88
80
96
95
87
83
83
75
78
75
70
105
102
96
93
89
84
100
96
93
98
95
92
98
95
91
91
90
86
83
82
78
84
85
80
92
92
89
86
87
84
75
76
73
72
75
72
73
75
73
76
76
75
76
77
74
80
78
76
70
70
69
75
76
68
168
161
147
139
130
116
163
154
135
139
135
124
125
123
112
121
119
109
43
40
39
117
117
109
121
116
108
46
44
42
112
110
106
101
97
92
58
55
49
143
141
137
83
79
76
95
95
92
127
124
118
46
49
50
66
74
73
132
136
130
117
118
114
119
120
116
108
108
105
69
71
73
53
52
51
176
172
166
132
128
128
121
118
117
122
122
114
95
97
99
92
85
81
98
72
67
121
89
83
132
99
94
115
89
88
133
101
94
139
103
91
126
102
91
130
111
102
132
110
98
118
99
91
126
110
101
123
112
103
123
113
105
121
114
110
52
49
55
52
53
59
84
80
80
107
103
99
90
88
85
103
98
95
104
97
93
68
65
63
57
55
55
88
88
88
74
74
74
80
78
77
112
109
105
107
101
98
112
107
103
110
106
93
116
112
100
165
161
143
176
172
154
174
170
154
169
166
146
168
165
142
177
174
152
165
162
141
145
141
124
156
154
139
168
165
143
182
179
158
166
162
141
185
181
160
190
186
165
174
171
148
95
92
80
85
83
76
189
187
172
208
204
188
177
173
155
167
163
145
174
171
153
184
181
162
192
190
169
206
202
181
210
207
187
208
205
184
201
195
177
71
66
59
104
102
89
172
169
148
165
162
146
169
167
154
165
165
146
172
170
148
173
171
148
170
167
144
183
179
153
195
191
165
157
150
135
149
142
125
143
137
121
189
185
161
168
164
142
176
170
150
165
158
139
186
179
159
177
172
151
169
163
139
193
188
165
97
91
79
181
176
156
209
203
182
203
199
177
180
177
155
183
182
160
184
182
163
180
175
156
184
178
157
157
151
138
165
161
139
202
198
173
198
194
178
147
143
128
182
178
160
176
173
158
181
179
163
171
169
151
187
184
174
147
145
135
162
160
148
166
161
147
130
122
105
167
162
146
190
186
167
156
152
137
191
187
168
203
199
179
182
181
161
176
172
148
202
198
175
212
210
190
219
219
197
211
209
189
184
182
173
157
156
148
176
173
156
127
123
114
121
114
107
92
84
68
179
171
150
122
116
103
37
33
28
49
43
37
75
69
60
100
91
78
136
128
109
135
127
107
148
140
121
151
143
122
157
149
127
154
146
125
155
147
124
143
136
115
110
105
87
111
106
97
134
130
118
105
101
88
174
170
151
175
172
152
168
162
141
176
170
149
165
158
140
163
157
139
120
114
100
104
97
85
105
98
88
113
106
95
168
161
148
143
137
121
132
124
110
136
127
113
141
134
117
156
148
132
159
150
133
132
125
111
143
136
122
144
139
125
151
148
134
112
110
102
101
100
91
145
143
130
138
134
119
133
126
112
155
149
133
155
149
134
146
139
127
144
137
125
149
144
129
150
145
129
157
151
135
159
153
137
159
153
136
143
137
120
133
128
115
130
126
110
119
115
100
131
126
113
97
92
83
107
101
92
124
116
104
136
131
117
129
124
114
58
54
50
68
65
57
84
82
70
82
77
68
86
80
72
96
91
79
116
112
96
121
117
102
122
118
103
122
118
102
130
126
110
126
121
105
122
118
102
123
122
108
103
101
91
104
101
94
87
83
77
141
138
130
144
142
136
92
91
83
102
102
92
122
122
110
116
115
106
119
118
109
125
124
115
126
125
115
122
121
111
127
126
118
123
122
114
122
121
116
126
124
120
116
118
113
121
123
118
125
127
123
118
119
116
116
118
116
109
109
108
111
110
105
89
87
84
103
103
102
89
90
82
164
159
144
124
116
102
149
140
123
130
126
117
124
123
110
105
103
92
44
40
40
112
112
105
115
112
105
52
48
47
100
97
93
101
98
93
101
99
94
74
72
68
74
72
68
82
81
78
132
127
122
49
49
51
72
79
80
134
138
133
101
101
98
126
124
124
107
103
103
64
68
70
57
58
57
175
172
167
112
107
111
79
78
82
97
97
96
115
113
116
74
71
74
82
69
71
103
80
78
116
89
88
105
84
88
112
89
90
118
93
89
114
93
90
116
105
98
128
110
98
112
95
91
127
109
105
114
101
101
91
84
82
90
81
80
76
71
80
62
62
69
89
86
86
111
106
103
96
94
90
105
99
98
115
107
100
108
101
97
83
79
79
76
74
74
59
57
56
45
43
41
58
56
54
83
78
73
87
78
72
155
149
129
151
145
126
162
159
137
163
160
138
168
164
144
160
157
134
170
167
145
176
173
150
161
159
135
151
149
125
156
153
131
172
169
146
159
156
133
172
168
145
177
173
151
186
183
161
162
159
139
184
180
161
194
192
175
204
202
183
203
200
180
148
144
129
125
121
111
148
143
135
156
153
145
169
166
157
205
203
186
212
208
191
189
183
166
86
80
72
46
39
34
67
61
50
112
103
85
103
94
75
107
105
85
122
119
104
133
128
112
137
133
115
131
126
112
145
141
128
150
147
132
150
147
130
146
144
124
153
151
133
152
149
132
153
149
132
158
151
135
152
145
129
159
152
136
150
141
126
156
150
130
159
152
134
163
157
141
157
152
135
168
162
147
160
155
139
145
142
125
139
136
120
132
127
114
129
124
112
122
118
106
126
123
111
99
95
79
107
102
91
98
94
86
81
77
69
130
125
114
176
171
154
186
181
161
183
178
164
135
135
128
137
134
126
161
157
145
172
165
152
128
119
99
203
198
186
75
72
66
148
144
137
121
118
111
203
200
183
191
189
170
179
175
151
203
198
176
207
203
183
186
181
156
204
196
181
121
119
116
148
146
141
91
88
84
113
110
101
157
149
143
80
75
60
181
174
153
122
116
102
38
34
30
50
44
38
76
71
62
107
98
85
137
129
109
146
137
116
146
138
118
147
139
119
155
147
128
130
122
104
135
127
109
113
105
90
68
63
54
151
148
129
165
162
144
81
77
66
171
167
149
175
171
152
172
166
145
168
162
141
164
159
137
162
157
136
135
128
116
155
149
135
142
135
124
124
119
104
150
144
127
142
136
117
159
152
137
140
133
119
172
163
146
165
156
141
121
114
99
146
140
126
159
153
139
143
140
128
81
79
73
97
97
87
132
131
121
131
128
120
139
135
120
139
133
117
149
143
127
154
148
131
148
142
124
142
136
117
144
137
116
135
128
107
147
140
123
148
141
125
152
146
128
137
131
114
134
128
112
130
124
105
112
107
97
93
87
81
88
83
79
76
71
68
124
116
106
133
129
116
129
127
110
114
112
100
105
104
92
119
118
100
109
105
91
100
95
82
118
112
96
131
126
106
137
132
119
126
121
109
125
121
104
128
124
107
130
126
111
127
122
108
102
100
87
101
98
90
102
98
94
96
92
88
106
103
93
138
136
129
87
87
79
113
115
103
126
126
112
113
112
102
115
114
105
119
118
109
126
125
115
122
121
111
120
119
111
127
126
118
119
117
110
122
121
114
120
119
111
120
119
111
117
116
108
108
106
99
95
95
90
112
113
109
108
107
101
94
93
89
118
118
119
88
88
82
169
164
150
149
144
130
168
161
147
130
126
120
104
102
94
96
93
89
38
35
35
89
88
83
84
81
75
47
43
41
93
89
83
100
96
87
103
101
92
90
90
82
91
92
86
90
90
86
114
109
104
54
55
56
68
73
74
137
141
137
114
115
112
109
108
107
113
110
109
65
67
70
60
60
60
168
166
162
130
128
131
90
93
93
128
128
124
111
110
111
60
61
63
80
71
73
95
81
82
99
81
83
94
79
79
95
78
82
98
82
82
100
80
81
104
87
90
97
80
81
89
77
73
104
90
86
98
90
89
68
65
63
79
74
72
89
87
95
63
62
70
89
88
88
73
71
68
102
97
95
105
99
96
119
111
100
126
115
113
112
105
101
60
57
58
55
51
50
93
89
83
86
79
73
92
84
77
94
89
84
51
49
42
49
47
40
50
48
40
53
51
42
61
57
48
56
51
42
49
48
39
47
45
37
42
40
32
45
42
33
49
46
35
59
54
44
66
60
51
78
72
63
73
67
57
69
64
53
71
66
55
89
86
74
106
106
91
143
142
127
135
133
116
155
149
132
153
148
132
155
152
136
161
157
151
154
152
145
210
206
192
167
163
152
54
49
39
45
40
32
49
43
36
59
53
47
98
93
86
101
93
85
110
101
90
112
103
89
116
109
93
120
113
96
119
110
94
118
110
97
90
83
71
90
83
73
87
80
73
110
107
95
102
98
86
104
99
88
110
105
95
113
109
99
112
106
97
95
91
85
83
83
75
88
86
80
85
83
77
85
82
75
88
84
75
82
78
70
88
85
75
92
88
75
89
85
74
84
81
73
80
77
68
62
59
52
76
75
64
83
82
70
78
77
70
71
68
63
78
74
67
137
133
116
178
175
150
176
172
155
125
123
120
158
157
145
148
145
132
167
159
146
135
124
103
210
205
189
95
93
86
155
153
143
130
129
122
204
203
185
194
190
171
187
184
160
200
197
176
208
202
180
197
191
169
207
200
181
153
149
135
87
84
76
144
143
127
146
145
131
145
141
133
78
74
65
167
160
143
120
114
102
35
31
29
47
41
37
78
72
64
108
102
87
137
132
109
161
154
131
168
160
136
165
157
135
171
163
142
156
149
128
168
160
136
157
150
130
148
143
127
144
140
124
152
147
134
134
130
119
174
170
151
173
169
148
166
158
139
166
158
138
169
164
143
158
155
133
154
150
132
172
168
150
165
161
141
162
156
137
158
152
134
160
154
135
161
155
136
135
129
111
158
149
132
151
142
128
122
117
103
143
142
126
135
133
120
37
36
31
97
98
92
136
136
123
145
143
133
126
121
112
153
149
135
149
145
128
145
141
124
151
146
127
149
143
125
145
138
120
149
141
123
148
140
121
159
148
130
149
138
120
160
151
131
139
130
111
136
126
115
136
128
109
128
120
102
134
127
113
121
118
106
90
87
77
124
121
110
139
137
121
131
129
111
130
128
110
133
130
114
127
124
109
122
117
102
123
118
102
130
124
107
135
129
110
138
133
117
128
123
108
133
127
110
133
128
110
131
128
113
126
122
109
124
122
111
83
80
70
104
102
91
96
94
83
115
112
102
112
110
100
99
100
89
117
119
107
128
128
116
102
101
91
114
113
103
116
116
106
116
115
106
114
113
104
117
117
109
123
124
112
115
115
109
117
116
110
116
116
108
114
112
104
121
120
112
122
120
115
98
98
93
97
99
95
114
113
111
102
102
97
85
86
85
98
99
92
171
165
151
103
100
92
128
125
118
124
120
114
117
113
101
83
78
72
69
66
64
113
110
104
123
119
112
116
111
106
140
135
129
120
115
108
123
117
110
124
118
109
134
127
117
103
98
87
114
111
100
95
91
90
88
90
92
89
89
88
94
97
98
111
115
117
102
105
109
77
80
86
64
66
67
166
166
161
136
133
132
132
130
129
131
130
131
98
96
99
67
64
68
76
67
74
84
72
75
96
81
85
90
76
83
82
72
76
86
77
77
94
77
80
85
72
79
92
79
83
84
71
74
86
78
82
98
91
90
109
103
99
95
90
89
93
92
95
57
59
71
91
88
90
86
83
80
95
91
88
104
98
94
126
121
113
103
101
94
51
47
42
49
43
38
47
40
36
54
48
44
59
54
49
57
55
50
62
57
51
20
18
17
21
19
19
21
20
17
23
23
19
27
24
21
27
24
22
26
25
22
29
25
22
30
26
24
31
27
25
36
32
28
36
33
28
36
34
28
38
35
29
37
34
28
33
30
24
39
35
28
37
34
26
33
30
24
33
30
23
145
142
128
214
208
190
168
162
142
174
169
148
196
191
177
203
200
187
150
146
135
50
45
36
45
39
29
54
48
40
83
76
67
178
174
162
221
217
200
122
120
110
136
134
121
151
148
132
157
157
136
160
159
138
168
164
142
175
169
148
178
171
150
171
163
144
123
119
107
179
172
154
176
172
150
173
169
149
165
161
151
86
83
74
119
115
103
192
186
169
183
177
156
193
187
165
199
193
171
152
145
129
126
122
107
138
134
120
147
147
128
175
169
149
177
169
149
170
164
145
166
163
143
154
152
135
111
108
97
145
143
124
138
137
124
122
119
109
109
105
96
88
81
72
131
128
106
186
183
152
165
161
134
146
139
130
153
148
139
159
150
134
135
123
103
181
177
160
201
199
182
184
182
168
196
197
180
204
205
185
197
194
173
197
194
171
201
198
177
199
193
171
195
189
168
203
196
174
205
201
175
191
188
167
196
195
169
147
146
129
136
133
125
105
102
93
186
179
157
118
112
99
34
30
27
44
38
34
65
59
53
102
98
83
125
120
97
138
133
109
163
156
133
159
152
131
158
151
130
148
142
122
145
137
114
149
142
122
154
148
133
140
135
121
139
135
119
142
138
121
154
151
131
156
152
132
159
151
136
155
147
129
149
143
124
149
146
125
140
136
118
145
141
124
145
141
126
152
145
134
147
140
128
139
132
121
152
145
132
135
129
116
133
124
113
89
83
71
131
130
116
140
137
124
37
33
29
101
102
98
141
142
135
112
112
101
114
112
103
86
82
75
117
115
104
103
101
88
111
107
95
108
105
92
96
93
83
96
93
85
101
97
89
92
89
79
99
96
86
97
93
84
96
93
84
88
85
77
85
82
77
83
81
75
82
79
72
79
77
71
67
67
60
73
71
63
85
83
73
81
78
71
80
77
69
78
76
67
85
82
74
86
85
76
84
82
74
83
82
73
82
79
71
87
84
75
93
91
83
76
74
65
82
78
69
92
88
79
85
82
75
80
78
70
77
75
67
75
72
63
73
70
61
80
77
69
85
81
76
95
93
88
87
87
81
88
89
82
86
85
79
79
78
71
81
80
76
78
76
73
77
80
76
85
88
83
83
87
80
83
85
82
87
88
86
86
87
85
84
86
82
79
83
78
84
88
83
84
88
85
74
77
75
75
77
77
75
74
74
94
93
89
102
103
97
95
96
86
171
167
154
92
92
83
165
163
150
115
111
100
115
110
98
100
97
92
49
47
44
101
98
90
119
115
107
86
81
74
120
116
109
110
104
98
118
112
105
111
104
97
99
91
86
110
104
98
119
115
102
105
101
96
97
99
99
104
104
97
94
90
98
129
137
143
117
129
136
71
75
86
65
68
69
177
177
171
136
133
131
135
131
131
126
126
126
83
81
86
71
68
72
79
69
75
86
74
77
91
78
82
88
77
80
84
77
80
96
87
87
104
88
92
95
81
84
96
82
87
90
82
85
93
89
99
91
85
85
98
94
94
110
105
106
83
82
84
41
44
57
70
67
70
118
114
112
124
120
118
114
108
105
106
101
95
51
43
37
72
56
44
74
56
44
73
55
43
71
54
42
70
53
40
65
54
44
49
42
35
41
40
36
48
47
42
53
51
45
68
66
59
77
76
68
69
66
58
77
74
66
70
67
57
93
91
81
86
83
73
75
71
61
116
112
99
109
103
91
94
90
78
96
94
82
81
77
66
73
69
58
142
136
120
118
112
95
58
52
42
157
153
143
233
228
213
211
207
185
184
179
156
167
165
138
141
138
118
56
51
40
50
44
37
67
61
51
105
97
87
201
195
181
235
230
209
217
210
187
99
98
87
130
127
115
138
136
120
143
144
125
151
145
128
154
145
127
175
170
151
194
188
167
173
171
150
110
109
101
168
162
146
205
200
176
191
185
159
187
182
161
149
146
131
144
139
122
197
189
171
221
213
192
211
201
179
192
184
169
160
153
138
117
115
99
134
131
115
145
143
127
148
141
128
163
157
141
196
190
168
196
191
165
178
175
152
190
188
169
127
125
116
96
94
87
117
114
106
108
102
95
130
123
113
82
75
64
125
119
106
153
147
130
159
154
133
159
154
135
163
153
135
137
126
105
191
189
172
209
209
192
209
210
193
212
211
195
204
204
184
196
193
170
200
197
175
197
192
171
195
190
170
192
187
163
205
202
179
199
195
169
203
198
173
195
192
169
143
140
124
127
123
115
96
93
85
182
176
153
109
103
89
30
29
24
29
27
24
33
29
23
36
30
26
40
35
29
51
45
39
58
51
45
51
42
36
59
50
44
42
35
30
55
47
38
52
44
35
56
48
38
57
48
38
49
42
33
57
49
41
58
50
42
58
51
42
51
45
33
56
50
43
54
48
42
48
42
38
52
46
43
52
47
42
80
76
63
81
77
64
70
65
58
67
60
54
65
59
51
65
60
50
68
59
50
107
103
93
143
140
131
62
60
53
86
85
81
126
125
119
50
50
44
69
68
59
100
98
87
95
92
81
91
88
77
111
108
97
97
94
83
107
104
88
107
100
87
117
110
98
119
114
104
118
114
99
122
117
104
122
116
104
123
119
104
124
119
104
112
108
94
115
110
94
119
113
95
125
118
101
104
99
89
101
95
86
110
107
93
113
110
97
114
110
99
120
117
106
134
129
116
119
115
101
117
115
102
115
113
102
114
114
101
100
100
87
105
102
91
99
97
86
94
93
86
92
90
84
82
80
74
68
67
61
72
71
67
71
69
65
68
69
62
67
67
61
57
56
54
51
51
49
46
46
44
39
39
37
44
44
43
42
42
41
44
44
43
47
47
47
41
43
44
29
31
34
31
33
35
36
37
41
37
38
44
40
41
43
44
48
47
39
44
42
39
41
42
41
44
45
46
48
51
52
51
52
37
36
35
39
38
37
33
33
30
35
33
30
170
166
154
126
125
117
135
132
124
114
110
103
132
128
116
87
81
78
47
45
42
102
100
94
130
127
120
95
90
83
126
120
113
126
120
112
108
103
97
106
103
97
125
117
110
112
108
101
111
106
102
98
94
91
107
105
99
113
110
105
91
91
94
129
140
144
117
127
136
68
72
84
67
70
72
195
192
189
131
129
128
124
122
125
128
126
129
61
61
72
73
70
76
84
73
77
89
79
82
89
80
86
92
80
84
92
80
84
98
87
92
99
87
92
98
85
92
94
84
88
91
88
89
86
90
101
96
92
99
121
119
130
122
124
127
75
78
81
36
38
55
73
71
76
101
98
97
102
98
101
102
97
98
67
59
56
87
65
49
115
82
59
123
88
66
101
69
57
94
68
51
104
77
60
96
83
74
64
60
57
46
45
39
47
46
41
60
58
52
68
66
60
68
67
59
59
56
48
68
65
57
77
72
63
84
80
70
103
99
88
120
116
104
90
85
77
152
146
136
148
144
133
107
103
90
100
96
84
109
102
91
162
154
136
195
192
164
151
147
126
136
133
124
222
218
204
213
209
187
205
200
179
181
177
152
100
97
85
62
56
50
109
104
91
124
118
102
139
132
119
203
197
190
165
157
145
223
215
193
73
70
60
87
77
60
107
107
92
126
120
103
111
76
53
145
110
82
181
171
158
159
149
134
123
105
91
84
80
75
141
136
117
173
168
140
143
139
116
139
136
116
152
146
131
132
126
113
174
167
146
196
189
172
168
159
145
189
181
171
88
81
72
105
103
89
130
125
112
49
44
31
143
137
126
108
102
93
177
171
156
179
174
155
220
217
192
231
228
208
85
82
76
97
94
90
78
76
69
104
97
91
127
119
107
133
127
115
87
82
71
190
187
157
212
209
174
190
187
160
178
169
146
137
125
106
197
197
180
214
214
200
213
213
199
211
211
195
208
208
189
208
206
186
204
200
179
194
189
167
204
199
181
198
192
169
205
203
181
207
204
184
205
202
182
183
179
162
134
130
118
124
120
112
90
87
78
180
173
151
107
101
87
31
29
25
31
29
26
41
37
33
54
50
45
81
73
62
106
97
83
117
110
92
118
110
91
133
124
107
91
86
78
95
93
80
111
108
95
108
102
94
116
111
101
119
112
102
115
110
98
97
91
80
85
81
71
88
85
76
121
119
108
121
118
105
108
103
93
127
121
112
84
78
70
78
75
59
100
95
78
108
100
84
119
109
94
88
79
66
76
67
54
91
82
71
140
136
124
76
74
68
59
57
52
140
140
132
43
41
38
38
37
32
51
50
45
52
49
44
41
37
32
41
39
34
46
45
39
46
48
38
48
49
39
56
52
45
58
53
47
56
52
44
52
48
42
54
51
44
53
50
43
50
47
41
51
48
42
49
48
40
45
43
38
44
42
35
41
39
33
36
33
29
32
29
24
33
32
24
34
33
25
37
32
28
40
34
30
40
37
31
42
39
33
41
38
35
40
37
33
37
36
31
35
34
29
40
37
33
37
34
30
36
34
32
35
33
32
30
28
26
41
39
36
42
40
36
41
40
37
43
43
40
47
47
44
49
49
47
50
50
48
47
48
45
49
50
48
53
53
55
56
56
59
58
58
61
60
60
63
60
62
65
56
57
60
77
79
81
75
77
79
77
80
82
66
68
74
56
60
60
56
61
60
54
59
59
57
63
63
57
61
60
68
68
65
71
70
67
61
59
57
38
37
35
45
44
40
174
169
158
137
137
129
167
166
152
128
126
113
124
120
108
106
100
97
55
53
51
88
87
80
130
127
120
129
123
118
133
128
121
128
122
115
135
131
122
130
127
117
130
119
108
125
118
107
135
132
121
127
123
112
110
104
95
119
113
105
87
86
93
130
141
149
112
126
133
64
74
84
69
72
73
206
204
201
129
127
129
125
124
124
132
134
133
82
85
90
75
74
80
78
69
79
82
77
79
85
82
88
82
79
88
77
75
83
77
78
85
72
73
80
93
93
100
87
86
90
91
90
91
89
93
104
106
104
112
118
120
130
111
117
120
66
70
79
36
39
55
81
78
84
115
110
110
123
119
114
103
100
96
69
57
49
112
81
58
147
118
97
161
133
114
121
86
64
106
79
62
114
86
69
99
90
85
78
79
79
60
58
55
52
50
46
116
111
104
134
130
119
91
89
78
134
132
115
127
123
107
120
114
99
149
143
123
114
108
94
102
99
88
120
117
103
124
120
109
121
115
106
126
121
106
110
106
92
115
108
90
131
121
94
122
115
97
124
119
105
135
132
124
221
219
205
123
121
110
141
136
127
173
168
149
95
91
81
80
72
62
163
155
132
134
124
107
140
132
119
220
216
205
185
180
167
220
210
191
74
69
60
89
76
61
95
85
70
103
88
70
105
70
47
151
113
83
183
172
159
188
180
168
166
159
153
72
68
66
111
108
94
198
194
173
188
182
165
126
124
108
131
132
111
126
121
106
161
155
141
153
148
131
194
185
163
127
120
103
99
92
73
118
114
99
123
119
109
46
39
30
155
148
137
126
121
112
152
148
136
132
128
118
220
215
197
217
212
194
118
115
110
131
129
125
95
93
88
86
82
73
140
136
123
147
143
130
103
99
87
184
181
156
177
174
147
166
162
134
167
159
137
135
125
107
200
200
184
216
216
200
216
216
200
210
210
194
212
212
195
206
205
187
207
205
188
202
198
179
206
202
184
201
195
175
207
204
185
207
206
187
205
204
185
174
172
159
129
127
117
123
120
112
92
89
78
194
188
163
112
106
93
32
28
26
37
33
29
46
43
38
58
55
44
95
83
69
152
142
123
140
133
112
152
144
117
161
150
124
89
82
71
149
145
131
132
129
116
54
43
36
56
47
38
61
52
41
58
51
38
47
42
34
98
89
74
132
127
118
155
151
138
156
154
137
128
126
114
149
144
130
111
105
96
54
50
47
76
69
62
107
101
89
102
95
80
117
110
95
114
108
92
145
141
127
100
98
88
43
43
37
139
138
131
62
61
54
35
33
28
70
68
63
94
92
87
97
96
89
95
94
86
96
95
88
106
106
95
108
106
96
116
115
102
109
109
97
105
104
96
96
95
88
84
82
74
75
74
67
70
69
62
70
69
61
67
66
58
65
64
56
65
64
56
69
66
57
74
71
66
66
64
61
44
43
39
53
52
45
58
57
50
63
61
54
59
58
51
62
62
58
66
66
63
68
67
65
68
70
67
68
67
61
64
62
57
66
64
62
63
61
60
65
64
59
63
62
57
48
48
44
69
66
57
74
69
59
62
58
55
49
47
43
88
85
75
87
82
75
67
65
62
72
73
70
78
80
77
79
79
75
88
88
83
93
92
91
89
91
93
90
95
94
79
82
90
95
98
97
98
101
99
98
100
97
88
94
93
98
101
102
96
98
100
92
98
100
93
99
100
89
97
96
89
92
93
103
104
103
66
64
64
79
80
76
91
92
83
174
170
156
154
155
146
165
165
152
138
138
124
75
75
72
65
65
62
59
57
55
60
59
57
93
91
86
105
103
98
111
108
103
112
109
102
131
128
120
127
123
115
124
120
112
117
116
109
122
123
114
108
112
103
94
93
90
96
97
98
108
110
119
127
135
144
114
127
137
69
76
88
72
75
79
204
206
204
137
137
139
134
135
136
129
132
131
79
80
83
83
81
87
79
75
82
96
95
95
58
66
76
76
82
90
81
82
93
86
92
104
48
56
82
39
46
76
81
82
95
116
114
117
84
88
102
97
96
104
111
117
123
114
119
122
73
73
84
34
39
57
66
67
75
89
88
87
88
88
86
94
92
91
91
76
68
103
75
62
199
181
162
191
174
157
135
100
80
107
77
62
116
87
70
88
82
78
88
92
95
60
59
55
42
40
36
72
67
62
59
55
53
57
55
50
101
99
87
127
123
106
143
136
120
164
159
140
115
111
96
132
129
118
105
100
90
134
129
112
128
122
105
143
136
120
112
106
92
80
73
60
118
109
82
109
98
79
97
85
68
162
157
152
213
212
197
187
185
169
184
181
166
191
185
168
87
83
74
82
76
62
162
153
132
142
131
107
148
138
118
169
161
140
173
166
144
196
189
170
78
70
63
70
62
49
68
56
44
55
46
35
78
59
40
119
94
67
134
123
109
220
218
206
227
224
219
76
74
69
79
76
68
136
131
114
96
90
84
137
132
119
132
125
108
151
144
131
116
111
100
109
105
90
186
178
148
177
171
147
81
74
58
118
113
101
130
127
117
53
50
38
62
59
52
130
126
117
143
139
125
200
195
178
223
217
194
220
214
194
57
55
50
97
97
92
95
93
91
61
58
52
90
85
77
124
119
109
122
118
102
187
181
153
180
173
142
166
155
123
170
158
134
138
127
110
201
201
187
213
213
197
216
216
200
213
213
197
215
215
199
210
208
191
207
205
188
202
198
178
202
199
178
205
199
179
209
207
188
208
207
188
208
206
188
176
174
160
125
123
112
126
121
114
98
96
85
199
193
168
117
110
97
37
33
31
41
37
33
53
50
40
74
71
58
93
84
74
79
72
64
142
134
118
134
127
105
134
125
110
84
81
71
166
163
145
130
126
110
64
54
41
62
53
39
63
54
41
67
60
47
106
93
78
157
139
118
115
108
93
94
88
78
92
87
77
78
74
68
124
118
106
78
73
65
86
82
76
67
62
50
120
114
97
105
99
84
116
109
93
138
131
116
117
115
106
52
50
46
125
124
116
69
68
61
36
35
28
81
80
73
131
131
120
145
144
132
136
136
123
143
143
129
129
129
116
143
143
126
145
140
125
150
146
128
146
146
129
141
141
128
139
138
125
131
131
116
127
127
113
125
125
111
123
123
109
122
122
108
119
119
105
123
123
109
114
111
102
43
40
35
49
48
43
62
61
53
83
82
73
97
97
87
99
99
86
93
93
80
100
97
88
104
101
91
102
102
92
101
104
93
108
108
99
107
106
98
108
107
102
102
100
95
96
96
87
99
99
90
70
71
67
98
95
85
92
86
76
71
67
63
63
61
56
116
108
92
92
86
77
79
76
71
88
86
81
96
94
89
103
100
93
104
101
94
103
103
98
98
99
97
113
117
112
98
102
105
106
110
104
105
109
104
102
103
104
109
116
111
129
132
129
119
121
119
110
117
115
108
114
113
105
113
113
117
120
121
137
139
138
106
104
103
126
126
120
125
124
111
185
180
166
157
154
147
163
164
150
142
143
129
114
115
111
110
109
108
23
22
20
39
39
37
95
96
92
62
63
62
106
108
106
120
122
122
102
109
108
109
117
116
94
103
103
79
92
92
46
61
73
29
38
66
24
33
58
79
92
118
130
132
136
123
133
137
117
132
142
69
77
91
76
79
85
202
205
198
136
137
136
137
138
137
127
129
129
80
82
86
88
87
96
112
108
112
73
78
89
32
46
77
38
47
85
44
56
94
47
60
99
42
58
100
42
57
100
67
72
92
124
124
129
112
116
129
93
93
103
114
120
127
112
118
125
72
75
84
31
39
62
49
53
72
56
62
69
69
66
67
111
102
97
81
74
72
86
71
61
125
106
93
142
124
110
131
96
76
109
80
67
116
94
82
81
81
77
79
87
89
86
85
78
85
83
77
101
100
95
62
61
55
113
112
109
63
62
57
130
127
114
158
152
136
149
145
128
131
128
113
130
127
114
153
152
138
157
151
131
139
132
113
163
159
142
126
121
109
77
78
69
201
199
189
180
168
149
117
104
80
170
166
164
218
217
209
197
195
177
206
203
181
211
203
185
106
101
91
95
83
74
152
142
128
156
141
118
112
104
88
175
170
155
181
176
157
226
218
200
90
82
73
67
60
49
69
65
57
61
56
50
84
79
69
119
111
99
176
165
149
222
218
205
225
222
209
77
75
68
83
78
70
175
164
149
116
112
102
108
107
98
119
108
92
141
134
122
98
92
80
104
100
83
207
199
173
200
192
171
74
68
55
119
115
102
131
127
119
54
51
44
84
81
71
114
114
99
183
183
164
222
218
197
215
209
179
209
203
177
69
67
62
89
86
80
108
103
103
60
54
50
90
83
78
149
143
133
140
139
128
232
228
215
223
221
198
229
225
200
183
175
156
136
125
111
208
206
195
207
207
192
218
218
202
213
214
198
214
215
198
211
210
190
204
203
183
202
199
179
202
199
178
209
206
186
205
201
182
204
200
183
207
203
186
172
170
156
122
120
107
123
118
110
91
89
77
199
193
167
116
110
94
38
34
32
44
41
36
59
57
50
64
59
51
96
85
77
85
77
68
100
93
78
108
101
87
80
74
67
142
137
121
165
161
140
128
122
107
91
82
71
95
88
76
107
101
86
115
109
98
126
118
101
133
121
105
120
113
98
105
97
86
101
93
80
108
101
90
79
74
66
71
67
60
57
54
47
69
65
55
97
92
81
108
102
91
113
106
94
80
74
66
59
55
52
121
118
111
75
74
65
39
38
30
75
74
67
145
144
133
155
153
140
163
161
143
163
162
142
159
157
138
152
149
132
153
149
132
162
156
138
163
157
139
161
158
142
116
115
106
138
138
132
152
150
136
149
147
132
148
146
131
145
143
130
145
142
129
139
137
124
139
137
124
138
135
123
129
127
116
81
80
76
74
73
65
108
106
94
121
119
104
126
126
113
117
117
105
125
125
113
126
126
112
132
131
116
126
126
111
129
127
116
128
126
115
128
127
118
129
128
119
122
121
110
116
116
105
87
87
83
113
110
101
104
100
88
104
100
90
87
84
78
111
108
95
88
85
76
94
91
83
100
97
89
112
109
101
112
109
101
109
106
99
90
88
84
81
82
76
109
111
102
110
111
105
124
126
117
125
128
118
129
127
122
126
125
120
123
127
122
121
125
118
128
131
123
128
131
123
131
133
127
135
137
130
145
149
144
126
123
119
161
158
150
138
136
121
179
174
161
157
153
145
174
175
160
153
153
139
111
112
108
117
116
116
32
32
32
86
84
83
119
118
115
46
50
50
163
167
166
112
120
122
40
39
42
137
130
130
70
69
71
69
75
80
92
98
115
34
52
84
34
44
69
131
135
140
117
120
126
121
130
139
119
131
140
75
80
96
81
85
91
205
205
200
140
143
141
138
142
141
134
138
139
80
82
88
73
78
91
93
95
103
42
50
79
32
52
92
37
58
105
44
70
120
48
79
127
45
72
118
49
72
116
54
69
108
103
106
118
106
113
123
90
95
109
124
131
141
110
120
130
72
77
87
32
40
63
44
53
81
57
73
95
48
61
79
83
84
94
89
86
93
85
80
77
132
113
99
141
118
107
119
89
74
106
84
74
99
84
75
50
55
54
68
77
82
94
91
85
90
88
80
90
89
80
76
75
65
103
102
97
88
87
81
139
135
123
173
167
149
144
140
125
134
130
115
125
122
105
161
161
142
124
119
101
139
136
118
166
163
145
126
122
109
98
99
91
220
220
210
184
176
159
105
96
74
164
161
157
220
220
215
205
203
187
196
195
175
202
197
178
108
105
95
92
83
72
171
165
150
166
153
134
114
106
95
172
171
159
177
175
157
226
219
196
92
85
75
69
61
51
107
104
90
112
108
97
88
82
74
149
141
128
187
177
159
213
209
195
216
213
199
78
74
65
82
79
73
176
164
149
130
125
115
118
118
106
123
112
96
142
134
120
101
94
86
121
117
99
212
202
176
191
183
158
69
63
52
127
123
111
133
129
120
57
54
45
109
107
94
147
147
132
203
204
184
227
223
202
212
205
175
218
212
184
69
66
61
90
86
79
110
106
106
60
58
53
71
68
61
149
143
129
135
133
127
228
228
219
226
228
210
227
229
205
179
174
159
137
127
113
213
211
199
215
215
200
216
216
200
213
214
197
212
212
196
209
207
188
200
199
179
203
199
181
212
208
192
211
207
188
205
202
182
206
202
182
201
198
178
166
164
149
121
119
107
121
117
109
98
96
85
205
199
173
133
127
111
39
35
33
47
44
39
60
59
52
74
68
59
81
73
61
103
97
83
123
116
101
122
114
98
128
119
105
132
124
109
135
128
111
136
128
116
148
140
126
139
132
117
144
139
119
147
140
124
138
129
117
134
129
117
105
101
91
122
117
108
109
103
93
113
108
98
89
84
77
68
65
58
64
61
54
55
52
44
53
48
40
62
57
50
37
33
29
70
68
61
123
120
111
77
74
69
41
40
33
89
88
81
136
136
125
153
153
138
154
151
136
157
155
137
160
159
139
164
162
143
164
160
143
160
156
139
167
161
143
171
165
146
166
163
143
141
141
128
137
138
132
149
145
132
152
149
134
151
149
133
149
146
133
145
142
129
139
137
124
138
135
121
143
141
126
140
138
122
100
99
94
91
90
80
124
122
110
135
133
118
142
143
127
138
138
122
142
139
125
148
145
129
146
142
126
143
140
124
137
132
119
138
133
121
139
137
128
134
132
123
128
127
116
125
124
114
95
95
91
123
120
110
102
97
87
108
104
92
99
96
86
90
87
76
90
87
79
99
96
88
107
104
96
113
110
102
111
108
100
117
113
106
109
108
100
109
109
101
77
77
73
73
73
70
89
90
87
99
100
98
102
103
100
95
96
94
92
93
90
93
93
93
88
89
86
82
84
83
79
82
82
67
70
74
66
68
67
138
135
128
107
104
103
143
140
133
173
168
156
169
163
155
178
176
163
155
155
142
113
115
111
129
128
129
47
47
47
103
102
101
118
116
114
48
53
54
158
162
160
102
109
114
53
55
58
170
167
164
93
92
92
100
107
109
106
114
123
36
55
86
60
70
82
154
159
157
119
126
131
120
133
141
121
136
144
81
90
106
84
89
95
206
206
201
144
147
145
141
145
144
134
138
139
81
84
90
67
80
98
81
91
106
35
48
82
35
59
103
45
78
125
144
170
192
119
159
184
47
92
139
57
86
131
55
74
121
106
119
137
91
102
117
91
101
115
123
133
142
108
120
130
71
78
88
29
39
67
42
52
85
58
77
100
47
68
92
78
84
95
93
94
100
101
100
102
107
103
100
99
95
94
108
98
95
106
88
82
101
89
84
54
56
59
74
80
84
119
116
105
114
111
102
90
88
79
71
70
62
113
112
107
81
77
71
114
110
96
171
165
145
147
142
123
141
138
119
120
117
103
130
129
113
103
97
84
133
128
115
155
154
131
140
140
117
105
104
93
224
221
207
174
169
150
105
97
78
154
151
143
221
222
216
212
211
193
199
198
178
200
193
177
101
97
88
87
81
67
172
165
147
161
146
130
121
114
105
189
182
172
193
187
170
228
222
202
94
88
77
72
65
54
108
102
89
108
104
95
93
85
75
156
150
133
179
172
152
219
214
197
210
203
193
81
71
68
84
82
73
182
172
154
139
133
122
104
103
94
122
114
99
139
132
121
108
101
93
118
111
94
202
192
166
190
181
157
72
66
51
130
125
113
132
126
119
62
58
52
113
111
100
157
156
138
198
197
176
220
218
196
205
199
172
209
202
177
63
60
55
79
75
68
101
97
93
60
58
52
83
78
74
144
137
129
133
132
123
224
223
215
224
225
207
222
224
197
180
177
162
139
128
116
214
211
200
219
219
204
222
223
207
217
218
199
215
215
197
212
210
193
209
207
189
207
203
184
210
206
189
208
205
186
209
206
186
204
203
183
197
195
176
163
158
145
113
107
98
115
112
103
94
92
80
204
196
170
137
131
116
38
36
32
45
43
40
63
58
52
104
93
81
120
110
90
146
136
117
163
154
134
170
160
140
169
160
139
168
159
139
170
161
141
167
159
141
168
160
141
165
157
139
158
151
134
163
156
139
149
142
127
141
134
119
108
102
88
151
145
130
163
156
142
132
127
115
108
103
93
103
100
92
71
68
63
91
89
79
79
75
63
102
97
84
63
59
49
75
72
61
79
76
66
48
44
41
84
83
74
127
126
115
156
154
140
163
161
143
163
161
144
159
157
140
163
159
142
163
159
142
166
162
145
167
163
146
170
166
148
170
167
148
169
165
146
162
158
139
152
148
132
161
158
141
151
149
134
150
148
133
152
149
137
147
144
132
143
141
127
148
146
129
141
139
124
149
147
131
113
112
105
105
105
93
130
127
116
146
143
129
148
146
131
146
144
129
150
146
132
148
143
129
151
147
132
148
143
129
145
141
126
149
145
130
144
141
129
140
138
126
133
132
121
129
129
118
91
89
85
99
94
85
105
102
93
101
98
87
101
96
85
98
93
81
104
101
90
113
110
99
115
112
101
114
111
101
114
111
101
119
116
106
123
121
112
87
89
81
57
57
55
52
52
46
48
45
43
46
43
43
48
48
46
51
54
51
55
54
55
58
56
58
54
53
53
54
52
51
54
53
53
57
57
55
54
56
51
115
114
109
115
112
111
145
146
147
165
161
148
186
182
170
181
180
168
170
169
157
117
118
114
134
134
136
49
49
53
111
116
113
115
114
111
39
49
49
160
165
160
107
115
120
59
59
62
169
169
164
93
89
88
111
120
120
118
128
136
40
59
90
69
80
88
150
156
153
113
122
125
125
140
145
126
141
149
79
91
105
87
92
98
203
202
196
145
146
143
145
147
144
135
140
141
79
86
92
68
83
106
90
104
121
36
53
89
38
66
117
61
108
151
208
230
237
207
238
243
77
132
168
54
96
140
52
84
131
114
134
154
107
121
137
91
100
114
121
131
144
108
119
132
70
77
88
28
39
69
39
53
87
56
74
101
53
70
97
90
99
112
90
92
100
98
97
100
75
75
84
108
108
113
99
93
94
103
92
83
95
89
84
59
61
68
87
91
96
128
123
111
132
128
119
96
94
86
70
69
63
96
95
90
83
80
72
107
103
89
164
160
141
160
154
136
140
134
116
115
111
95
131
128
116
110
108
92
136
135
120
140
140
121
116
115
99
101
100
89
217
214
199
153
148
129
95
88
69
141
138
131
213
214
208
196
195
176
197
196
175
206
200
178
109
105
95
85
78
68
164
157
137
157
143
122
124
117
105
189
182
169
200
193
173
223
217
197
101
95
85
69
62
51
101
95
81
97
93
84
95
87
76
164
159
138
181
175
151
219
213
197
211
205
194
83
73
69
81
78
70
178
167
150
134
128
117
108
106
97
124
116
103
131
124
113
100
92
85
121
114
97
206
196
170
191
182
155
66
59
47
132
126
114
135
129
121
65
62
52
118
116
101
150
149
128
193
193
169
218
217
195
208
202
177
205
199
174
68
65
60
80
78
70
97
93
88
59
55
50
127
123
111
135
129
120
131
129
119
223
221
214
226
226
209
227
227
200
183
180
165
141
131
119
212
210
198
221
222
206
221
221
205
218
218
200
215
216
198
214
212
194
211
209
192
209
205
187
212
208
188
210
206
187
212
208
189
205
204
184
198
197
177
164
158
147
120
113
106
125
118
111
101
95
85
204
195
169
136
131
115
38
36
32
38
36
33
50
49
42
98
92
80
120
115
99
134
127
113
138
130
116
143
137
122
142
137
123
140
136
121
142
138
123
137
133
119
140
135
122
141
136
124
137
132
118
138
133
120
130
126
113
115
110
100
101
97
87
126
122
111
125
121
110
123
119
110
99
96
88
98
95
89
87
83
78
134
131
120
138
133
118
133
128
120
73
70
64
124
120
103
114
112
100
85
84
76
152
150
132
145
143
129
159
157
143
168
165
147
162
160
143
162
161
143
168
164
147
164
160
143
165
161
145
167
163
146
163
159
141
168
165
146
168
165
146
166
163
143
159
155
139
164
160
143
157
154
139
155
153
137
151
148
136
149
147
135
148
145
132
150
148
132
145
143
128
154
152
137
114
113
106
111
111
98
133
131
118
148
146
131
156
154
138
146
143
128
154
150
135
150
146
131
152
147
133
150
146
132
151
147
133
148
143
129
151
149
132
144
142
127
135
134
121
126
125
115
94
92
87
100
95
85
124
121
111
127
125
113
124
119
107
117
113
101
118
115
104
117
114
103
118
115
105
119
116
106
122
120
110
121
119
107
122
121
110
63
64
60
64
65
61
81
82
74
86
83
76
88
85
79
89
86
81
86
87
81
84
84
80
82
83
79
81
81
79
76
76
74
77
77
74
82
83
79
76
78
73
92
91
86
127
127
122
97
99
96
170
166
152
169
167
151
174
172
162
164
164
153
123
124
120
129
130
131
49
50
54
111
116
112
124
122
121
49
58
59
160
165
160
109
116
123
54
55
57
162
161
157
100
97
96
110
119
119
117
128
137
41
60
90
73
84
90
150
154
157
120
127
132
128
142
146
125
140
145
83
96
112
91
97
104
203
202
196
145
146
143
144
146
144
138
144
144
78
86
92
70
86
105
98
112
125
37
60
98
46
82
134
72
122
173
204
227
238
218
244
246
82
142
179
57
107
152
57
96
144
113
134
155
103
117
133
99
107
123
121
130
144
109
122
136
71
81
95
29
43
76
38
56
92
54
78
107
52
71
95
84
95
108
81
83
91
103
102
104
110
110
118
75
75
81
97
94
95
103
94
88
93
88
87
60
62
68
85
87
94
140
138
125
137
134
124
103
100
90
68
65
57
127
124
117
89
86
77
128
126
113
145
139
122
148
141
124
151
144
127
126
121
105
136
134
112
143
142
121
129
130
114
183
182
165
139
137
125
98
96
87
213
210
197
150
143
127
93
83
67
139
136
129
223
225
219
208
208
192
207
203
185
205
198
179
112
105
97
82
75
69
171
162
146
156
143
124
125
117
106
181
174
162
199
193
173
228
220
201
110
101
91
73
65
54
100
94
80
90
84
77
94
89
77
161
153
131
181
174
151
205
198
183
209
203
191
81
73
68
81
76
68
175
164
150
126
120
111
110
106
100
126
117
104
131
125
111
103
95
90
121
116
99
203
194
167
192
181
155
60
55
43
136
130
121
140
134
127
69
66
54
121
119
101
142
141
122
174
172
156
216
212
195
226
218
193
223
217
195
71
69
63
80
78
72
107
102
99
60
54
50
133
129
114
139
133
124
130
128
117
220
221
214
215
218
202
221
223
201
183
177
165
145
136
123
209
209
196
219
220
201
218
219
199
220
219
201
218
217
198
214
215
196
209
209
191
208
204
186
204
201
181
203
199
180
208
204
185
202
200
180
196
195
175
170
165
152
123
117
108
123
117
109
94
92
80
207
200
171
132
126
111
35
34
30
43
42
38
56
55
49
45
41
36
72
69
63
103
99
87
109
105
92
110
106
93
112
108
96
116
110
99
117
111
101
115
108
100
114
107
99
118
112
104
116
111
103
110
106
95
107
101
92
116
110
102
108
103
93
106
101
90
103
99
89
104
100
89
102
97
87
110
106
94
134
130
116
115
111
96
126
121
110
98
94
86
74
70
64
163
157
138
132
129
117
135
135
124
156
155
133
151
150
134
154
153
139
172
169
151
165
161
144
165
161
144
168
165
144
162
158
138
164
160
143
164
160
143
162
159
139
162
158
139
160
156
137
159
155
136
160
156
139
159
155
138
157
153
138
152
148
134
150
147
134
151
149
136
151
149
136
146
144
131
145
143
128
149
147
132
119
117
108
120
118
104
143
141
125
152
149
133
158
156
139
153
151
134
156
152
137
156
152
137
154
149
136
154
149
136
151
146
133
153
148
135
151
146
133
129
126
115
137
134
123
129
128
118
101
99
93
113
108
98
129
126
113
137
134
122
139
134
122
133
128
116
129
123
114
123
118
108
125
122
112
128
124
114
120
116
105
124
120
107
124
122
114
72
73
69
86
91
87
91
96
94
93
94
90
94
95
90
99
97
93
106
106
101
108
109
103
107
110
104
111
114
111
92
96
93
87
88
88
87
90
90
93
96
95
100
104
100
111
119
117
119
119
115
179
173
159
166
164
148
186
186
174
174
173
163
120
123
117
133
135
135
45
45
50
122
125
124
130
127
127
46
52
55
155
160
158
111
121
127
87
88
89
146
147
143
98
95
96
101
110
111
117
129
138
40
62
90
78
89
96
154
158
162
121
127
133
127
140
148
124
141
150
84
98
115
90
97
108
205
205
197
150
154
152
149
153
152
138
144
144
83
90
99
74
91
112
105
119
134
43
71
117
50
92
149
82
131
184
204
231
240
225
246
248
87
150
189
64
114
156
60
103
150
111
133
159
111
126
144
101
111
126
132
145
156
114
127
145
77
87
107
28
42
83
39
59
100
55
80
114
56
73
99
86
96
113
77
80
89
111
110
111
127
123
119
123
121
123
111
108
110
101
98
97
93
89
91
62
63
68
91
92
96
72
69
57
60
57
49
62
59
50
74
72
65
70
67
58
71
69
58
100
97
86
136
132
116
152
147
125
177
171
150
142
138
123
191
187
166
168
164
146
134
135
120
193
191
173
152
148
136
95
98
87
212
212
198
148
141
125
87
77
62
137
134
127
221
223
217
168
168
153
190
186
169
207
201
185
111
110
99
83
75
69
168
160
144
154
143
124
120
111
100
176
168
158
198
192
174
226
217
199
106
97
87
71
64
53
106
99
86
99
93
85
95
88
76
166
158
136
192
185
161
200
194
179
221
216
203
83
74
69
84
79
70
173
162
145
118
112
101
101
97
87
119
111
94
129
123
106
100
92
83
120
115
98
199
190
164
192
181
155
61
56
43
136
131
123
135
129
123
68
66
54
144
143
123
182
180
161
184
183
165
216
213
192
197
190
161
199
193
166
68
65
59
77
77
70
109
103
100
61
55
52
115
110
95
141
136
127
128
126
116
221
221
215
220
223
207
217
219
196
177
172
159
141
133
120
206
206
193
226
227
208
215
216
195
217
215
197
216
214
198
212
213
194
209
209
191
201
198
178
210
206
189
208
204
185
206
202
183
202
201
181
199
197
177
161
157
144
120
114
105
120
113
101
76
74
66
201
193
169
130
124
112
34
33
30
41
39
36
51
50
45
56
52
48
89
86
80
112
108
97
116
112
100
117
113
102
119
115
103
118
115
103
116
113
103
121
118
109
117
114
105
115
112
102
115
111
101
115
111
100
116
109
101
119
113
105
114
110
99
115
111
100
123
118
108
129
125
114
120
116
105
112
108
96
120
116
102
122
119
104
100
97
86
95
89
82
73
70
62
174
168
149
132
129
116
141
143
128
164
162
139
149
146
128
159
158
144
169
165
147
160
156
139
163
159
142
166
163
142
163
159
138
163
159
142
166
162
145
161
157
138
161
157
138
160
157
138
154
151
132
151
147
130
148
144
127
151
147
132
153
148
134
151
148
135
153
150
137
150
148
135
153
150
137
146
144
129
151
148
134
129
127
118
123
121
107
136
133
116
155
152
135
162
160
142
159
157
140
154
149
135
153
149
134
155
151
134
151
147
130
149
145
128
147
144
128
127
123
111
110
106
96
110
106
96
135
134
123
108
106
99
124
120
107
133
131
115
139
137
125
138
133
123
139
134
124
127
122
112
127
121
112
114
111
101
98
96
86
93
91
82
81
79
72
107
105
99
98
99
95
88
90
89
73
76
71
77
79
74
81
83
78
80
84
80
84
85
83
82
80
78
74
75
71
80
87
80
82
88
81
85
96
89
92
98
94
86
90
85
80
84
82
89
94
91
120
125
117
182
176
162
168
166
150
177
177
167
162
161
152
126
129
124
136
139
138
52
54
59
101
103
103
119
119
118
47
50
55
157
160
155
120
126
131
124
125
125
137
137
135
82
80
82
101
109
111
115
129
135
44
66
90
83
93
99
153
157
161
117
123
129
128
141
149
124
141
150
85
100
116
87
95
106
206
204
197
149
156
153
147
156
153
132
141
141
81
91
99
69
89
109
107
126
140
43
76
124
52
95
154
88
133
186
206
230
239
229
245
247
95
157
194
71
118
161
65
105
153
112
136
162
115
131
149
94
107
126
116
133
147
108
125
143
75
88
108
27
44
84
44
60
103
59
80
116
57
78
103
92
103
120
79
83
92
71
77
84
70
72
81
87
86
93
84
84
91
68
75
86
74
75
86
62
66
70
83
86
90
88
86
75
53
51
43
66
65
57
96
96
88
68
67
56
61
59
47
108
105
92
107
105
88
135
133
110
194
191
168
146
142
127
195
190
170
157
152
135
130
130
113
192
190
168
137
133
119
99
100
90
199
199
185
148
140
126
85
78
63
134
132
125
223
223
216
202
203
185
200
200
182
210
205
187
118
117
106
76
69
61
167
159
141
155
146
128
121
115
102
158
150
142
195
188
172
228
220
200
110
103
93
70
63
52
103
97
83
103
96
86
97
89
77
167
159
139
195
187
162
214
212
194
217
213
201
78
70
66
79
74
66
166
158
141
113
105
96
108
104
94
121
112
98
126
118
103
90
81
69
118
111
96
196
184
162
190
177
154
59
55
41
145
140
131
128
124
119
69
67
57
140
139
122
175
174
153
183
182
162
210
207
186
206
201
175
208
202
177
63
60
54
74
76
69
107
106
101
57
52
47
106
98
89
144
136
126
123
122
110
223
222
215
226
227
207
218
219
195
177
172
159
143
136
125
198
201
191
222
223
210
222
221
203
213
213
195
213
214
195
215
213
196
202
200
182
202
201
181
194
193
173
200
199
178
202
201
178
202
198
176
194
193
171
147
144
131
105
99
91
118
114
106
85
83
78
178
173
155
135
130
115
31
28
27
31
29
27
32
28
25
40
36
34
57
53
49
67
63
59
69
64
60
61
57
52
76
73
66
84
81
73
77
71
65
73
67
61
68
66
58
74
72
64
72
68
59
69
64
56
69
65
58
70
66
60
75
70
63
81
76
68
75
69
62
68
63
54
66
61
53
76
70
60
69
62
52
108
106
95
179
176
161
154
150
138
81
80
70
167
162
144
132
129
116
158
157
139
169
167
142
154
151
132
156
153
140
169
166
148
156
154
134
169
165
146
170
166
147
168
165
145
166
162
143
165
161
142
161
157
140
159
155
139
153
149
132
151
147
130
152
148
131
142
138
122
147
143
129
149
145
131
148
146
131
148
146
131
152
150
135
154
151
136
147
145
130
147
145
130
123
121
114
128
126
114
138
134
120
127
124
109
137
134
120
150
147
137
132
128
116
121
118
104
125
124
110
114
113
99
118
118
104
105
105
91
119
116
107
116
110
98
127
123
109
133
130
120
109
106
99
141
136
123
136
134
119
101
98
88
82
77
68
77
72
63
128
125
115
108
104
94
104
101
91
90
87
77
91
89
81
91
89
82
99
98
93
73
72
69
47
47
46
42
42
40
38
39
37
39
39
37
40
41
40
44
45
44
47
47
45
44
45
42
46
47
42
49
50
45
47
51
46
52
53
51
56
55
53
58
57
55
58
55
52
99
98
92
174
167
154
145
142
130
126
125
118
125
124
119
133
137
131
140
143
138
55
59
68
101
104
107
131
129
133
55
55
64
155
156
152
121
124
127
82
85
87
120
124
122
77
76
79
94
100
104
111
121
133
42
67
91
87
97
101
151
156
159
119
125
130
132
146
157
126
143
153
85
103
119
84
94
106
208
209
203
151
155
153
145
153
151
139
147
150
88
96
108
73
90
114
109
131
150
44
80
127
56
96
155
88
135
190
208
229
240
229
245
248
108
165
198
75
120
163
67
109
155
112
136
159
113
129
147
98
112
133
120
135
154
108
125
145
75
90
111
28
46
86
47
65
108
59
81
116
57
79
106
98
108
123
66
72
84
62
67
84
79
85
101
74
79
94
63
68
84
47
55
77
45
50
65
62
65
71
77
76
81
86
83
72
63
61
53
56
56
47
68
67
58
68
68
57
64
61
50
103
101
85
113
112
92
137
134
113
188
185
164
151
147
132
196
192
172
166
160
144
176
175
158
209
207
184
137
133
118
98
98
90
199
199
187
153
146
134
82
77
64
135
133
126
218
218
211
200
201
183
195
195
177
204
203
183
120
118
108
77
69
61
170
162
145
155
147
131
122
116
102
177
170
161
196
190
174
225
220
200
116
111
101
68
61
50
102
96
82
105
98
89
96
88
76
170
162
141
189
182
157
207
205
187
215
211
200
77
69
65
76
71
63
162
153
137
127
120
104
137
133
118
143
136
117
141
132
115
98
89
78
141
133
116
197
186
160
182
172
148
69
63
49
145
140
130
126
121
116
73
70
61
140
139
121
177
175
155
185
184
164
205
203
182
220
215
189
213
208
183
57
55
50
72
74
65
107
106
100
57
53
44
105
98
85
140
133
121
127
126
113
225
225
210
229
230
210
220
221
198
179
175
161
140
136
125
196
201
192
218
222
211
219
221
204
215
216
197
211
211
193
210
208
191
204
202
184
202
201
181
204
203
183
201
199
179
199
198
176
200
195
174
199
197
176
148
145
133
108
102
94
137
129
118
97
97
88
176
172
150
130
125
106
30
28
27
32
30
29
39
35
31
53
50
43
67
62
53
73
67
57
96
88
79
92
84
75
87
81
73
83
78
69
89
84
76
97
92
84
85
80
72
76
70
63
78
72
62
80
75
66
93
86
79
79
72
65
77
71
64
75
69
62
77
72
65
86
82
72
79
74
63
81
75
64
81
74
64
111
110
99
179
175
160
146
142
129
92
92
82
166
162
144
134
130
119
146
144
128
142
138
124
116
112
102
154
151
138
168
165
147
162
160
140
165
161
142
167
163
144
166
162
143
163
159
140
165
161
142
161
157
140
156
152
136
156
152
135
149
144
128
143
139
122
140
136
119
140
135
121
143
138
124
141
139
124
144
142
127
147
145
130
152
149
134
151
149
134
149
147
133
112
110
102
128
125
114
88
84
75
81
76
69
127
124
117
82
79
77
88
88
81
94
94
87
89
91
82
92
93
85
90
91
83
85
85
78
82
82
77
82
78
70
111
107
97
135
132
116
119
116
107
136
132
119
142
140
125
95
92
81
68
65
56
149
146
138
153
151
141
138
138
127
134
132
122
123
120
110
108
107
98
93
92
85
106
103
99
96
95
91
107
110
107
106
109
106
102
103
101
91
92
90
90
91
91
80
82
81
83
87
83
85
87
84
86
87
87
80
82
82
76
82
80
76
83
79
82
82
80
85
86
83
85
89
84
118
119
113
177
170
159
155
152
141
165
166
154
145
146
136
137
141
136
146
149
144
62
66
79
104
107
107
118
120
120
59
63
69
153
153
150
117
120
125
60
62
65
177
176
169
88
86
89
89
95
100
114
123
136
41
65
90
92
102
106
150
155
159
121
127
131
131
145
156
128
146
156
85
104
120
81
91
104
209
211
204
150
154
152
146
154
152
134
146
148
87
98
109
73
92
116
112
129
150
46
83
130
59
99
157
89
135
189
207
229
241
227
246
248
113
169
202
76
121
164
68
110
156
113
137
160
114
131
148
96
110
132
127
142
161
110
127
147
75
89
111
28
46
89
53
70
108
68
88
117
60
79
106
103
109
125
108
110
120
131
133
137
117
120
124
115
117
119
104
107
108
108
109
110
102
103
111
83
83
89
103
100
98
83
83
70
74
74
65
65
65
55
77
77
68
66
64
54
62
59
49
102
100
88
134
131
114
151
148
125
191
185
164
152
148
133
199
195
176
186
182
164
172
169
151
190
186
164
141
137
123
96
97
89
213
212
201
142
137
124
78
72
59
137
132
123
224
223
215
213
212
193
207
205
186
203
204
183
104
104
93
83
76
67
170
162
145
129
121
105
126
119
106
175
169
161
194
189
173
226
221
203
115
111
102
65
57
48
101
94
82
101
94
85
99
91
79
167
159
138
191
183
158
209
206
190
211
207
197
72
66
62
73
65
59
109
102
89
119
112
99
158
152
130
157
149
127
165
155
136
126
116
104
142
131
116
190
179
154
175
163
141
66
59
44
144
140
130
130
126
120
76
72
61
145
141
123
175
173
157
186
185
166
202
200
179
214
210
183
211
205
182
58
54
51
84
85
77
105
103
96
57
53
48
120
114
106
133
127
116
134
133
119
218
217
202
216
215
198
229
228
207
179
176
162
139
136
125
198
202
194
218
223
212
219
222
205
217
217
199
214
215
196
215
213
195
205
203
186
202
200
185
205
204
186
201
200
180
197
195
175
189
186
166
182
180
160
136
133
121
113
109
101
130
123
109
101
100
89
186
181
159
125
120
105
32
28
25
34
30
28
41
37
33
53
48
42
79
70
63
91
80
72
100
90
80
113
102
93
111
105
94
141
135
123
135
129
116
160
153
138
127
120
109
116
109
99
131
123
113
124
117
106
130
120
108
137
127
116
130
121
110
106
100
89
103
98
86
117
113
100
115
108
95
107
100
91
112
106
97
126
124
112
176
169
154
149
145
132
101
99
91
170
165
146
138
132
123
84
82
77
107
105
98
112
108
102
156
153
140
161
160
142
161
160
142
161
159
142
164
160
143
164
160
143
164
160
143
162
158
141
160
158
138
153
147
129
156
149
133
149
143
127
140
136
119
137
133
116
136
132
117
142
138
123
142
138
123
145
141
127
150
147
134
151
149
136
150
147
134
151
149
137
111
111
101
141
138
123
110
108
97
111
109
103
114
111
107
123
125
119
135
136
129
137
138
128
138
138
127
141
141
130
139
139
127
138
138
127
134
136
125
126
128
116
131
129
118
139
136
122
120
117
107
130
127
117
135
135
120
131
131
118
134
131
121
147
146
135
147
144
134
144
141
131
136
136
125
113
112
101
120
117
107
105
102
96
99
95
90
88
88
82
78
84
79
102
105
102
101
103
100
112
115
111
111
116
114
113
118
116
118
122
118
111
114
110
108
110
105
106
108
103
100
105
98
93
101
95
90
97
94
90
97
95
92
99
98
114
115
111
176
168
156
157
153
144
184
186
173
167
168
156
138
141
136
144
146
142
61
67
79
115
119
119
131
134
134
63
67
74
151
152
149
115
119
125
55
56
63
130
131
131
82
85
88
89
99
103
111
122
134
40
66
89
92
104
109
152
159
164
118
127
132
132
148
161
128
147
160
84
104
122
75
87
101
212
214
207
159
163
161
146
155
153
137
149
151
84
96
111
86
102
126
116
131
153
48
84
133
60
100
157
96
140
192
205
230
242
228
246
249
116
175
205
75
124
166
67
112
157
123
144
166
112
130
151
107
122
141
140
156
169
119
139
156
79
94
117
28
46
88
55
73
108
70
93
120
60
82
109
101
110
127
102
106
118
161
166
170
117
121
124
111
115
118
114
117
117
114
117
117
105
109
110
69
71
74
94
93
94
107
104
92
93
91
80
66
66
55
78
77
67
83
80
70
82
79
70
108
105
93
137
133
115
161
156
133
197
192
170
152
148
132
197
193
173
188
185
165
164
162
142
160
156
134
117
113
99
91
90
83
189
188
177
124
120
108
77
73
60
139
135
124
224
224
212
213
212
193
200
199
179
194
193
173
104
105
93
77
71
62
173
165
149
162
153
138
139
130
118
164
159
150
161
157
143
207
202
185
107
103
95
65
57
48
103
96
84
102
96
87
101
93
81
174
166
145
190
182
157
206
202
184
216
213
200
70
64
59
78
71
63
175
168
149
167
161
141
162
156
128
142
134
106
153
145
118
143
133
114
163
152
133
150
140
121
171
162
139
68
65
49
142
138
128
135
130
124
76
71
61
144
141
123
172
171
154
183
182
163
199
196
175
204
199
172
206
200
175
60
56
50
59
58
50
94
91
84
87
85
76
129
125
114
143
138
125
139
136
124
150
147
135
137
135
121
160
158
142
179
176
163
134
128
120
200
203
194
215
220
207
219
222
204
205
206
187
207
208
190
207
206
188
204
203
185
202
200
185
204
202
185
195
193
175
196
194
174
193
190
170
171
168
149
125
121
110
111
107
99
132
128
113
96
97
86
177
173
152
121
116
101
34
30
26
35
31
29
42
38
34
58
53
47
81
76
67
108
102
90
115
105
92
121
111
98
141
133
120
126
118
107
118
111
99
127
121
109
119
113
103
138
132
119
128
120
108
128
121
108
131
124
114
116
110
99
125
123
110
137
131
118
123
118
105
136
130
117
101
95
83
122
117
100
125
120
104
128
125
114
181
174
159
155
150
138
98
95
88
167
162
143
138
133
123
99
97
91
120
117
111
114
110
104
150
148
135
163
161
144
161
160
142
163
161
144
167
163
146
161
158
141
164
160
143
160
157
140
160
158
138
153
147
129
151
145
129
144
138
122
134
130
113
138
134
117
135
130
116
140
136
121
139
134
120
143
138
124
148
145
132
150
148
135
150
148
135
150
148
136
113
112
103
145
144
128
142
142
129
115
115
108
128
127
117
138
139
129
137
139
129
138
140
128
140
140
129
139
139
128
139
138
127
138
138
126
134
136
124
127
128
117
117
114
100
128
126
114
116
113
103
137
134
125
129
128
118
119
118
109
128
128
117
130
130
119
135
132
122
129
126
116
126
126
114
116
115
105
111
107
100
116
113
104
117
113
106
72
72
66
63
60
55
60
58
54
53
52
49
53
52
49
53
52
50
52
51
49
52
53
49
51
52
47
53
53
48
53
52
48
53
53
49
52
51
48
51
50
44
70
69
64
68
66
62
110
106
99
181
171
159
150
146
138
185
188
174
161
164
151
137
139
134
137
138
135
59
62
72
119
119
119
128
129
129
67
72
79
147
151
148
107
114
122
54
56
60
135
137
141
84
86
94
86
97
97
112
126
134
40
69
89
92
104
110
154
161
167
120
129
135
130
146
159
125
144
158
82
103
122
72
84
99
209
211
204
152
156
154
144
153
151
127
139
141
89
100
115
92
108
129
119
136
154
47
86
136
58
101
159
96
141
194
207
232
243
233
248
251
121
178
209
82
128
170
70
112
159
129
147
171
120
141
161
111
127
146
141
158
170
122
143
159
83
98
121
29
47
89
60
79
112
70
91
119
59
81
108
97
110
125
101
109
119
164
170
173
114
120
124
108
110
115
106
108
116
96
102
103
99
105
105
64
67
70
84
84
86
105
103
90
111
108
96
95
93
81
95
95
83
100
97
87
95
90
79
148
145
129
181
178
154
203
200
174
190
187
166
148
144
132
195
194
173
183
182
161
176
175
153
199
194
170
141
138
124
88
88
81
193
192
177
134
129
113
79
72
60
143
138
125
217
219
199
185
184
160
182
180
158
182
181
160
121
120
110
70
68
56
103
97
84
152
142
130
138
129
117
158
155
144
161
157
148
199
193
177
108
103
94
61
53
45
98
91
80
98
92
83
99
94
81
177
168
149
189
182
158
201
198
181
214
211
199
68
62
56
79
74
64
185
175
158
133
128
110
136
133
117
135
130
105
151
146
127
107
101
90
114
105
88
191
181
159
169
162
141
66
63
48
140
138
127
131
128
124
75
70
61
138
137
120
172
171
150
184
183
163
197
194
173
202
197
170
210
205
177
62
59
52
66
63
57
88
86
80
84
83
74
108
103
92
115
110
98
140
136
122
196
193
174
207
206
183
194
192
174
175
170
158
130
125
116
201
205
192
222
225
207
221
223
205
209
209
193
211
211
195
205
206
188
207
207
189
203
201
186
201
200
182
194
193
172
193
192
172
190
186
165
174
173
151
119
117
106
97
94
87
104
99
87
106
107
96
172
168
154
117
111
97
31
28
26
34
33
28
41
36
32
55
48
40
73
65
57
90
83
69
97
91
77
94
87
75
96
88
75
115
106
95
108
97
87
115
105
92
108
100
90
112
104
94
114
106
94
92
83
72
99
91
80
99
91
80
90
83
72
122
114
103
104
95
84
99
90
79
80
73
65
117
109
96
89
81
69
127
124
113
175
168
153
154
149
137
101
96
90
169
162
145
139
135
124
113
109
102
132
128
122
120
116
110
152
149
138
166
164
149
162
160
145
159
157
142
163
160
144
161
159
141
165
161
144
158
154
137
161
157
142
153
149
131
147
141
123
139
135
119
119
114
104
120
115
102
132
128
113
139
135
120
140
136
121
143
139
124
149
145
132
149
144
132
147
145
130
147
145
130
117
116
109
138
138
124
141
141
127
138
138
125
140
140
127
140
141
127
141
140
129
141
141
130
142
142
131
139
139
128
140
140
129
139
138
127
135
135
123
130
130
118
124
121
108
129
126
114
116
113
102
133
130
119
129
128
118
130
129
119
139
136
127
133
130
121
128
127
116
126
125
114
127
126
118
123
122
113
116
115
106
118
117
107
110
109
99
82
81
75
76
76
72
95
95
90
86
87
84
88
89
86
83
84
81
80
81
78
84
88
82
79
83
77
79
83
75
70
74
66
60
64
57
57
60
54
61
62
56
75
75
71
85
86
81
112
111
105
177
170
157
145
141
137
184
186
172
152
157
142
137
137
133
138
139
135
59
63
72
99
100
103
119
119
125
67
74
81
151
154
150
108
118
127
53
56
61
140
143
148
87
89
101
89
99
101
121
133
143
42
74
94
92
104
111
153
163
168
125
133
139
137
152
165
126
147
162
81
102
124
72
83
100
205
207
202
146
152
152
142
152
151
142
153
155
89
101
113
87
106
127
119
138
155
47
87
135
58
101
155
93
142
194
208
233
242
237
248
253
125
180
212
86
131
173
73
113
159
115
139
166
121
142
162
115
134
150
137
153
167
118
139
157
80
98
120
29
48
88
50
67
98
68
84
113
62
79
104
94
107
124
103
111
122
169
171
174
123
128
133
118
124
128
108
114
117
103
110
113
105
112
115
63
66
71
84
87
89
112
107
95
112
108
96
91
90
77
107
107
94
121
119
106
132
128
115
165
161
144
187
183
161
181
179
153
184
181
160
146
141
129
190
188
168
168
167
146
181
180
156
188
182
158
137
134
122
96
94
89
149
148
133
112
107
91
78
72
61
145
145
129
202
201
177
181
176
150
167
162
143
180
177
159
119
117
107
76
75
63
133
127
113
153
143
128
121
112
99
162
161
145
176
174
159
207
201
184
107
101
92
57
49
41
94
88
76
92
86
77
98
94
80
179
171
152
187
179
156
202
195
180
223
215
203
64
58
52
79
75
64
190
181
159
134
129
113
141
140
125
158
154
126
141
134
122
106
99
95
104
99
87
213
208
189
177
172
151
66
63
48
147
145
134
132
130
125
73
68
60
134
134
117
168
167
146
173
172
152
190
188
166
199
194
167
208
203
176
74
71
63
73
69
63
111
109
103
49
46
41
148
144
126
132
127
114
148
141
131
132
127
116
119
117
105
184
181
165
176
171
160
130
124
115
203
206
192
222
225
207
216
219
200
212
213
197
213
213
197
206
207
188
194
194
176
206
204
187
196
195
175
185
184
164
191
190
170
182
178
159
149
148
128
113
111
101
100
98
90
110
104
92
100
100
90
168
164
150
118
111
97
32
30
28
35
33
29
44
39
35
54
46
38
74
64
57
79
71
58
114
105
92
111
102
90
99
89
78
96
85
74
115
104
93
121
111
98
105
98
86
97
89
78
108
100
87
94
85
73
95
87
76
106
97
86
101
91
81
95
86
77
105
95
84
113
103
93
85
78
69
105
97
85
99
91
81
139
135
125
185
180
165
159
153
141
98
94
85
172
167
146
134
131
119
109
105
97
129
125
118
126
123
116
147
145
133
164
162
147
163
161
146
160
158
143
164
161
146
159
157
139
159
155
139
161
157
141
158
154
139
152
148
130
137
134
116
110
104
94
122
112
101
100
91
84
134
128
115
132
128
113
135
130
116
140
136
121
145
140
128
146
141
128
146
144
129
141
139
125
106
105
98
143
143
129
145
145
132
146
146
132
141
141
127
139
139
125
141
140
129
142
141
130
141
141
130
143
142
131
143
142
131
140
139
128
132
131
120
130
130
118
125
123
110
123
120
108
114
111
101
130
127
117
129
128
117
133
132
121
129
126
118
129
126
118
129
129
117
128
127
116
126
125
116
117
116
108
104
103
95
112
112
102
118
117
106
84
82
77
87
88
84
108
109
105
114
115
108
112
113
106
107
109
101
107
108
101
102
101
96
101
100
95
99
101
97
91
94
89
87
92
86
87
92
86
86
89
83
87
89
85
87
89
85
118
118
113
176
168
156
141
140
134
178
178
168
152
156
146
131
134
129
135
139
135
59
64
73
122
124
126
132
131
130
61
68
74
147
150
145
115
126
133
57
61
65
155
158
163
88
91
103
87
98
100
118
133
143
44
74
94
92
106
111
153
165
170
123
133
138
135
152
165
122
150
163
79
100
123
71
83
99
207
209
205
152
159
158
154
164
163
147
159
158
83
100
113
84
104
123
119
137
157
50
90
136
60
102
153
92
141
193
208
232
242
237
249
253
126
180
212
86
132
173
74
115
160
110
138
165
120
145
164
111
131
146
127
142
157
119
141
158
83
102
124
32
52
89
70
85
111
108
122
141
120
133
147
113
125
136
99
108
115
162
164
166
110
115
120
108
114
118
101
108
110
90
100
106
92
103
109
54
60
65
78
84
85
119
116
104
129
126
114
102
100
87
141
139
126
153
151
138
136
134
120
165
163
145
144
141
120
130
127
108
149
146
127
143
139
126
176
173
155
180
176
156
188
186
162
200
193
171
149
147
134
109
106
98
153
151
139
101
96
82
74
71
61
153
151
136
207
205
181
198
196
173
198
195
174
207
204
181
115
112
98
71
71
60
143
137
121
172
165
146
102
94
81
171
168
155
187
185
168
207
200
184
104
97
89
55
47
39
85
78
67
82
74
66
87
81
69
132
125
112
136
131
115
202
194
181
227
220
207
63
59
52
80
77
66
191
180
160
138
132
117
115
111
103
139
133
114
148
141
131
105
100
96
99
96
82
204
200
181
165
160
140
65
63
48
147
144
134
132
129
122
61
58
49
110
108
92
119
115
100
130
127
109
190
187
160
208
201
172
215
208
181
76
71
64
71
68
61
102
99
93
53
50
44
121
117
107
126
122
109
147
144
130
185
183
162
201
201
183
196
197
178
174
170
157
128
122
113
189
192
178
196
197
181
194
196
180
188
190
176
202
204
187
205
204
186
190
188
170
188
184
165
181
177
158
181
177
158
179
175
156
174
170
151
155
152
133
125
122
112
106
101
94
113
108
97
110
107
98
171
163
143
123
115
101
34
29
29
37
34
30
43
38
33
56
47
41
87
78
70
102
94
81
101
94
81
117
109
97
125
117
104
125
116
103
122
113
100
138
130
115
132
124
111
129
121
108
134
126
112
129
121
109
125
116
105
134
125
113
141
133
121
118
110
99
120
110
102
121
110
104
112
105
94
129
122
106
122
113
104
137
133
125
175
170
153
156
152
139
96
91
81
150
145
126
136
132
120
108
104
94
134
129
121
121
118
109
140
138
127
164
164
148
165
163
148
160
158
143
164
162
145
158
157
139
158
156
139
148
146
133
126
122
110
119
112
96
109
106
91
115
108
96
151
143
128
114
108
97
133
128
114
134
130
115
137
132
119
140
135
123
145
140
127
143
139
125
142
139
125
138
135
122
102
100
93
135
132
120
147
147
133
147
147
134
144
144
132
144
144
132
142
141
130
141
140
129
140
139
128
141
141
130
141
143
131
138
139
127
133
133
121
134
133
122
123
123
111
121
120
108
114
113
103
132
131
121
126
125
116
126
125
116
126
126
115
125
125
114
124
123
114
120
119
110
114
111
102
115
112
103
107
107
96
114
113
102
114
114
104
85
84
80
78
76
74
78
77
73
65
64
61
62
61
58
66
64
62
66
63
61
64
61
59
69
66
64
62
59
58
55
53
51
52
54
51
52
53
50
55
55
51
62
62
57
71
70
65
110
109
103
177
168
157
146
145
139
192
190
179
154
157
148
131
133
128
138
140
136
56
61
69
122
122
124
144
141
138
58
65
71
152
154
148
118
128
134
58
61
68
149
154
158
87
93
108
97
103
106
119
133
141
47
73
94
94
107
115
155
164
169
118
129
138
131
150
166
112
139
157
75
92
117
70
80
98
210
212
209
154
163
160
154
163
161
145
156
157
82
95
116
91
107
126
129
146
165
52
89
139
62
101
155
91
139
191
208
231
242
235
248
251
123
178
211
83
129
173
74
113
160
110
137
166
119
142
164
111
129
148
135
150
162
133
150
165
79
100
119
31
55
94
42
65
100
54
75
100
65
84
104
97
104
112
98
110
117
167
170
169
115
122
123
108
115
118
108
117
123
103
114
121
84
97
109
47
54
63
66
72
76
117
115
102
115
113
100
110
108
96
103
101
89
129
127
113
122
120
104
144
143
124
111
110
90
133
131
113
136
134
116
140
137
124
194
191
173
199
197
176
191
188
163
202
196
170
147
145
129
81
82
79
213
213
205
162
154
140
69
62
51
158
156
141
221
219
195
208
208
185
208
205
183
202
200
177
117
114
100
78
77
67
133
130
111
162
156
135
96
89
76
163
159
144
184
182
169
206
199
183
103
97
88
62
55
46
89
82
70
83
75
67
82
76
63
128
122
109
154
149
132
206
199
185
221
215
201
64
60
53
76
74
64
187
176
157
138
132
117
120
116
108
147
141
123
150
143
133
105
99
95
97
93
79
206
202
183
172
167
148
67
65
49
142
140
130
131
129
122
54
51
42
93
90
74
126
122
105
138
135
115
204
200
172
205
199
170
210
202
176
76
71
63
78
75
68
96
93
87
49
45
40
113
110
99
130
126
113
153
151
136
192
191
172
206
209
184
201
201
182
178
174
160
130
123
114
192
195
182
209
206
191
206
204
188
199
201
186
205
207
189
206
205
187
191
189
171
193
189
170
193
189
170
187
183
164
190
186
167
187
183
166
169
165
150
121
118
110
105
101
95
111
107
94
82
79
71
169
160
140
123
115
101
37
32
32
39
35
31
47
42
37
53
44
38
72
63
55
101
93
79
131
122
106
110
101
86
130
121
105
128
120
105
142
133
118
126
117
102
140
131
117
142
133
119
126
118
103
133
125
110
157
148
133
133
125
108
138
130
115
137
130
116
138
129
116
140
131
120
115
109
97
128
121
107
128
120
106
131
127
115
177
173
157
150
145
134
97
92
85
117
113
103
130
126
119
115
110
102
128
124
114
123
120
110
132
129
118
155
154
139
167
165
151
162
160
144
159
158
140
163
161
143
159
157
140
142
138
126
112
103
93
114
100
85
113
100
84
117
110
96
113
110
97
137
134
119
113
110
96
107
103
90
127
122
110
112
107
96
115
111
102
118
113
104
103
100
91
90
87
79
94
91
84
128
125
114
147
146
133
147
147
133
144
144
133
145
144
133
142
142
130
142
142
131
141
141
130
141
141
130
137
139
127
136
138
126
135
135
124
131
131
119
130
130
118
127
127
115
105
104
94
93
92
83
129
128
119
126
125
116
128
128
117
127
126
115
121
120
111
112
111
103
114
111
101
117
115
105
116
116
105
113
112
101
111
111
101
88
87
83
71
70
69
96
95
91
85
84
80
84
82
80
84
84
81
83
84
80
85
86
83
83
84
81
83
85
82
71
73
70
78
80
77
87
88
85
75
75
71
90
90
85
96
95
90
113
110
104
178
169
158
141
141
134
190
188
177
159
161
152
128
129
125
133
135
131
53
58
63
125
127
125
133
133
128
57
68
74
146
150
143
120
128
133
57
61
67
154
159
156
92
98
111
101
107
108
130
140
146
53
73
98
91
104
112
153
162
168
117
129
137
135
153
169
130
148
165
78
98
122
71
81
99
206
208
206
150
158
158
129
136
139
140
150
156
81
94
113
88
103
122
122
139
158
55
92
139
62
102
154
87
137
189
206
232
243
235
248
251
122
176
209
81
127
172
73
113
160
110
137
166
115
138
160
110
127
146
125
146
162
117
140
158
73
95
117
29
53
92
41
63
100
48
68
100
59
79
100
95
102
112
103
115
122
166
170
168
111
118
119
114
122
124
113
123
128
102
115
121
95
103
115
53
61
70
81
94
102
116
114
101
128
127
113
113
114
101
106
106
92
131
131
115
118
116
102
134
132
115
90
88
75
125
124
110
158
157
140
143
142
128
172
171
155
184
184
167
165
164
147
165
159
140
136
134
120
85
89
84
216
214
206
164
159
145
77
69
59
157
155
139
221
220
198
210
209
187
206
206
183
198
198
176
116
114
99
79
74
64
146
143
126
176
170
152
95
90
81
160
153
142
185
181
168
204
197
184
101
93
87
66
58
50
94
88
77
79
72
65
90
85
72
148
139
127
168
159
143
213
208
191
214
208
192
64
59
52
76
74
63
190
181
162
136
134
118
120
118
107
153
146
129
145
136
123
102
96
90
95
89
74
206
200
179
175
167
151
67
64
52
139
137
126
140
138
129
57
54
45
117
114
98
178
173
150
184
179
154
207
205
177
207
201
176
208
200
177
71
66
57
78
74
69
97
93
88
47
44
40
111
106
97
139
132
120
154
153
138
194
194
176
199
201
181
195
196
177
181
176
163
132
124
115
194
196
182
209
209
192
213
213
195
201
201
188
211
212
195
211
212
193
205
206
187
195
191
174
189
185
168
176
172
154
185
180
161
186
180
162
167
165
150
110
109
102
98
96
90
111
107
97
82
78
68
183
172
153
130
121
107
37
32
32
42
37
34
42
36
32
45
38
31
58
49
38
88
78
65
99
89
75
110
100
84
109
99
84
109
100
84
102
92
76
128
116
99
102
94
79
116
107
93
122
113
100
110
101
87
111
103
87
117
109
92
122
114
96
106
98
83
91
85
69
105
101
83
94
87
78
114
107
92
135
127
112
138
135
122
162
158
143
130
125
115
95
89
82
103
98
91
146
142
133
132
127
118
143
142
131
127
125
115
116
113
104
144
143
131
158
158
144
158
159
140
162
161
143
157
155
138
146
145
130
147
142
126
112
100
87
94
87
71
115
102
85
107
95
84
140
135
122
142
142
126
136
135
119
147
144
129
147
145
130
143
141
127
143
141
128
141
138
126
138
135
123
137
135
123
138
137
124
138
137
124
142
140
127
145
143
130
145
145
131
144
144
130
143
142
131
142
142
130
140
139
128
139
139
127
139
139
125
139
139
126
136
136
125
132
132
120
132
131
120
124
123
112
74
71
64
75
73
66
125
125
113
131
130
119
127
126
117
124
123
114
125
124
115
114
113
104
117
116
107
117
116
107
117
116
107
116
115
106
115
112
101
84
83
77
82
83
82
102
105
100
100
102
95
98
100
94
91
93
91
88
90
87
91
93
87
88
90
85
82
84
80
79
81
73
75
77
69
74
75
70
75
75
70
79
78
73
82
82
76
112
110
105
176
169
156
146
143
137
192
191
178
154
157
144
132
134
130
138
141
137
51
54
60
115
115
113
135
136
132
49
62
68
111
116
120
94
100
111
51
57
63
130
140
144
89
94
108
89
93
99
120
130
137
47
67
92
87
101
111
150
161
166
113
123
134
133
153
168
119
142
161
79
99
121
70
81
98
204
205
205
156
163
161
148
157
159
135
146
153
79
91
110
84
102
125
121
139
156
56
92
138
64
102
153
85
136
188
202
231
244
236
248
251
127
175
206
80
127
169
70
112
159
111
138
166
118
140
160
105
125
144
123
143
162
117
140
162
77
95
120
30
54
91
41
64
102
51
74
104
64
81
102
92
101
112
93
101
110
173
174
172
109
118
122
111
119
124
113
123
122
104
112
116
91
105
116
53
59
66
81
93
102
116
113
101
117
116
104
105
104
92
91
91
79
92
92
80
115
113
99
122
122
104
95
94
81
75
74
65
168
168
145
137
137
118
155
154
140
125
125
118
136
131
123
169
164
149
133
131
120
91
95
90
218
216
208
156
151
137
81
74
62
154
153
137
222
221
199
208
207
184
205
204
181
204
204
182
118
116
101
77
71
61
141
139
121
171
166
146
97
91
83
154
147
136
189
186
172
208
201
185
103
96
87
67
59
50
84
78
66
68
61
53
97
93
80
155
146
134
178
169
153
210
205
187
213
207
191
62
58
51
80
77
65
192
183
164
139
137
121
122
120
110
154
147
130
144
135
122
108
101
97
94
88
73
205
200
179
175
166
154
58
54
46
133
131
120
139
136
128
59
56
47
127
123
107
184
179
156
199
195
169
215
213
186
205
199
175
208
199
176
70
64
56
75
72
66
98
94
92
50
46
43
117
113
104
135
130
117
160
161
146
193
194
175
197
198
180
204
204
186
181
176
163
129
121
112
196
197
184
214
215
197
216
217
198
209
209
195
209
209
192
208
209
190
210
208
190
191
187
171
190
186
169
191
188
169
177
172
154
182
176
160
155
152
138
100
99
93
96
93
88
112
108
99
88
86
75
181
170
150
132
123
109
36
31
31
39
35
31
45
39
34
47
42
34
77
68
58
89
79
67
106
94
83
90
79
64
100
90
77
114
104
90
108
97
80
139
126
109
110
101
87
122
113
99
130
122
107
108
100
83
111
102
87
111
103
86
114
106
89
114
107
93
108
102
88
108
104
88
99
92
83
123
116
101
143
136
121
129
126
114
179
175
159
126
121
112
95
89
84
138
132
124
118
113
107
127
122
114
146
144
133
127
126
116
131
127
118
142
139
128
157
156
144
162
162
146
153
152
135
159
157
140
133
135
121
122
119
107
127
116
101
125
118
105
152
141
125
97
87
77
156
151
140
139
139
123
152
151
136
156
153
138
146
144
129
146
144
129
144
141
129
139
137
124
139
137
124
141
138
126
139
139
125
139
139
126
139
137
124
144
142
129
144
144
131
144
144
130
143
143
131
143
142
131
140
139
128
138
137
126
137
137
123
137
136
123
133
133
123
133
133
121
134
134
122
112
112
102
109
107
106
107
107
104
126
126
115
127
127
115
125
124
115
121
120
111
123
122
113
119
118
109
124
123
115
118
117
108
118
117
108
120
119
110
118
116
105
83
82
76
48
50
49
73
75
71
80
81
76
78
79
73
78
77
74
74
73
70
71
72
68
57
57
54
51
51
48
50
51
44
50
50
45
55
55
51
55
55
51
60
59
55
70
68
63
113
110
105
180
173
161
149
145
141
187
186
172
155
159
145
127
132
126
133
139
135
53
56
62
113
114
111
133
134
131
56
69
74
108
113
117
107
112
124
58
64
73
124
131
140
82
89
106
81
89
97
98
112
119
46
69
93
83
98
108
154
165
170
110
120
131
132
152
168
121
144
164
80
100
122
73
85
98
204
206
203
155
161
159
145
156
157
130
146
152
79
92
110
76
96
117
129
146
164
55
90
136
65
102
154
85
135
187
200
229
243
234
246
250
129
175
204
79
127
169
70
112
159
111
138
166
120
143
162
107
130
148
120
143
160
117
140
159
71
89
117
27
51
92
41
65
99
51
74
105
62
79
100
90
99
111
96
104
113
168
168
166
108
118
121
106
114
121
110
119
125
98
107
114
92
103
117
45
51
58
75
88
96
99
97
87
87
85
75
89
88
77
70
68
58
91
86
78
123
119
113
129
125
115
122
118
104
129
125
109
163
159
142
128
128
110
175
173
161
97
96
94
162
163
157
139
137
122
120
120
106
87
91
86
212
210
202
157
154
139
86
79
67
151
152
134
220
222
200
212
210
190
206
205
183
209
207
186
125
121
109
71
66
59
132
128
112
164
159
140
100
92
84
148
141
130
191
187
173
200
193
177
102
94
85
69
60
48
86
80
67
66
58
51
103
96
85
161
152
138
178
169
151
212
205
186
210
203
185
63
57
50
78
76
64
193
183
165
138
135
120
126
120
113
157
147
134
152
140
128
115
107
102
91
84
74
204
198
179
175
167
152
52
51
40
132
129
116
141
136
126
62
58
51
124
120
106
179
174
151
192
187
160
215
211
182
207
200
174
207
198
176
70
65
57
86
82
76
100
95
93
48
45
42
109
106
98
145
141
128
163
162
148
216
215
195
208
207
187
202
202
183
176
171
158
135
127
118
198
199
186
212
213
195
213
213
195
203
203
187
204
202
184
205
203
186
207
205
188
194
190
173
195
191
174
190
186
167
176
172
154
159
155
140
145
141
128
108
105
98
99
94
89
115
111
101
83
82
76
178
171
148
131
122
106
38
33
31
37
33
29
41
35
29
43
37
29
57
50
40
74
67
54
101
93
80
100
90
76
97
88
74
102
93
78
110
101
84
128
117
100
113
105
90
129
120
105
112
104
89
109
101
87
119
109
93
110
102
85
106
99
85
108
101
88
108
100
87
95
87
74
102
94
82
115
108
96
127
122
108
139
137
122
179
175
156
119
115
105
102
98
92
171
165
150
138
132
123
143
137
125
152
150
140
142
141
132
137
133
123
121
117
106
104
103
92
127
125
112
134
134
121
132
132
120
111
112
102
120
120
107
79
72
62
129
120
108
93
82
67
121
117
111
116
113
104
147
146
129
155
153
138
148
146
131
146
143
131
145
143
130
144
142
129
144
142
129
138
138
124
138
138
124
139
137
124
139
136
123
143
142
129
139
139
125
146
145
134
141
141
129
141
141
127
142
142
129
139
139
128
137
136
125
135
137
125
133
134
122
136
135
124
135
134
123
132
132
119
118
118
105
74
73
70
122
122
115
126
127
118
125
126
117
122
121
113
116
115
106
115
114
105
119
118
109
116
115
107
114
113
105
113
113
104
117
117
108
114
113
105
80
79
75
82
82
80
95
95
93
89
90
87
89
90
86
91
92
87
92
93
88
93
94
88
90
90
85
89
89
86
78
78
75
69
72
69
67
69
67
66
67
66
93
94
90
93
92
85
118
117
109
180
174
161
155
151
147
190
188
177
160
163
152
128
132
127
133
138
134
52
55
64
121
120
119
136
135
131
54
66
72
154
159
159
122
129
136
55
62
70
137
142
149
84
90
106
89
99
107
113
127
138
45
67
92
77
91
104
165
174
178
109
120
130
136
154
171
121
144
164
76
96
120
67
79
92
203
204
200
155
163
163
150
162
162
140
154
160
81
93
112
80
97
121
128
147
164
59
90
133
67
102
154
90
135
186
201
226
243
233
245
249
129
172
202
83
125
169
72
112
160
111
137
166
117
144
163
108
132
149
118
143
159
119
143
159
67
86
116
26
49
94
41
64
102
53
75
107
61
79
101
86
98
108
97
105
106
164
164
163
117
124
125
111
120
124
104
113
118
105
115
119
87
101
112
41
49
56
66
79
89
114
112
97
108
105
92
124
122
109
113
111
100
132
128
116
145
142
130
125
122
109
102
99
84
121
117
99
134
129
115
126
124
112
133
131
115
112
113
102
104
105
98
119
117
110
98
97
92
77
81
76
201
199
191
131
127
112
81
75
62
148
149
131
220
222
200
213
212
192
209
208
185
207
204
183
141
137
125
69
65
58
141
137
122
174
168
149
99
92
83
152
148
135
207
202
188
192
186
171
99
93
83
132
120
105
84
76
64
64
58
52
100
96
85
156
148
133
176
167
149
206
199
179
210
200
184
65
58
53
76
74
61
196
187
168
134
131
116
126
120
114
150
141
128
150
138
126
112
104
99
89
83
73
203
197
178
175
167
152
56
55
44
121
118
105
141
137
126
57
54
48
124
120
106
175
169
147
183
179
152
204
200
171
205
198
172
206
198
175
68
63
55
88
84
78
102
98
96
42
38
36
115
112
103
138
135
122
165
164
150
207
206
186
209
208
188
202
203
184
175
169
156
130
122
113
202
202
190
210
211
193
216
216
198
213
213
196
211
210
191
187
185
168
202
198
182
196
192
175
189
185
168
171
168
149
183
179
160
174
170
151
168
164
146
122
119
112
103
100
94
113
108
99
81
81
75
176
170
147
130
120
105
36
32
29
40
37
32
68
63
54
94
90
78
113
111
95
149
147
129
173
170
153
180
176
159
184
180
164
189
185
169
187
185
166
189
185
167
186
183
165
181
178
161
179
177
160
179
177
161
186
181
167
189
183
170
186
182
165
177
173
156
181
179
160
180
177
160
169
164
148
168
163
149
158
155
140
141
137
122
151
147
127
100
96
86
93
89
84
150
144
128
135
128
119
140
134
121
152
150
138
142
141
128
154
151
142
105
101
93
138
137
124
158
156
141
165
165
150
165
166
150
161
162
149
124
124
114
122
122
111
142
141
131
157
155
144
144
141
130
141
139
128
152
150
134
153
151
136
150
148
133
148
145
133
144
142
129
146
144
131
139
137
124
137
137
124
140
140
127
142
139
127
134
132
119
139
139
125
137
137
124
141
141
130
140
140
128
138
138
124
140
140
126
138
137
126
134
134
123
133
135
123
132
134
121
132
132
121
127
127
115
125
125
111
122
121
108
91
90
86
126
125
118
126
128
118
123
124
115
123
122
113
118
117
109
116
115
107
118
117
108
118
117
108
117
116
107
110
109
100
114
113
104
114
113
106
83
81
78
89
90
84
89
90
85
87
88
84
89
90
86
85
85
81
81
81
77
78
79
73
76
76
71
76
76
71
79
79
74
78
79
73
80
82
76
83
85
81
103
104
95
93
92
86
124
121
114
179
172
160
155
151
146
191
189
178
159
162
150
128
132
127
134
138
135
52
55
65
116
116
114
138
139
134
52
61
68
157
161
160
122
130
137
56
64
71
143
148
155
85
90
112
93
103
110
105
120
131
42
63
88
74
87
101
169
178
181
107
117
128
130
148
165
119
142
162
75
95
119
62
75
87
202
204
200
153
161
165
138
150
154
134
149
155
82
94
113
78
98
121
124
140
157
61
92
133
68
104
152
87
135
185
199
225
242
232
247
249
124
171
200
76
123
166
68
110
157
109
135
162
115
142
163
105
130
147
117
142
158
130
152
169
66
87
117
26
48
98
42
64
105
55
77
109
59
77
100
89
100
111
105
112
113
154
154
153
111
119
120
111
119
123
105
114
118
100
112
115
96
108
118
53
58
65
74
80
83
157
154
136
148
145
133
134
134
124
121
119
110
116
113
100
131
126
111
133
127
113
109
104
89
118
112
92
143
139
123
145
137
125
116
106
93
125
127
110
118
115
99
131
122
110
100
95
87
75
79
77
154
153
142
110
107
90
78
73
61
138
137
124
220
218
200
212
211
191
204
204
180
207
206
183
139
136
121
64
59
54
138
133
120
175
170
152
94
88
78
155
152
139
209
203
190
199
194
178
98
94
85
103
93
76
87
77
66
61
55
52
102
98
88
159
150
131
179
169
150
197
189
167
206
196
181
69
62
57
79
77
64
195
186
169
134
130
118
120
116
107
142
137
122
150
144
131
112
107
101
84
82
70
201
195
175
172
164
151
55
54
45
122
119
105
146
142
131
57
54
47
124
120
106
166
161
136
190
185
159
116
110
94
194
185
165
206
197
176
71
65
59
93
90
80
104
103
99
41
39
35
115
114
105
140
137
125
161
159
147
212
211
191
210
209
189
198
199
180
177
170
158
120
111
101
187
187
173
203
201
186
209
207
192
199
198
179
186
184
167
159
157
141
179
177
160
181
178
159
159
155
137
160
156
139
176
172
155
178
174
157
175
172
155
121
119
112
99
97
91
115
110
102
82
79
71
178
170
152
130
121
109
35
31
28
41
37
32
66
61
53
91
86
74
117
114
95
143
139
118
172
167
149
181
176
157
185
180
164
188
184
167
190
186
169
190
186
169
185
182
165
185
182
165
186
182
166
188
184
167
187
182
168
181
176
162
171
169
153
183
181
163
184
183
165
187
187
167
152
150
134
149
144
130
147
142
128
123
119
105
131
126
114
99
95
89
94
90
82
158
151
134
131
125
115
141
136
125
144
142
129
142
141
127
153
153
140
146
141
127
164
162
148
172
170
157
166
166
151
164
165
149
149
149
139
159
159
148
127
127
114
135
135
124
119
118
111
146
146
135
156
154
140
152
150
135
149
147
134
150
148
135
147
145
134
148
146
132
146
146
132
141
141
128
136
136
123
140
140
126
138
138
124
136
136
122
135
134
121
140
140
126
139
139
125
140
140
127
136
136
125
135
134
123
136
135
124
133
133
122
131
130
121
131
131
118
127
127
113
129
129
115
132
132
120
120
120
109
100
101
93
126
128
119
126
128
118
124
126
116
125
124
116
122
121
112
119
118
109
114
113
104
110
109
102
110
109
102
108
107
101
111
110
103
111
113
103
74
75
71
51
51
50
51
51
50
53
52
52
55
55
55
50
50
49
54
53
52
48
48
46
46
46
44
43
42
41
45
43
42
46
45
44
46
45
43
53
53
51
67
66
63
72
72
70
119
115
108
187
181
169
156
153
146
195
195
183
154
159
147
130
132
128
134
139
138
49
54
61
115
116
115
138
136
133
52
59
67
154
157
154
122
130
135
53
62
69
144
152
158
89
93
113
94
106
111
104
123
134
40
63
91
71
84
97
163
170
174
106
116
128
132
152
170
116
138
158
76
95
119
67
79
92
204
205
201
147
154
160
130
141
146
135
147
155
81
93
114
80
101
122
122
138
154
62
91
132
67
104
150
92
135
187
199
224
243
231
246
249
123
170
200
73
123
165
66
110
154
114
140
165
111
137
159
104
125
145
116
139
160
120
144
165
58
83
112
25
48
97
40
63
103
53
78
107
56
75
97
88
98
110
99
105
113
152
152
150
100
106
109
109
115
118
94
100
103
80
88
92
115
122
127
81
83
87
84
87
87
119
119
106
129
129
120
91
91
85
89
88
80
112
112
96
94
90
77
131
118
97
132
119
97
103
101
83
171
166
148
134
132
118
113
110
97
104
109
91
110
110
94
122
119
106
94
95
87
80
84
81
204
203
191
155
151
135
80
75
63
136
135
127
212
210
196
205
204
184
208
208
184
209
207
184
130
127
112
61
58
53
132
128
115
166
159
144
83
77
67
147
144
133
203
197
183
200
195
177
98
96
83
73
64
48
121
110
88
46
43
37
99
93
83
140
127
107
151
138
117
185
175
154
213
202
188
75
68
63
79
77
64
200
190
174
139
136
123
116
112
103
144
140
125
149
143
130
110
105
98
83
82
69
199
193
172
172
164
150
54
53
44
129
126
113
158
153
143
59
55
49
119
116
102
127
122
104
146
142
116
186
178
153
172
164
143
204
196
171
71
66
56
101
97
88
108
108
102
42
40
37
119
118
109
147
143
134
163
161
149
209
207
187
201
202
181
192
191
172
180
177
163
117
109
98
184
184
167
200
199
179
200
198
177
182
180
158
194
192
173
184
180
162
180
176
158
178
175
155
171
167
147
161
156
140
156
151
136
158
152
138
146
143
128
113
111
104
97
95
88
120
114
106
85
82
74
172
165
147
128
119
107
34
29
26
41
38
33
61
55
48
82
78
66
106
102
83
130
126
105
167
161
142
176
170
152
175
171
155
178
174
157
184
180
164
182
178
161
185
180
164
171
167
150
171
167
151
176
172
156
169
165
150
161
157
140
164
160
142
162
158
142
150
145
129
148
144
124
143
139
124
111
107
93
84
80
65
117
111
97
156
152
135
114
110
99
101
98
89
188
181
163
148
140
130
143
138
128
161
158
146
146
143
131
159
158
146
169
165
151
164
161
148
173
171
158
172
172
157
166
166
151
152
152
138
165
166
150
160
160
145
150
150
136
112
111
104
142
142
128
153
151
136
152
150
135
151
149
136
153
151
138
149
147
136
141
139
125
146
146
132
141
141
128
135
134
121
135
134
121
138
137
124
134
134
120
139
139
126
132
132
118
139
139
125
140
140
126
137
136
125
137
136
125
136
136
124
135
134
123
133
132
121
130
129
118
126
126
112
133
132
119
132
132
120
126
125
114
101
102
93
122
124
115
127
129
119
125
127
117
120
119
110
115
114
106
113
112
104
111
110
101
107
106
100
106
105
99
109
108
101
111
110
104
110
111
102
79
80
76
82
83
82
90
91
90
90
90
88
89
89
87
87
89
85
83
85
81
86
86
83
87
87
84
84
85
81
78
80
76
81
82
80
75
76
73
79
82
77
84
86
81
83
85
82
129
126
120
182
176
164
147
144
138
183
184
173
151
155
143
131
132
128
131
136
135
50
55
62
120
121
121
139
136
133
54
62
69
153
156
153
123
130
135
52
61
68
146
155
160
95
99
113
98
109
114
108
122
134
40
67
95
70
83
94
166
173
173
106
116
128
134
153
172
124
147
165
78
97
123
71
83
96
207
208
204
155
163
166
116
126
133
138
151
156
78
91
109
79
99
120
120
136
152
58
87
128
64
101
147
90
133
184
199
223
242
234
247
250
121
169
199
70
120
162
64
108
152
115
141
165
113
139
161
107
127
147
114
137
157
109
138
157
60
81
111
26
48
97
42
64
104
56
81
110
56
76
98
88
99
112
101
106
115
169
169
167
114
121
124
113
119
121
118
124
126
110
118
121
116
123
127
72
73
78
84
86
88
112
113
104
102
103
95
106
107
99
119
119
111
99
99
88
125
123
112
94
89
72
103
97
83
120
119
103
169
165
146
139
136
124
180
178
159
139
139
119
153
151
132
155
147
130
107
103
91
91
94
91
217
216
206
156
152
136
83
78
66
133
134
126
212
211
198
208
207
187
212
211
188
214
210
187
132
127
113
57
55
51
131
126
113
171
164
150
75
68
58
148
146
136
211
207
194
207
200
185
82
75
65
67
60
49
103
97
81
33
30
25
88
83
70
146
135
115
156
145
121
188
181
160
213
207
191
79
72
66
79
74
63
200
189
171
132
129
116
115
110
99
149
144
130
143
137
124
113
107
101
83
80
69
198
192
171
169
161
146
48
46
40
133
128
117
158
152
141
57
54
47
134
131
118
166
162
148
111
105
91
187
180
156
185
177
153
208
200
174
73
69
56
78
76
69
112
112
107
42
41
37
111
110
102
142
138
130
159
156
144
205
202
181
201
202
179
190
190
171
182
177
165
115
105
95
118
112
98
119
115
98
149
145
127
153
148
127
121
116
95
129
124
105
165
162
143
158
153
133
146
140
121
150
144
126
145
138
122
161
155
139
152
149
134
118
117
106
100
96
88
123
117
105
73
71
65
170
164
148
126
118
107
32
30
27
45
44
39
77
74
65
111
108
94
143
140
119
160
157
134
178
174
155
186
182
163
181
178
159
188
184
165
191
186
170
187
182
166
190
185
171
177
173
159
174
170
153
184
180
163
179
175
158
185
181
164
181
177
159
183
177
160
181
175
155
172
166
146
179
175
158
138
134
118
119
115
96
114
110
95
108
104
91
106
101
89
97
93
83
115
109
95
118
109
100
130
125
116
139
136
122
154
151
137
158
157
147
174
173
158
177
175
161
177
175
162
176
174
160
167
164
152
147
147
136
160
160
145
163
161
146
165
163
148
131
130
119
142
141
129
153
151
135
149
147
132
144
144
129
150
150
134
142
142
126
137
137
121
142
142
128
137
137
124
137
135
122
135
133
120
135
132
119
134
132
119
138
138
125
139
139
125
133
133
119
136
136
123
136
136
123
135
135
121
138
138
126
136
136
124
134
134
120
133
133
119
133
130
119
135
133
122
135
135
122
127
127
115
104
103
95
122
122
114
131
131
122
131
130
121
125
124
115
121
121
112
108
109
99
109
111
101
107
106
100
108
106
100
110
111
104
111
112
105
112
110
106
82
81
77
93
93
91
118
118
116
112
111
105
113
113
106
113
117
109
105
109
101
108
112
106
111
114
107
103
105
99
111
112
107
113
114
109
101
105
101
108
108
108
93
92
90
97
97
95
120
118
113
181
176
165
151
150
144
172
173
163
146
149
139
130
132
127
132
138
136
54
56
66
121
121
121
138
137
135
55
64
72
149
151
150
123
128
136
52
61
68
143
150
156
97
103
116
93
102
109
118
132
141
39
69
98
64
77
92
171
178
176
109
121
131
131
151
168
120
143
164
75
94
120
71
80
96
203
205
202
148
155
157
142
151
155
135
146
151
73
87
104
78
97
120
115
132
150
57
84
126
62
96
145
87
131
185
196
222
243
236
249
252
120
168
196
71
117
161
64
104
152
115
138
162
120
142
162
114
131
152
127
149
163
122
146
161
70
90
117
26
48
95
45
64
104
61
82
115
56
74
102
93
102
115
107
112
115
164
163
161
116
122
125
113
119
121
109
116
119
98
105
107
99
107
113
56
58
64
74
75
77
115
116
107
102
104
93
159
162
148
171
173
159
152
154
140
137
138
128
105
105
94
126
124
112
146
148
130
181
177
158
152
150
138
183
182
164
170
168
149
165
163
144
172
165
147
137
133
122
90
94
90
208
206
196
142
138
121
86
82
69
136
136
129
212
211
198
208
207
187
206
205
181
208
202
180
137
132
117
60
57
53
128
123
110
169
162
148
77
71
62
159
157
149
204
202
188
203
196
181
72
65
56
58
54
44
80
76
66
36
34
29
80
75
63
136
128
113
160
153
132
196
191
175
214
205
193
83
75
69
79
75
64
193
183
164
126
121
108
121
115
105
146
141
127
128
121
108
111
105
98
86
84
72
199
192
172
170
163
147
51
49
42
126
124
113
157
154
143
53
49
42
82
79
65
133
130
114
165
161
142
215
213
192
195
191
170
196
189
164
77
72
59
123
120
118
101
99
96
43
42
39
109
108
100
134
131
124
149
147
135
205
201
180
197
198
175
186
187
168
181
176
165
108
97
88
125
118
102
121
115
99
121
116
99
165
157
138
151
142
123
174
170
151
187
182
165
178
173
157
139
136
119
144
142
124
171
168
151
177
172
155
165
164
149
125
123
113
102
97
89
122
116
103
79
77
70
169
163
148
125
117
107
29
27
25
44
42
38
65
62
53
95
93
78
120
116
100
153
149
131
180
176
157
193
189
170
190
186
167
197
193
174
186
182
165
190
186
169
193
189
171
183
179
162
176
172
155
180
176
160
171
167
150
114
110
95
153
146
131
143
136
121
161
155
140
154
148
134
145
141
125
118
114
100
100
95
82
91
86
76
85
81
65
135
131
113
115
112
98
78
72
62
105
95
87
103
99
90
149
145
131
150
148
134
161
159
149
173
174
159
175
172
158
176
174
161
172
170
157
163
161
149
148
148
137
164
165
150
162
160
144
163
161
146
141
139
129
147
146
134
151
149
134
149
147
132
153
153
137
147
147
131
145
145
129
145
145
130
145
145
132
133
133
120
137
135
122
134
131
119
134
131
119
134
131
119
135
135
122
139
139
126
136
136
122
136
136
122
137
137
123
139
139
125
138
137
126
138
138
126
135
135
122
132
132
119
129
127
116
133
131
120
134
134
119
130
130
115
100
99
90
135
134
125
134
133
124
128
127
118
126
125
117
119
118
109
115
116
107
115
116
107
113
112
105
107
105
99
109
110
103
108
110
103
112
110
106
78
76
73
51
51
49
57
58
55
60
58
56
58
56
53
63
61
60
67
65
63
75
73
70
71
70
66
74
73
70
70
71
67
54
59
56
62
63
63
82
82
82
88
89
85
81
81
78
116
116
112
184
178
167
149
148
144
175
176
167
149
151
142
133
135
130
130
135
134
55
57
67
120
121
120
140
138
137
52
62
69
150
152
150
126
131
138
55
60
68
150
153
160
106
108
122
74
87
94
100
116
128
39
73
97
59
73
87
169
175
176
110
122
132
130
150
166
120
144
160
75
95
116
69
78
92
199
201
198
151
158
157
146
156
156
139
150
154
70
84
100
76
94
118
118
135
152
55
83
122
62
96
148
86
130
185
195
221
242
236
248
252
120
168
197
72
118
162
63
104
151
110
136
160
116
141
161
103
124
143
107
130
151
109
134
155
66
89
117
23
48
98
40
61
103
59
79
112
53
72
99
91
101
114
103
108
112
162
161
158
105
112
115
112
117
120
100
107
109
90
97
99
100
107
113
63
65
70
92
94
92
119
121
110
131
133
121
151
153
141
165
167
153
161
163
148
175
177
164
136
137
128
177
179
165
169
169
150
191
180
163
144
142
130
182
181
164
188
186
169
180
178
161
176
173
155
146
142
131
95
97
94
189
189
177
143
138
120
84
81
67
143
142
131
215
213
192
203
200
178
202
199
174
207
202
178
133
129
112
62
59
55
140
136
121
172
166
149
82
76
68
150
147
138
195
195
179
195
190
177
66
60
52
61
58
47
101
99
89
45
42
38
103
97
88
191
182
168
208
200
181
206
199
180
212
204
190
82
77
71
80
77
66
192
183
165
132
129
117
118
111
100
150
146
134
121
114
103
116
109
103
85
83
73
199
193
172
172
165
148
51
49
41
130
129
122
155
152
146
54
49
41
119
114
99
183
181
164
195
194
171
211
208
187
196
193
167
194
189
165
85
79
67
104
101
94
105
104
97
44
41
38
106
105
96
129
128
116
142
141
128
203
203
182
193
191
171
185
184
163
181
178
167
109
98
88
117
111
95
119
113
96
125
118
101
162
154
135
155
148
128
190
186
167
201
198
179
198
196
176
175
172
155
179
175
158
196
193
178
187
184
169
171
171
155
120
118
108
97
93
85
114
108
98
77
75
68
171
167
152
122
117
105
31
28
27
39
37
33
55
51
47
71
67
57
101
97
84
117
113
98
164
161
142
171
168
148
172
169
150
171
167
149
166
162
144
167
163
145
165
161
144
164
161
144
163
159
140
155
151
133
150
144
127
110
104
87
124
118
101
108
102
89
73
69
56
78
74
63
73
68
58
74
69
59
81
76
65
100
95
82
128
122
104
152
147
127
122
117
106
83
77
70
99
92
85
88
84
74
127
125
111
151
150
135
162
162
149
171
171
157
174
172
159
174
172
159
169
167
152
172
170
156
153
151
142
161
159
145
159
159
145
157
157
143
141
138
128
147
145
132
144
144
129
144
144
131
145
142
128
145
143
129
146
146
132
141
141
127
139
139
125
135
135
122
129
127
114
134
132
119
131
131
120
131
130
119
136
136
122
136
135
122
136
136
124
133
132
121
139
139
125
136
136
123
141
141
129
131
130
119
130
129
118
129
129
117
129
129
115
133
132
119
133
130
120
130
128
117
105
102
94
129
130
120
140
139
130
135
134
126
130
129
123
116
116
106
112
112
101
106
105
98
109
110
105
110
111
106
107
108
103
110
110
106
105
106
99
95
96
90
72
73
70
76
77
75
79
79
74
75
75
70
74
73
70
71
71
67
74
74
71
76
77
74
71
72
69
75
75
71
81
82
78
89
90
86
97
98
93
103
105
100
99
99
95
106
106
102
181
175
165
152
151
145
182
184
174
151
152
143
128
131
126
130
136
134
56
60
67
117
119
118
147
145
144
61
68
76
154
157
152
128
135
140
56
63
68
147
151
152
101
102
115
80
96
103
118
138
151
46
75
103
61
72
85
168
172
176
111
120
134
128
146
164
118
139
154
74
92
111
67
77
90
198
200
196
148
155
157
151
158
159
142
152
154
78
90
104
80
100
119
137
151
165
54
82
120
63
97
148
86
129
185
197
220
241
234
247
252
119
168
197
72
117
162
61
104
149
108
135
161
108
136
156
104
124
146
120
143
162
106
134
156
67
89
117
26
48
99
39
60
102
54
76
109
49
70
100
88
100
116
99
107
111
159
160
153
108
115
117
110
114
117
108
113
116
98
106
108
101
109
113
67
69
74
99
101
99
137
139
127
152
154
142
152
154
142
147
149
136
158
161
147
175
175
163
135
134
124
173
173
161
169
165
149
176
169
154
152
150
138
174
173
156
184
182
165
197
195
178
183
180
164
150
146
136
101
103
102
198
197
185
138
132
114
79
76
62
147
147
132
198
197
173
194
191
169
194
191
166
204
199
175
130
128
109
64
59
55
141
137
122
171
166
148
81
75
66
157
154
145
196
194
180
202
197
184
65
60
52
60
56
46
106
103
95
50
48
44
110
104
95
187
178
164
201
193
174
207
200
181
215
208
193
84
79
72
79
76
65
189
180
160
132
128
113
121
116
104
148
143
132
121
113
104
115
109
103
84
83
73
199
193
171
172
165
147
52
50
42
139
137
131
147
144
138
56
51
42
126
122
107
184
182
165
187
186
163
207
204
183
193
190
164
196
191
168
91
85
73
104
98
91
110
107
101
47
44
41
109
109
100
129
126
116
132
131
120
191
190
171
205
203
183
183
180
160
180
176
166
103
92
83
123
116
100
137
129
112
135
126
110
153
145
125
136
130
111
170
167
148
182
180
160
182
181
161
181
179
162
191
187
170
176
173
158
164
162
147
167
166
151
137
135
125
109
104
97
117
112
102
81
79
72
172
168
153
123
117
105
30
28
27
48
46
42
82
83
74
123
122
107
156
154
136
165
162
142
175
171
152
176
172
153
182
178
159
179
175
156
174
171
150
181
177
156
178
174
157
167
163
147
159
155
136
154
150
131
169
163
143
176
170
149
162
156
134
147
142
122
145
142
124
140
138
122
135
131
115
135
131
115
145
141
122
136
132
113
134
128
109
155
149
130
131
126
113
59
53
47
62
57
47
78
74
64
103
101
87
159
157
144
161
161
148
169
169
156
178
176
162
171
169
154
167
165
150
175
173
159
153
151
141
158
156
143
159
159
145
158
158
145
137
135
125
146
143
131
144
144
129
145
145
132
146
144
130
149
147
133
145
145
131
145
145
131
145
145
132
136
136
123
141
139
126
140
138
125
134
134
123
125
124
113
134
134
120
136
136
122
137
136
125
140
139
128
136
136
123
137
137
124
138
137
126
139
139
128
134
133
122
130
130
119
125
125
112
134
134
120
135
132
121
127
125
114
106
103
94
134
134
124
136
135
127
123
122
113
118
117
110
113
113
103
109
109
98
108
107
100
112
112
107
107
108
103
107
108
103
107
108
103
108
109
102
87
88
81
86
87
84
93
94
91
99
99
96
109
110
106
113
114
106
110
112
103
106
107
101
98
99
92
96
97
91
101
102
95
103
104
97
105
107
100
114
115
111
116
119
116
115
118
113
126
126
123
180
173
164
151
150
144
176
177
168
155
156
147
128
131
126
133
139
138
57
62
69
113
115
114
136
136
134
59
64
72
149
152
147
124
131
136
55
61
68
148
151
151
88
89
102
91
106
113
122
142
154
47
75
104
61
72
81
170
174
174
111
120
133
126
144
162
116
137
151
76
94
112
66
76
89
195
198
193
150
157
159
147
153
154
141
151
153
78
90
104
80
100
119
126
140
154
57
85
123
62
97
147
88
131
187
194
218
237
235
247
249
117
169
199
67
119
164
62
105
152
110
137
163
105
133
154
105
126
144
124
148
164
109
137
159
68
89
118
25
47
98
40
60
103
58
78
111
49
71
101
87
99
113
94
103
109
159
159
153
102
108
111
104
108
111
105
109
112
97
104
109
97
104
111
62
64
70
95
96
95
159
161
149
169
171
159
180
182
170
167
166
155
159
159
148
176
175
163
142
142
131
170
170
157
172
170
154
177
172
157
161
159
147
180
179
161
187
183
166
195
192
175
186
184
165
135
131
121
91
95
92
196
193
183
137
132
116
77
74
62
147
147
133
209
205
183
203
198
177
202
197
173
206
201
177
134
132
113
68
64
59
138
132
121
169
164
146
80
75
61
160
155
147
192
189
175
203
198
185
65
61
53
62
54
46
99
95
88
53
49
46
107
103
91
180
172
154
192
183
164
202
196
175
210
203
185
85
80
72
77
74
63
191
179
160
134
129
115
118
112
102
146
143
130
123
115
105
112
106
100
86
85
76
195
187
165
168
159
142
47
44
36
144
142
134
137
133
125
57
49
42
122
118
102
181
179
162
186
184
164
209
204
184
198
190
169
194
186
165
92
86
75
116
109
102
104
102
96
50
49
44
105
105
97
126
123
114
136
133
124
145
143
133
183
181
165
180
175
160
180
176
165
97
85
76
106
98
85
122
113
98
120
110
94
143
133
113
141
135
117
185
182
163
191
187
168
188
183
167
193
188
172
192
191
173
191
189
171
186
182
165
180
176
160
149
147
135
114
109
103
117
110
100
83
82
75
177
173
160
125
119
109
31
29
27
60
59
55
99
97
89
126
123
111
153
150
133
160
157
138
175
171
154
181
177
160
179
176
157
181
179
159
180
179
158
176
175
155
177
173
154
172
168
150
161
157
140
157
154
136
161
157
138
158
154
134
159
152
134
165
159
138
153
150
131
160
156
139
146
142
124
151
148
129
156
152
134
135
131
113
138
134
116
146
142
123
133
129
114
106
101
88
108
103
91
105
100
89
99
95
84
125
122
110
161
159
147
172
170
156
171
169
154
174
172
157
170
168
153
172
170
157
158
156
144
152
149
137
154
154
141
158
158
144
138
135
126
145
142
130
146
144
129
145
143
128
140
140
126
146
146
132
146
146
132
147
147
134
146
145
134
143
143
131
136
136
123
139
139
125
137
134
121
135
132
119
129
127
113
127
124
114
135
134
123
139
138
127
138
138
126
136
135
124
133
132
121
141
140
129
132
132
120
125
124
113
122
122
111
131
130
119
135
135
121
127
127
114
111
110
100
136
135
125
127
126
118
120
119
110
111
110
101
111
110
101
112
111
103
106
105
100
110
108
104
107
109
104
107
108
103
108
109
104
108
109
102
92
92
89
74
74
72
55
55
53
71
71
69
77
78
75
83
83
79
79
80
75
88
89
84
89
90
85
94
95
90
90
92
86
96
96
91
99
100
94
97
97
94
92
96
96
92
98
99
99
101
101
186
180
171
150
149
143
181
183
173
156
158
149
122
126
122
128
132
131
53
58
68
115
117
113
135
132
129
56
62
69
145
148
143
121
128
131
54
60
68
146
148
149
85
86
98
99
114
118
121
140
153
47
78
107
61
72
82
167
172
172
109
121
133
129
145
160
118
139
152
77
95
113
68
75
88
200
200
198
149
154
157
141
149
151
139
149
150
78
89
105
85
103
123
125
139
153
59
85
126
67
102
154
87
132
188
193
218
239
236
248
251
118
169
200
64
117
162
60
106
156
115
141
167
106
131
154
108
130
150
114
139
156
110
137
159
68
88
118
24
47
98
36
61
102
56
80
112
49
72
101
96
106
116
95
102
110
169
167
166
106
112
116
104
111
114
98
105
108
96
104
109
92
98
105
69
72
77
93
95
94
161
163
151
162
164
152
178
180
168
172
171
160
161
160
149
162
160
150
148
146
136
187
185
173
186
185
170
175
171
157
156
153
143
183
181
163
188
184
167
200
196
179
190
186
168
155
152
141
91
95
93
201
199
188
132
127
112
78
74
62
145
145
132
208
204
182
213
207
186
204
199
174
205
200
175
134
131
113
72
68
60
132
129
111
171
168
148
76
73
58
160
155
147
189
185
172
204
199
186
65
61
53
63
54
46
96
92
85
55
51
47
105
101
89
177
169
150
188
180
161
198
192
172
206
199
181
82
77
69
84
80
70
186
175
157
128
122
109
123
118
107
155
149
137
121
113
103
102
96
89
92
90
82
196
188
165
167
158
140
49
47
38
137
135
127
131
128
120
54
46
39
123
119
103
184
183
162
186
185
161
208
204
180
198
190
166
197
188
167
94
87
77
90
82
71
93
91
88
50
49
42
122
121
110
117
113
104
132
129
121
123
121
111
169
167
151
171
168
151
189
182
172
93
82
72
83
75
63
100
92
77
99
90
74
134
124
104
146
140
122
199
195
176
192
189
169
196
192
175
197
193
176
201
199
181
190
188
171
188
184
167
189
185
169
134
131
120
117
112
106
117
109
100
77
76
69
181
177
163
128
122
114
28
26
24
40
39
35
60
59
53
81
80
73
100
97
89
109
106
96
129
127
117
137
135
125
137
136
121
137
135
121
136
135
121
136
134
121
128
124
111
129
125
114
84
80
71
91
87
77
127
124
110
127
124
110
126
122
112
132
129
115
121
116
103
118
113
100
117
112
100
114
109
97
106
102
90
110
106
92
127
123
109
144
140
124
142
137
123
155
151
137
141
137
122
128
123
111
125
120
108
101
97
87
102
99
88
157
155
141
162
160
145
158
156
141
155
153
138
173
171
158
154
152
139
153
150
140
154
154
140
157
156
143
139
137
127
145
143
131
147
145
130
153
151
136
147
147
133
144
144
131
145
145
131
143
143
130
147
146
135
143
142
131
141
141
127
138
138
124
141
139
126
132
130
117
139
137
122
130
127
116
132
132
120
136
135
124
140
139
128
137
136
125
138
138
127
140
140
129
138
137
126
128
127
116
127
127
115
114
113
102
125
125
111
130
130
116
108
107
97
121
120
110
120
119
111
118
118
109
116
115
107
121
120
111
110
112
104
107
109
103
110
109
105
109
111
106
112
112
108
108
109
104
105
106
100
97
98
95
83
83
81
74
75
72
83
83
81
83
84
81
83
84
80
92
93
88
95
96
91
96
97
92
95
96
91
95
95
91
99
100
95
92
93
88
77
77
76
70
74
75
71
74
75
97
102
101
192
187
178
144
144
138
177
178
169
156
158
149
120
124
120
125
129
128
50
54
65
115
118
113
133
132
129
58
67
73
139
142
139
123
130
135
55
60
68
149
149
149
108
108
115
95
108
116
120
141
153
46
81
109
59
71
81
167
172
173
107
118
131
125
141
156
118
139
153
81
99
117
69
77
90
205
206
203
154
159
160
132
139
143
130
140
141
82
93
109
88
106
126
124
138
152
59
84
127
68
104
154
90
133
188
194
217
237
237
248
251
122
171
202
65
118
163
59
105
154
122
146
171
105
129
152
107
129
149
117
142
159
108
137
158
66
88
118
24
48
99
38
62
103
67
84
115
51
72
104
98
107
119
91
99
107
111
113
115
80
89
97
78
87
94
71
81
88
60
67
75
71
75
82
79
82
87
93
96
96
161
162
150
157
159
147
162
164
152
159
161
150
153
155
144
187
188
176
144
144
134
185
184
170
187
185
167
177
176
159
162
160
149
184
183
165
190
188
171
197
195
177
186
183
165
146
143
130
90
94
92
194
195
185
129
125
110
78
74
62
140
140
127
207
203
181
204
199
176
192
186
164
198
191
167
128
123
105
76
72
66
143
143
126
157
150
134
83
76
67
158
155
147
186
184
170
208
203
190
69
64
57
64
56
47
95
88
80
52
47
43
103
99
86
168
158
137
185
175
153
202
195
176
205
197
179
81
77
69
85
82
71
184
173
153
125
119
106
115
111
101
134
128
120
125
117
108
90
85
81
94
92
84
195
189
166
164
159
140
46
47
38
133
133
125
124
122
118
54
51
42
121
118
102
184
180
160
187
184
161
209
207
184
196
191
167
195
186
166
99
92
83
104
99
84
100
99
96
50
47
41
125
125
113
127
125
113
134
133
121
180
180
161
193
191
173
191
190
171
188
181
170
92
82
72
89
82
72
100
92
79
104
96
78
126
118
98
156
149
130
188
186
166
195
194
174
195
191
172
200
196
177
197
196
176
195
193
173
192
190
172
188
187
170
144
143
132
124
119
112
116
109
98
81
79
72
187
183
168
130
128
116
29
27
25
49
47
43
88
87
79
117
117
104
146
144
128
154
152
134
158
156
139
170
168
151
170
169
152
174
172
155
170
168
152
153
151
134
153
149
133
142
139
127
119
116
107
137
136
127
158
157
144
154
153
139
164
159
145
167
162
149
166
162
148
165
160
146
150
146
132
144
140
126
143
138
125
123
119
106
135
130
118
145
140
128
149
145
129
156
152
135
153
148
134
155
150
136
147
142
128
146
141
128
100
97
86
127
125
113
168
166
152
157
154
142
149
146
135
145
143
133
132
129
120
152
149
138
155
153
139
161
159
144
140
137
128
149
147
134
148
148
132
151
151
135
150
150
136
143
143
130
150
149
138
145
145
133
145
144
133
140
140
128
139
139
125
139
138
125
141
138
126
131
128
116
132
130
117
132
129
116
126
124
111
134
132
119
139
137
126
132
133
121
137
137
126
138
138
127
120
120
108
121
120
109
116
116
105
123
122
111
124
123
112
129
128
117
110
110
100
114
113
104
100
98
92
121
120
113
116
115
106
111
110
101
113
114
106
108
110
103
109
109
104
113
113
110
112
112
110
109
109
107
111
112
107
108
109
104
89
89
87
91
91
89
90
93
87
100
103
98
100
101
96
94
95
90
97
98
95
100
101
98
101
101
99
97
98
95
92
95
91
80
82
79
74
76
75
69
71
71
79
80
82
105
110
109
186
182
174
142
143
138
173
175
163
150
153
141
122
125
122
126
133
131
49
53
66
114
116
112
134
131
128
60
69
75
134
139
139
118
123
132
56
61
71
158
158
156
116
117
121
75
89
97
112
134
146
47
77
107
63
72
80
169
174
173
103
117
130
124
141
158
121
141
154
82
98
119
68
79
92
202
205
201
154
161
163
138
145
146
135
142
146
82
93
110
84
105
125
122
137
153
54
83
124
67
104
155
91
135
191
195
218
239
234
248
251
131
179
205
73
123
168
71
112
157
127
151
172
108
134
153
110
129
151
121
143
160
114
141
164
69
90
123
23
48
101
38
60
104
69
85
116
50
72
105
101
110
125
87
95
105
145
145
148
106
116
125
103
111
122
87
100
113
59
73
86
116
122
123
91
96
99
95
100
100
172
174
160
160
162
150
158
160
148
147
149
136
161
163
149
184
186
175
137
139
128
170
170
155
188
187
167
182
181
162
161
159
149
164
162
145
181
179
162
185
183
166
192
189
171
138
135
122
84
87
86
185
187
178
122
118
104
78
74
61
135
135
121
197
194
172
201
195
172
198
192
170
198
190
168
127
122
105
80
79
72
118
115
99
155
148
131
87
80
71
158
155
147
180
178
165
205
199
187
73
67
60
60
53
44
95
88
81
55
50
45
103
98
86
163
153
132
181
171
150
204
198
176
207
199
184
80
75
68
88
85
73
182
171
150
121
116
102
111
108
99
103
95
88
136
127
118
78
73
70
97
95
87
195
191
167
156
152
132
48
49
40
137
136
128
129
128
124
56
53
45
118
114
96
155
150
126
185
182
157
210
207
187
198
191
164
199
190
167
98
92
79
100
95
81
93
92
89
50
47
42
118
117
105
128
126
115
136
136
122
207
206
186
204
204
183
191
191
170
177
171
159
86
77
66
78
72
61
88
83
68
95
89
69
116
108
89
128
122
102
168
164
145
183
182
163
196
193
173
201
197
178
199
197
177
198
197
177
201
199
182
192
190
173
150
149
138
123
118
110
116
109
98
80
77
71
186
183
167
127
125
112
31
29
27
56
55
51
94
93
85
124
124
110
156
154
137
168
166
147
185
183
166
186
184
167
192
190
173
190
188
171
182
180
162
169
167
151
162
159
142
170
169
149
182
180
165
176
176
161
175
176
157
178
178
159
185
181
163
181
178
160
184
180
162
185
181
163
180
176
158
178
173
156
176
172
154
167
163
145
149
146
128
150
146
128
154
150
133
161
157
140
159
155
141
156
152
138
149
145
130
159
155
140
125
122
112
116
114
103
123
121
108
133
129
118
131
129
119
113
111
102
111
109
102
136
133
123
153
150
135
160
158
143
141
138
129
150
148
135
148
148
132
145
145
130
150
150
136
148
148
135
147
147
135
147
147
136
148
147
136
142
141
130
139
139
125
137
137
123
137
135
122
139
137
124
139
137
124
138
135
123
132
130
117
126
124
111
136
134
123
126
126
115
131
130
119
138
138
126
135
134
123
109
109
98
122
122
111
126
125
114
128
128
117
130
130
119
111
110
102
130
129
121
125
124
115
119
118
110
123
122
113
120
119
110
116
117
110
117
118
111
112
113
109
113
114
109
110
111
108
109
110
107
108
109
104
102
103
98
86
86
83
86
87
84
94
97
92
94
97
92
93
94
90
92
93
88
91
91
89
94
95
92
105
105
103
102
103
100
99
102
99
87
89
86
85
88
87
69
72
71
74
78
79
96
103
101
179
176
167
143
144
139
174
174
163
153
156
144
120
123
120
123
132
129
50
54
67
114
115
112
134
132
128
57
65
71
142
147
143
127
132
138
55
60
70
154
155
153
98
103
111
93
109
113
116
134
147
48
74
105
65
73
81
170
175
174
104
118
129
125
143
156
120
139
152
82
98
119
70
80
93
200
202
199
157
164
164
113
119
124
115
124
131
83
98
112
82
104
124
124
139
155
51
81
123
65
104
154
89
136
192
196
219
240
232
249
252
137
184
209
85
130
173
91
126
169
112
140
167
101
127
149
110
131
149
116
139
159
107
134
157
66
88
121
24
49
102
38
60
104
66
86
116
48
74
105
92
104
118
87
99
107
158
158
157
95
105
117
85
97
106
76
94
106
67
81
94
112
116
116
82
88
89
92
98
99
164
166
152
156
158
144
152
155
140
164
166
154
144
146
134
192
191
181
150
150
139
178
176
161
193
192
172
194
192
174
158
155
146
169
167
151
188
186
166
191
190
170
185
182
164
157
154
141
85
88
89
173
174
167
125
120
107
75
71
58
134
133
120
206
203
180
212
207
184
201
195
173
196
188
166
130
125
109
76
74
66
126
122
104
145
139
122
97
90
82
154
151
142
181
178
167
203
195
182
78
71
63
59
54
44
96
89
81
57
50
44
98
92
77
154
143
121
177
167
144
207
202
180
208
200
185
78
73
67
97
94
81
193
181
160
124
118
104
126
123
112
106
99
86
137
129
117
73
70
65
94
93
84
189
185
161
156
151
133
49
49
40
137
136
126
136
134
129
60
56
48
129
124
105
169
163
134
168
165
139
205
201
180
194
187
160
195
185
161
91
84
72
91
85
73
96
95
92
50
47
42
109
106
96
128
124
113
142
140
125
198
195
176
188
189
168
187
187
170
176
170
161
85
77
67
86
81
68
103
100
83
147
142
122
161
155
134
181
176
155
174
169
149
204
200
183
204
200
183
207
203
186
199
198
178
202
200
180
202
197
180
195
192
176
159
157
146
117
112
105
106
98
90
74
71
67
161
158
147
125
118
108
34
32
30
58
57
53
95
94
86
127
127
113
158
156
139
169
168
149
188
184
169
194
189
175
192
190
172
193
192
174
190
187
172
183
181
166
187
185
168
188
186
169
184
182
165
179
177
160
180
178
162
177
175
160
179
174
160
184
180
166
181
179
164
183
181
166
178
174
157
176
172
155
171
169
152
168
166
148
159
155
138
141
137
120
143
138
124
155
151
137
162
158
141
160
156
140
154
151
137
159
157
139
115
112
103
121
117
109
143
138
125
137
132
120
133
129
117
110
109
104
121
120
113
135
135
121
149
147
132
159
157
142
138
135
124
153
150
138
150
150
137
145
145
131
149
149
135
148
148
134
146
146
134
141
141
128
142
141
130
144
143
132
144
141
129
140
137
124
137
134
123
138
135
124
139
137
122
135
132
118
135
132
121
129
126
116
118
117
106
123
123
112
132
132
120
134
133
122
134
133
122
116
115
104
129
129
117
130
129
118
125
125
113
126
126
114
107
106
98
127
126
119
119
119
110
122
121
114
117
115
109
118
116
110
117
116
109
116
114
108
108
108
104
110
111
107
111
112
107
101
102
97
106
107
102
103
104
99
99
102
98
93
96
93
96
98
95
98
101
97
101
102
99
97
97
95
96
96
94
96
96
94
97
99
96
88
92
89
90
91
92
87
89
88
90
93
97
82
87
90
74
81
86
94
104
102
181
178
168
146
146
141
178
176
168
155
157
148
121
123
119
127
133
132
48
54
68
124
124
122
143
138
136
58
67
73
141
146
142
125
129
134
54
60
69
143
144
143
95
100
112
98
113
118
114
133
147
45
70
102
62
71
80
162
168
169
109
120
128
122
138
153
118
138
155
81
101
122
72
83
94
199
201
196
160
164
165
139
144
148
135
145
148
88
104
117
84
105
127
125
141
159
50
80
126
63
101
153
89
135
193
197
221
241
235
247
252
135
184
212
78
131
175
69
115
161
112
138
167
96
123
146
112
132
152
111
136
158
107
134
158
68
88
120
30
54
102
45
66
108
64
83
114
50
74
105
86
99
113
97
108
114
159
160
153
102
113
122
97
107
116
100
112
122
78
89
97
121
121
123
85
91
92
94
100
102
158
160
146
149
151
137
148
150
136
157
159
147
144
145
135
183
182
172
148
148
135
179
177
160
189
188
167
193
191
173
160
157
150
176
174
157
182
180
160
182
180
161
191
188
170
153
150
136
86
90
88
185
187
176
127
123
109
76
71
59
138
136
123
199
195
173
201
196
173
193
189
166
199
192
165
132
127
108
75
73
64
144
142
123
133
127
112
95
88
80
154
151
143
172
169
158
199
191
175
80
72
62
55
49
40
95
89
80
55
48
42
100
93
78
148
138
112
170
161
134
203
199
177
216
209
193
82
77
72
102
101
88
175
167
146
104
97
85
117
114
102
100
93
78
125
118
104
73
69
63
106
106
97
187
185
160
141
137
118
57
58
49
139
139
128
142
139
134
60
54
47
140
136
117
171
163
134
177
173
146
211
208
183
186
179
148
182
170
148
83
77
67
128
124
116
98
96
93
53
49
45
113
111
100
125
120
111
134
133
117
202
198
179
189
191
170
187
188
167
175
172
159
87
80
69
133
130
116
154
153
134
164
163
142
174
172
151
196
194
173
190
186
167
203
199
183
198
194
177
210
206
189
203
202
182
207
205
186
206
201
184
216
213
197
169
167
156
120
115
108
107
99
90
89
86
81
168
165
152
117
111
101
35
32
31
62
60
56
95
94
86
120
117
104
140
137
121
153
151
134
184
180
165
192
188
173
196
194
177
195
193
175
195
193
178
187
185
169
188
186
169
187
185
168
186
185
167
187
185
168
186
184
169
181
179
164
188
183
169
187
182
168
183
181
165
189
187
172
181
177
161
177
173
156
171
170
152
166
164
147
162
158
141
137
133
116
137
133
118
145
141
126
157
153
136
160
156
139
155
153
136
151
149
133
146
142
129
138
133
121
140
136
122
124
119
105
106
105
93
136
136
130
119
117
110
149
147
133
155
153
138
156
154
139
135
133
121
149
147
134
151
150
137
149
149
136
149
149
136
148
148
134
146
146
131
144
144
129
142
141
130
140
140
128
139
137
124
141
139
126
142
139
128
133
131
120
138
136
121
135
133
118
138
135
125
131
128
117
123
123
112
102
101
90
115
114
103
125
125
113
124
124
113
126
126
115
134
133
122
126
126
114
128
128
116
127
127
115
100
99
92
128
126
119
126
124
118
122
121
115
119
118
111
125
123
117
116
115
108
105
104
98
108
109
105
120
121
117
116
116
111
108
109
104
106
107
102
108
109
104
103
106
103
102
105
101
99
101
98
100
102
99
104
104
102
96
97
94
99
99
97
95
95
93
97
98
96
83
89
85
85
89
86
92
96
97
90
93
96
87
93
96
80
87
92
94
103
102
178
175
166
143
143
136
170
171
161
144
150
139
119
122
118
129
135
133
45
54
68
118
116
115
136
131
129
53
65
70
134
139
135
123
131
135
49
57
62
129
131
132
93
97
111
101
114
120
110
129
144
45
70
101
64
73
82
163
169
171
111
123
131
118
134
149
116
136
153
84
103
124
75
85
96
204
207
201
158
162
160
156
162
161
144
154
156
96
107
118
84
102
125
124
142
161
51
82
127
65
103
155
91
136
194
200
223
243
236
248
252
135
184
213
80
129
175
69
112
159
118
141
166
112
137
157
111
131
152
113
138
160
106
133
157
67
87
118
29
53
100
45
66
105
63
82
113
49
73
104
91
105
117
98
107
115
162
162
156
97
108
117
96
106
115
95
107
116
69
80
88
122
122
125
69
75
79
86
92
103
151
154
139
156
158
146
136
137
125
156
158
147
153
155
143
187
186
177
160
160
148
175
173
158
194
192
171
194
192
175
158
156
147
183
182
163
182
180
163
180
179
161
178
175
157
139
136
122
76
78
77
190
191
183
127
122
111
75
69
58
133
132
121
200
197
177
183
179
155
163
159
137
183
177
152
121
118
101
82
76
69
112
106
95
134
129
115
105
101
89
133
130
125
136
133
123
176
168
157
86
80
72
61
55
46
104
98
87
60
53
47
96
90
75
138
128
105
130
120
98
202
195
175
218
211
195
85
81
75
63
61
52
123
117
103
162
159
144
156
151
136
164
160
145
164
161
147
106
105
99
153
153
146
156
153
136
147
142
127
57
58
49
137
135
126
144
141
134
54
50
42
105
102
85
119
111
94
163
157
133
187
184
158
169
165
144
166
156
140
61
56
50
88
88
85
92
91
89
51
47
42
120
120
109
135
130
120
137
137
124
183
184
162
173
174
153
182
182
163
175
168
158
90
82
72
139
136
122
154
153
135
173
172
152
157
156
136
174
172
153
180
176
157
203
199
182
205
203
184
208
207
187
212
208
191
206
202
185
201
201
182
202
202
182
171
168
155
127
122
116
111
104
93
106
104
98
164
162
147
116
112
99
36
34
30
65
61
56
91
88
79
106
102
88
118
112
99
139
132
117
173
171
154
191
189
172
194
190
173
192
188
171
190
188
171
187
185
167
184
182
166
186
184
169
187
185
170
184
182
166
182
180
165
183
181
166
177
175
158
186
184
167
193
189
175
187
183
168
183
181
166
178
175
160
171
167
150
170
167
150
160
158
141
155
153
136
157
153
138
155
151
133
148
143
128
158
154
139
161
157
141
157
153
138
130
125
114
97
91
81
108
105
92
134
131
116
149
145
128
140
136
120
136
134
117
152
150
133
149
147
130
157
155
138
139
134
124
149
148
135
149
148
135
146
147
134
148
148
134
146
146
132
142
142
128
141
141
128
141
141
130
143
143
131
139
139
125
136
135
122
140
137
127
138
136
122
136
134
120
135
132
119
132
132
121
141
140
129
129
128
117
117
117
105
95
94
85
98
97
89
112
111
100
134
134
123
142
144
132
130
132
120
121
121
109
113
113
102
74
73
67
115
113
108
118
117
108
124
123
114
126
125
117
122
121
113
124
123
116
114
113
107
119
117
115
117
115
113
115
116
111
110
111
106
105
106
103
102
103
100
102
102
100
106
106
104
98
100
99
95
97
96
98
99
96
101
101
99
98
101
98
95
97
94
96
96
95
85
87
87
89
90
89
93
97
99
86
91
92
85
92
93
78
85
91
93
99
105
180
179
170
146
146
136
184
184
169
153
156
145
119
122
118
126
135
132
48
56
73
113
113
114
141
138
138
51
68
73
130
134
135
122
129
136
51
59
66
132
136
138
91
94
110
86
98
109
108
125
142
45
69
98
62
72
83
159
166
170
116
126
135
133
148
162
122
143
160
83
100
122
74
83
97
207
209
204
158
163
161
152
162
161
133
146
147
93
108
116
79
102
128
122
139
163
54
85
128
65
103
156
92
139
197
203
224
244
231
246
251
133
180
212
73
126
173
61
106
156
107
136
161
110
136
155
108
131
151
110
135
156
106
135
156
66
87
119
29
52
101
42
64
104
60
82
110
51
73
101
93
107
118
82
94
104
153
155
153
86
100
111
89
101
115
83
103
115
65
81
91
113
117
119
73
81
89
81
88
95
166
166
152
149
150
136
152
154
143
161
163
152
151
154
138
177
177
161
154
154
140
181
180
164
192
194
172
186
184
169
156
154
145
186
184
166
189
187
169
193
192
174
190
188
169
159
158
144
78
81
80
171
172
165
120
115
105
71
65
55
129
127
116
190
187
167
185
181
158
179
176
154
183
177
158
121
116
105
67
62
51
149
145
131
149
144
132
111
106
92
148
146
137
156
153
138
147
140
129
73
67
60
51
45
37
104
99
88
68
61
53
104
98
87
138
127
110
122
111
93
189
184
164
217
210
194
83
79
73
59
56
48
130
125
112
125
124
113
117
115
106
118
117
108
108
106
100
81
79
75
123
123
115
161
158
142
135
129
116
60
60
53
137
134
125
141
138
131
57
54
45
126
124
109
128
125
113
134
130
110
186
182
163
136
132
122
177
167
158
82
76
65
132
131
126
90
88
87
45
40
37
76
75
65
119
113
102
143
142
131
184
183
164
168
167
148
178
178
159
172
166
156
93
86
77
146
144
128
166
164
147
167
165
148
174
173
154
187
186
166
182
179
159
190
186
165
204
203
182
199
198
178
200
196
179
195
191
174
189
188
172
178
178
160
145
142
128
130
125
119
110
103
91
94
92
86
163
161
146
111
106
95
34
33
29
59
56
50
81
78
69
98
94
80
123
120
106
158
155
139
178
176
159
185
183
166
191
187
170
189
185
168
186
184
166
193
192
174
183
181
166
172
170
156
188
185
170
185
183
168
186
184
169
185
183
168
181
179
161
190
188
171
193
189
173
188
183
169
184
182
167
174
172
157
174
170
153
173
169
152
165
163
146
169
167
149
168
164
146
169
165
150
166
162
147
161
157
143
157
153
136
160
156
142
128
122
112
126
120
108
126
123
109
132
130
115
139
135
118
142
138
122
141
136
122
150
147
130
146
144
127
156
154
137
138
133
123
145
144
131
151
150
137
147
148
134
149
149
135
145
145
131
145
145
132
139
139
126
141
140
129
139
138
127
140
140
126
132
131
118
126
124
113
114
112
99
124
124
113
124
124
113
127
127
115
132
132
120
131
131
119
132
131
120
124
123
114
121
120
111
105
105
94
130
130
119
134
135
123
123
125
112
126
126
115
121
121
110
82
80
76
114
113
109
117
116
107
121
120
112
130
129
120
125
124
115
125
124
118
115
114
108
121
120
115
115
114
109
110
110
106
114
114
110
106
106
103
103
104
101
104
104
102
102
103
100
101
103
102
104
107
106
99
100
97
97
97
95
94
97
94
98
101
98
96
96
97
91
94
94
88
90
88
88
93
94
89
95
95
85
93
93
80
87
92
94
99
107
174
172
165
140
139
130
167
168
159
158
157
147
120
124
120
126
134
131
50
58
75
115
116
117
133
130
130
52
67
73
127
131
132
118
125
133
51
59
67
132
136
139
93
100
114
93
108
116
108
126
143
45
70
98
58
71
82
159
169
171
118
131
139
132
152
164
124
145
162
85
102
124
73
82
93
201
204
202
148
155
153
142
150
151
139
151
153
92
107
117
80
103
130
120
138
158
56
87
131
65
103
156
92
140
198
202
224
245
226
245
251
126
179
211
69
123
170
57
103
152
103
132
161
112
138
160
105
128
148
114
138
160
109
138
159
66
88
120
30
51
101
40
61
102
58
79
107
50
73
101
86
100
111
87
98
107
157
157
151
82
87
94
80
86
95
75
81
91
73
79
82
107
111
112
67
74
82
84
93
97
168
168
154
163
163
148
169
170
159
154
156
143
155
156
138
163
164
145
147
148
128
162
163
144
179
180
161
178
178
162
152
151
141
185
184
165
177
178
157
180
180
160
185
180
162
152
151
137
80
84
80
167
167
162
122
117
106
70
65
55
132
130
118
198
196
177
201
197
178
201
197
178
196
189
171
124
119
110
62
58
46
105
101
89
109
101
88
99
91
82
139
138
131
172
167
153
113
106
98
79
73
65
83
76
71
65
61
55
71
67
59
72
67
57
116
106
91
111
102
83
191
186
174
217
211
195
79
76
69
54
51
44
126
121
108
106
102
93
59
58
49
62
61
50
51
50
40
53
51
43
97
96
87
167
162
146
147
142
129
57
57
48
136
134
123
133
130
122
47
43
35
74
72
61
111
109
99
95
93
81
135
131
114
139
135
127
149
142
132
80
76
67
112
112
106
88
86
84
46
41
39
76
74
66
121
115
104
140
140
127
192
191
174
173
171
151
182
182
161
176
171
159
98
91
82
147
144
130
164
160
144
182
179
161
176
172
153
166
163
142
163
159
138
185
182
160
194
191
171
203
199
180
203
199
180
199
195
176
199
195
177
194
190
172
143
140
128
125
120
116
111
104
93
81
79
74
138
135
126
107
101
95
32
30
26
53
51
45
103
100
89
135
133
118
154
151
137
170
169
151
180
176
157
183
179
160
185
182
162
191
187
168
192
190
172
173
171
158
142
139
128
125
122
112
166
164
154
187
185
170
187
185
168
184
182
165
175
170
156
166
161
147
177
175
160
184
182
167
188
183
169
176
172
157
171
170
152
172
170
153
169
164
150
164
160
145
165
160
146
169
165
150
163
159
142
158
154
138
156
151
137
159
156
142
113
107
97
137
132
119
151
147
133
145
141
127
132
127
112
142
138
122
117
112
100
128
124
107
133
131
116
144
142
127
132
130
119
143
140
128
146
146
131
147
147
132
147
144
132
143
140
129
143
143
129
144
144
131
142
141
131
139
138
126
136
133
121
131
129
116
120
118
105
96
94
81
107
106
96
127
126
115
131
130
119
135
134
123
130
127
117
132
130
118
131
128
118
133
130
120
117
117
106
131
130
119
129
128
117
111
111
100
63
62
54
102
101
93
92
90
87
116
114
111
56
54
49
120
119
113
123
121
115
125
124
117
117
116
112
107
106
102
114
115
110
110
110
106
112
111
107
113
112
108
102
103
100
102
103
100
102
104
101
99
101
99
101
100
100
99
101
100
102
102
100
97
98
95
90
92
91
93
95
94
93
95
94
89
91
90
87
90
92
93
97
99
91
95
98
90
95
98
81
88
92
92
101
104
180
178
171
129
129
123
155
155
149
144
144
136
124
130
127
115
126
124
46
53
72
128
126
124
143
139
136
50
65
74
126
130
128
113
123
133
53
62
71
131
134
138
94
101
114
95
109
117
116
132
148
44
69
96
62
73
86
154
164
171
117
130
138
134
155
166
127
148
162
89
106
125
72
81
90
196
199
196
144
149
149
139
147
148
127
137
141
92
104
119
84
104
131
133
152
166
53
88
132
62
104
156
93
141
199
203
228
245
224
246
250
125
182
212
71
127
175
61
108
158
106
135
165
118
144
167
111
131
155
118
141
161
116
142
164
67
88
120
30
53
102
39
60
101
55
74
104
48
72
102
79
95
111
93
101
111
166
165
159
110
117
120
108
116
121
105
113
120
104
109
113
97
101
105
73
79
86
89
96
100
171
170
155
170
170
155
169
169
157
122
124
113
115
115
99
143
144
127
128
128
115
184
184
172
175
177
161
178
179
165
146
147
136
180
180
160
181
182
161
176
176
156
173
169
151
142
141
129
81
85
80
167
168
163
121
117
106
71
66
56
137
135
123
210
208
188
201
198
178
196
192
173
195
189
171
128
123
113
59
54
46
163
160
145
135
127
115
94
84
78
132
131
129
185
180
171
184
178
169
61
55
48
51
47
39
81
79
71
66
62
57
59
54
48
96
90
75
124
119
99
195
190
176
213
208
193
75
71
65
53
50
42
116
114
100
109
105
95
64
61
53
72
70
59
72
70
59
74
71
62
113
112
103
159
155
139
138
133
120
52
52
43
135
133
119
131
128
118
47
44
36
83
81
69
122
120
103
131
129
113
193
191
174
186
180
164
187
179
164
72
69
60
89
88
81
93
90
88
43
41
35
82
80
69
125
119
107
140
139
126
188
185
170
147
145
132
181
181
162
174
171
158
103
97
87
134
129
116
139
135
117
147
141
124
140
134
115
175
172
150
189
186
165
189
186
165
197
193
174
194
190
171
196
192
173
196
193
173
191
187
168
182
179
161
143
138
127
119
114
110
118
111
99
93
92
86
153
150
140
104
99
91
31
30
25
50
49
42
93
90
79
138
136
121
159
157
143
177
175
157
185
182
163
184
180
161
185
181
163
185
181
162
146
143
130
133
131
124
148
146
135
142
140
129
130
128
118
155
153
139
187
185
169
185
183
166
184
180
165
180
175
161
183
181
166
184
182
166
186
181
167
173
169
154
172
170
153
170
168
151
177
173
158
168
163
149
164
160
145
161
157
142
156
152
135
163
159
143
158
154
140
151
147
134
112
108
98
136
132
118
146
142
127
137
133
118
133
128
113
133
128
115
116
111
101
140
136
120
142
140
125
152
150
135
133
130
119
143
140
128
150
150
134
148
148
132
146
143
129
146
143
129
141
141
128
141
140
127
142
141
131
128
128
116
136
133
121
134
132
119
122
120
107
104
101
89
117
116
105
131
130
119
134
134
122
133
133
122
134
131
121
135
132
121
131
128
118
133
130
120
128
127
116
128
128
117
133
132
121
133
132
121
121
120
111
117
116
108
90
89
86
116
114
110
53
53
49
112
112
107
104
104
99
97
97
92
102
100
96
101
100
96
97
98
93
103
103
99
97
96
92
94
93
89
99
100
97
101
102
99
101
104
101
101
103
100
103
102
102
99
100
100
96
97
94
99
99
97
97
99
99
96
98
97
96
98
97
97
99
98
93
96
98
99
103
105
93
97
100
94
98
102
84
91
95
93
102
104
180
177
172
133
134
128
149
149
141
148
148
139
122
129
126
119
129
128
46
54
72
119
118
116
131
130
127
49
68
76
132
138
135
113
127
136
54
64
72
133
135
140
104
109
122
100
114
121
126
143
153
48
73
99
66
77
93
153
163
174
117
129
138
132
153
165
127
149
163
90
107
126
70
79
88
194
196
193
143
149
148
138
146
146
131
141
142
91
104
115
80
104
131
116
137
158
54
90
135
61
104
156
91
141
197
203
229
244
228
247
249
128
183
212
73
130
177
61
109
159
108
137
168
113
139
162
102
125
148
114
139
158
107
136
157
63
88
119
30
53
102
40
61
101
56
75
105
48
71
101
82
95
110
89
100
110
159
161
159
102
114
120
103
112
117
98
108
114
92
103
109
91
101
107
57
66
73
69
81
92
168
169
155
164
166
151
168
170
156
110
111
102
161
162
146
134
135
118
156
155
146
95
94
91
64
64
54
184
186
173
149
151
140
188
188
169
183
183
162
189
188
168
191
189
169
140
139
127
82
85
81
163
164
158
119
115
102
69
64
55
136
135
117
204
203
182
199
195
177
188
185
166
192
186
166
125
119
108
53
48
41
151
145
130
127
120
107
94
87
77
134
132
131
189
183
175
194
188
177
56
50
44
64
59
52
106
102
90
74
70
64
72
67
58
123
116
99
169
163
141
206
201
187
209
203
190
74
70
65
54
51
45
132
127
116
159
158
149
153
151
145
140
142
133
137
134
125
153
150
143
163
161
152
152
149
132
138
133
120
57
58
49
136
133
121
129
126
116
45
41
35
94
92
82
151
149
134
163
161
146
194
193
175
189
186
168
188
181
165
74
71
62
113
112
105
99
97
94
49
46
39
84
82
71
131
128
118
136
136
121
196
195
174
192
192
171
179
181
161
168
163
152
108
100
91
126
119
105
112
106
87
134
127
107
138
130
109
174
170
147
186
182
162
180
176
162
184
181
162
192
189
169
192
189
167
194
191
170
190
186
169
180
176
159
145
139
127
115
111
105
112
105
95
87
86
78
149
143
131
103
96
88
31
30
26
50
49
43
90
89
80
130
130
117
160
156
141
174
170
156
184
180
163
184
180
163
183
180
162
171
167
148
148
145
129
143
142
131
115
114
107
122
123
113
169
170
157
143
142
133
163
162
149
186
184
168
183
181
165
182
180
165
177
174
159
185
183
168
184
180
163
180
175
159
173
169
152
173
169
152
173
169
154
174
170
155
167
165
148
163
161
144
156
152
138
168
164
146
157
152
138
145
143
131
114
111
100
127
124
109
142
137
123
140
135
121
130
125
114
129
124
112
125
123
111
135
133
119
141
137
121
148
144
127
129
125
114
141
140
127
149
149
133
149
149
133
146
146
133
146
146
132
143
143
129
140
140
127
145
142
131
134
132
121
134
133
120
133
133
119
128
128
116
121
120
109
118
118
107
131
131
120
134
131
120
133
130
120
134
133
122
133
133
121
133
130
120
133
130
120
130
130
118
128
127
116
133
132
121
129
129
117
130
127
117
116
114
106
85
85
77
112
113
108
118
120
115
112
114
109
121
123
118
112
114
108
103
104
99
112
113
108
113
114
109
94
95
90
90
90
86
104
104
100
82
83
80
88
89
86
100
103
100
100
103
100
99
100
97
104
105
102
97
99
98
96
98
98
97
99
100
98
100
100
95
97
96
99
101
100
96
99
100
95
98
99
97
99
101
93
99
99
90
99
100
95
102
106
178
179
171
138
137
130
168
165
155
151
151
142
120
128
127
114
127
128
44
55
76
112
113
114
134
132
133
53
68
77
136
141
136
111
122
135
57
63
74
124
126
131
103
108
121
90
104
111
127
140
151
48
69
94
67
81
91
152
165
172
111
122
132
129
148
161
123
146
159
79
101
123
69
78
91
195
197
195
141
147
146
144
152
153
141
152
150
87
100
111
83
108
140
112
132
156
55
88
132
63
102
155
90
139
197
204
228
243
232
246
251
131
184
214
70
132
179
58
111
160
111
140
169
105
132
157
101
124
148
116
141
163
109
138
157
65
88
118
28
51
102
39
59
102
55
75
105
51
72
99
87
99
111
87
98
108
160
160
160
92
97
106
96
101
108
87
98
100
91
102
107
77
87
97
50
56
66
66
73
87
162
165
148
161
164
147
149
151
138
163
165
154
121
122
105
153
153
137
142
142
130
173
173
165
162
162
152
168
172
160
135
137
126
175
176
157
176
177
156
178
177
157
176
175
154
140
138
126
77
80
76
165
167
161
115
111
98
66
61
52
131
130
112
204
203
181
198
195
174
196
193
172
199
193
173
120
114
103
52
47
40
121
115
100
130
123
106
102
95
82
140
138
136
185
180
172
191
185
173
56
50
44
63
58
52
109
104
92
74
69
63
78
73
64
138
131
115
168
162
140
208
203
189
206
201
187
72
68
64
57
55
48
121
116
101
143
135
117
114
102
84
106
100
81
115
106
94
122
114
103
155
153
141
150
147
134
135
130
118
51
51
43
134
131
119
132
129
118
46
42
37
99
97
87
163
160
146
178
176
160
200
198
180
191
189
170
188
181
165
74
72
61
98
98
90
94
93
89
42
39
32
84
81
70
133
131
119
135
134
118
189
188
167
192
193
171
187
190
170
164
159
147
104
96
87
121
112
99
117
108
90
132
124
105
155
147
125
169
165
141
175
172
149
185
182
163
173
169
150
188
184
165
187
184
162
190
187
165
185
181
161
164
161
141
136
129
117
111
107
101
115
109
100
72
70
62
141
135
123
97
90
83
31
29
25
50
49
43
90
89
80
125
124
112
161
157
142
173
168
154
182
178
161
179
175
157
183
180
159
139
134
117
172
169
153
128
127
118
115
116
112
116
118
115
97
97
94
157
156
150
117
116
106
172
170
156
187
185
169
183
181
166
177
175
160
175
172
157
182
178
162
177
173
156
176
172
155
173
169
152
176
171
157
175
171
156
167
165
148
166
164
147
156
151
137
165
161
143
157
152
134
151
150
136
107
103
94
121
118
104
137
132
118
134
129
115
130
126
114
123
118
106
131
128
115
138
136
123
146
141
125
148
144
127
132
127
116
139
138
124
149
149
134
151
151
136
150
150
136
146
146
132
142
142
128
142
142
128
145
143
129
140
138
124
132
132
119
131
131
117
126
126
114
123
122
111
129
128
117
133
133
122
137
134
124
137
134
124
132
131
120
135
134
123
131
129
119
135
132
122
130
130
119
123
122
111
128
127
116
128
127
116
127
124
114
114
112
103
86
86
78
125
126
121
117
120
115
111
114
110
111
113
110
109
112
109
113
114
109
111
112
107
115
115
111
115
116
111
106
107
102
99
99
95
94
94
92
96
96
94
102
104
101
98
101
97
103
104
101
102
103
100
99
101
100
102
104
103
100
102
102
101
103
103
98
100
100
99
101
101
100
103
104
102
105
106
101
103
105
99
105
105
95
104
104
103
111
114
178
179
173
142
141
134
170
166
156
157
157
148
126
135
133
118
131
133
47
58
79
112
113
115
133
130
132
51
66
75
141
146
141
109
119
132
60
66
76
129
133
138
102
108
121
89
102
110
131
143
152
50
71
93
66
80
91
154
167
174
110
121
132
133
152
165
129
148
163
82
101
125
74
83
96
203
205
203
145
151
150
141
149
150
128
138
139
82
95
110
82
107
137
112
132
154
54
88
128
63
102
153
90
139
197
204
228
243
232
246
251
132
185
215
69
131
179
57
109
159
120
146
171
114
139
161
104
127
151
113
138
161
111
139
159
65
87
118
32
55
102
43
64
103
63
80
108
59
77
101
95
104
112
94
101
109
160
159
159
100
104
114
99
109
115
109
115
119
101
107
111
102
108
116
81
83
90
105
106
105
162
165
151
140
142
129
165
167
154
128
130
118
109
109
93
138
138
123
114
114
101
115
119
108
116
121
109
88
90
80
126
125
115
154
152
135
157
156
136
159
157
138
167
166
145
114
114
101
63
65
60
160
160
155
113
109
96
62
57
49
128
126
109
206
205
183
202
199
179
199
195
176
195
191
171
111
107
96
56
51
45
134
128
115
141
133
117
102
94
81
143
140
138
184
181
171
182
176
166
56
51
45
60
55
49
105
100
88
78
74
67
82
77
69
136
130
113
166
160
138
207
202
184
206
200
187
80
76
71
70
66
60
129
124
106
114
108
95
75
75
75
121
122
121
127
127
120
89
90
79
142
140
128
148
146
134
131
124
116
50
45
40
133
128
117
135
129
119
45
43
37
104
104
91
167
164
151
181
179
163
193
191
173
193
191
174
191
185
170
71
67
59
89
87
82
95
91
86
42
37
36
85
82
72
133
131
115
130
128
114
172
170
154
178
177
157
180
184
165
168
165
152
106
99
90
139
130
118
112
103
89
123
115
97
161
154
132
176
173
149
184
181
158
177
173
152
188
185
163
181
177
156
176
170
152
177
171
153
180
174
156
159
154
136
150
145
131
103
98
92
111
104
97
64
63
56
134
132
120
95
89
81
33
31
27
51
50
44
93
92
84
122
122
110
148
146
131
165
163
148
175
173
157
173
171
151
147
143
125
131
127
111
154
154
140
110
110
109
118
114
113
91
91
85
122
121
109
102
98
94
161
158
150
111
108
97
180
178
164
177
175
160
188
186
171
193
191
176
180
178
161
182
180
162
180
176
159
176
172
155
175
171
153
170
166
148
170
166
149
171
167
150
161
157
141
166
161
144
170
162
143
146
143
131
96
91
84
110
106
91
123
118
106
115
110
98
120
118
104
120
117
104
128
125
112
136
133
121
141
137
123
146
142
126
131
129
115
139
137
123
149
149
136
151
151
137
151
151
138
146
146
131
145
143
130
148
146
133
144
144
130
142
142
128
141
141
129
133
133
122
130
129
116
129
129
116
136
136
124
136
136
124
137
135
122
133
130
118
135
133
120
134
131
119
130
128
116
134
132
120
131
128
117
121
118
108
119
116
105
119
117
106
113
110
102
111
108
100
84
82
76
119
122
114
122
123
118
116
117
112
111
114
111
111
113
110
108
112
108
108
112
108
110
111
107
114
114
109
119
122
116
99
102
97
99
99
97
98
98
96
101
103
102
102
104
103
102
104
103
99
102
101
100
103
102
99
102
101
97
99
98
98
101
100
102
107
107
96
101
101
96
100
101
101
105
106
100
105
106
100
108
108
104
110
115
103
112
115
183
184
178
144
143
136
176
173
158
170
169
157
124
130
128
119
133
135
47
56
80
112
113
116
135
132
132
53
65
74
145
149
146
106
121
134
59
65
76
127
132
136
92
97
111
79
92
101
121
135
145
53
73
94
65
78
91
152
167
176
113
124
134
133
151
164
127
146
161
81
100
124
74
83
99
210
211
208
147
152
151
140
148
149
136
145
149
88
101
119
85
108
135
115
135
157
55
88
132
65
101
155
96
143
198
201
228
243
231
248
250
133
188
215
71
132
179
59
110
164
126
148
174
115
140
161
107
131
155
112
141
163
108
136
159
61
85
116
31
56
102
45
64
103
58
74
102
54
73
97
96
105
114
96
103
109
159
161
160
95
105
114
101
108
118
95
102
109
95
101
113
94
105
111
78
82
89
101
103
103
150
152
139
150
151
140
163
165
153
100
102
90
77
78
64
152
152
135
123
119
103
139
141
125
133
134
120
139
138
128
122
121
111
151
150
136
144
142
126
133
131
114
143
142
123
120
118
107
77
74
68
148
144
137
105
99
87
63
57
48
134
132
118
207
206
183
199
196
172
189
186
162
188
184
160
111
107
98
54
49
43
136
130
111
135
126
108
96
86
74
141
138
137
178
175
167
170
165
155
54
48
42
58
52
46
84
80
68
70
65
58
91
86
78
145
139
122
177
172
149
193
188
170
209
204
190
86
82
77
79
74
69
125
120
103
131
125
104
137
132
116
133
129
112
142
137
122
121
116
108
168
165
152
163
161
148
130
123
115
50
44
40
122
117
107
128
122
111
45
44
37
106
106
93
166
163
149
181
179
163
192
190
173
194
192
174
186
180
165
70
67
60
84
84
77
101
94
91
40
35
33
88
85
76
139
137
122
146
144
129
183
182
160
171
170
151
156
159
141
162
159
146
101
94
85
135
125
112
143
136
117
157
151
128
170
166
143
173
170
146
166
162
141
169
163
142
157
152
132
182
176
158
183
177
159
137
131
113
136
130
112
121
116
98
117
111
100
97
92
86
112
105
99
74
72
66
135
132
121
91
85
77
36
34
30
55
53
47
96
95
86
126
126
113
149
147
132
165
163
148
172
170
153
164
162
142
151
143
123
123
123
111
149
150
136
107
104
101
133
130
114
117
118
104
117
114
102
92
88
82
168
164
156
125
123
112
174
172
158
180
178
163
182
180
165
188
186
170
175
174
156
173
171
154
182
178
162
179
175
159
176
172
153
175
172
153
172
168
151
175
171
154
170
167
149
169
165
148
166
161
145
151
147
132
118
112
109
101
95
82
110
105
94
109
104
92
110
108
93
122
120
105
131
129
116
131
129
116
138
134
120
147
143
127
128
126
112
139
136
123
146
146
133
152
152
139
153
153
140
147
148
133
146
143
130
148
145
133
147
147
133
143
143
129
142
141
129
144
143
131
141
141
128
144
144
130
140
140
125
137
137
122
135
133
120
137
134
122
132
129
117
135
132
120
131
129
115
128
125
112
127
124
114
121
118
107
114
111
101
112
110
99
107
104
95
106
103
94
85
83
77
111
112
106
115
116
111
116
117
113
109
111
108
109
111
108
115
120
116
114
119
115
115
115
112
118
119
113
115
118
112
96
99
93
101
102
99
102
103
100
111
113
112
105
107
106
102
104
103
102
104
104
103
105
104
102
104
104
101
103
102
102
104
103
99
104
104
103
107
108
105
109
110
110
115
115
109
114
114
103
111
111
109
115
119
110
119
123
185
186
180
141
140
133
177
173
162
163
163
155
124
131
129
119
130
134
47
55
80
114
116
118
135
132
132
53
64
73
144
148
145
103
118
132
54
62
73
120
126
131
91
96
112
77
90
99
114
129
139
42
62
84
60
75
88
149
161
171
113
124
134
126
145
158
120
142
156
74
95
118
68
78
94
198
199
194
142
148
147
141
149
150
131
140
144
84
96
115
80
103
130
108
128
150
56
88
132
63
100
154
96
145
203
203
229
242
231
248
250
135
189
215
76
134
183
63
112
166
125
147
173
113
139
160
102
126
150
112
140
162
108
135
159
62
86
117
29
55
100
45
64
102
59
76
104
51
70
95
98
106
115
99
107
113
161
163
162
99
110
118
104
112
119
100
107
113
99
107
116
96
108
118
83
88
91
111
113
110
149
151
137
94
95
86
143
146
132
149
152
135
121
124
111
139
140
126
123
125
111
127
126
113
132
129
117
146
142
132
119
116
109
154
150
137
154
150
134
145
142
125
158
155
140
111
108
100
145
143
131
168
165
148
132
125
113
101
97
86
118
116
107
187
186
163
179
173
152
189
182
161
191
182
162
111
105
95
56
52
48
131
125
111
140
131
114
94
84
72
141
140
137
178
177
168
178
174
163
54
49
42
62
56
48
92
86
76
76
69
62
95
89
78
149
141
123
169
164
143
185
178
161
209
206
193
90
87
82
85
80
73
122
115
100
132
125
106
179
174
156
160
152
130
185
177
153
124
116
107
164
161
146
167
165
150
129
124
117
64
60
54
112
109
101
120
114
109
48
45
37
110
107
95
169
167
152
178
176
158
185
182
165
198
194
178
192
184
169
74
71
64
91
88
81
102
98
95
38
35
28
91
88
80
121
118
110
154
152
139
190
188
168
176
176
155
171
175
157
164
159
146
104
97
86
129
120
106
155
150
132
170
166
144
172
168
146
175
170
148
183
177
156
174
168
150
149
143
125
162
156
140
145
139
123
113
106
94
110
103
91
94
86
77
100
93
86
89
84
80
107
103
94
73
69
65
138
135
123
92
88
79
36
34
30
55
54
48
88
87
80
123
122
110
147
145
129
165
163
148
173
171
156
171
169
153
164
158
142
122
116
100
144
141
128
135
128
118
94
87
75
91
85
70
102
95
90
142
140
133
151
150
138
149
147
135
178
178
163
183
183
167
183
181
164
180
178
161
185
181
165
183
179
162
180
178
161
179
177
160
175
171
154
179
175
158
177
173
156
177
173
156
167
163
145
141
136
125
151
148
140
130
127
119
122
119
113
102
99
85
119
116
102
127
125
111
143
139
123
153
149
133
150
146
131
144
140
126
134
130
115
148
143
129
124
122
109
134
132
119
152
152
139
156
156
142
153
153
139
150
150
136
146
146
132
150
150
136
145
145
132
147
147
134
152
150
135
154
152
137
148
146
133
153
151
138
152
149
136
146
144
131
135
133
120
140
138
125
138
135
123
134
131
121
134
129
117
133
127
115
132
129
116
125
122
110
118
115
105
111
108
98
105
105
94
96
95
85
78
75
70
106
108
104
120
123
119
116
119
114
109
112
109
105
108
104
108
112
111
113
117
115
118
119
115
120
121
116
113
113
111
108
109
106
112
115
112
115
117
115
113
115
116
108
110
111
107
109
108
105
107
106
100
105
103
104
109
108
102
107
107
104
109
110
103
108
108
101
106
106
106
110
110
107
114
114
110
115
115
110
118
117
109
117
119
117
125
130
187
188
183
141
140
135
175
173
161
154
158
147
128
135
134
121
130
134
50
57
77
112
112
113
128
127
128
50
63
73
140
144
143
100
113
129
53
60
72
121
124
128
87
90
112
79
90
101
116
127
139
44
63
87
52
68
82
149
159
169
114
123
134
122
143
160
118
139
158
71
89
117
65
77
93
187
189
188
133
139
143
144
149
151
137
148
149
87
99
117
81
102
132
111
129
151
56
87
129
62
98
152
89
142
203
205
230
242
232
249
252
135
190
215
73
134
183
61
113
168
126
148
175
113
140
162
100
124
147
112
139
162
110
135
159
65
88
119
29
54
100
47
66
102
64
79
104
52
71
96
95
105
113
105
113
118
167
165
163
103
111
122
103
112
119
104
114
121
102
111
118
94
106
117
69
73
79
90
94
94
133
135
121
103
105
95
121
124
111
159
163
146
140
144
131
142
144
133
122
122
111
117
117
106
128
126
113
127
124
113
135
134
123
183
182
163
185
181
160
176
171
151
171
167
147
133
129
118
59
58
49
107
105
93
81
73
63
59
54
43
124
122
112
191
189
169
174
168
148
145
139
122
186
181
161
110
107
96
55
51
47
122
114
101
136
126
110
94
85
72
143
142
138
181
182
173
177
173
162
57
51
44
60
54
46
90
84
74
81
74
66
101
94
83
157
149
131
169
165
144
180
175
157
194
192
178
91
89
82
90
86
74
130
123
105
125
117
106
90
90
82
117
114
102
121
119
105
107
106
95
161
159
144
164
161
146
136
131
121
93
89
79
115
110
99
116
112
103
51
48
40
112
109
98
166
164
149
175
173
154
182
175
160
192
185
169
187
180
162
63
60
54
82
78
72
101
98
95
41
38
31
100
98
90
120
117
109
152
150
139
185
184
164
185
185
164
178
181
163
164
159
146
103
96
87
131
123
108
145
141
124
153
149
129
169
165
146
174
169
149
164
158
137
157
148
131
142
134
117
135
129
113
119
112
99
111
104
92
103
97
85
97
92
82
87
81
74
83
78
73
106
101
92
77
74
70
151
147
135
101
97
88
37
35
31
57
56
50
95
94
87
128
128
115
155
153
138
165
163
147
175
173
158
179
178
162
180
180
166
148
142
123
123
117
101
132
128
121
104
102
95
89
89
87
140
140
136
158
157
144
132
130
117
175
173
160
183
183
167
181
182
166
188
186
169
189
188
170
188
184
168
181
177
161
181
179
161
184
182
165
177
173
156
180
176
159
178
174
157
176
172
155
168
164
147
142
138
127
145
142
138
125
122
119
118
116
108
121
120
104
147
146
127
160
156
139
168
164
148
167
162
148
169
164
150
159
155
140
157
152
138
158
154
139
130
127
115
146
143
131
160
159
146
155
155
142
158
158
144
154
154
140
151
151
138
147
146
134
149
149
135
147
147
133
154
152
136
155
153
138
152
150
137
150
147
134
150
147
135
146
144
131
136
134
121
135
133
120
134
135
122
139
139
129
132
128
117
124
120
108
120
118
105
117
115
102
112
109
99
91
88
80
97
94
87
90
86
81
85
82
77
105
107
103
114
117
112
116
119
113
114
117
114
115
118
115
116
119
118
113
117
115
121
124
119
117
120
115
117
117
115
121
122
119
115
118
115
116
118
116
111
112
114
110
111
112
106
108
107
106
108
107
95
99
99
104
109
108
102
107
108
105
110
111
105
109
110
105
109
110
107
111
113
111
119
119
114
119
120
117
124
124
112
118
121
122
130
132
193
194
187
144
143
136
178
176
161
156
161
147
126
135
133
122
134
136
51
57
74
101
102
106
127
126
129
53
68
77
142
147
142
104
116
132
51
57
68
132
135
138
84
89
107
79
90
98
112
122
132
47
65
92
48
64
79
148
158
168
112
121
132
123
144
161
116
137
156
69
86
115
66
78
94
187
189
188
134
142
146
144
150
152
136
146
147
85
98
116
79
100
130
111
129
150
54
85
125
61
97
149
88
141
202
205
230
242
232
248
252
132
189
214
72
132
182
61
113
168
124
147
173
108
135
156
99
122
145
110
137
160
105
134
157
64
90
120
26
52
97
41
61
98
56
77
99
49
69
93
96
105
113
103
110
116
164
162
160
100
108
118
98
107
114
92
103
109
93
102
110
91
103
114
67
76
80
88
98
96
98
99
84
94
96
81
107
111
95
124
127
112
116
117
103
107
107
94
69
67
56
49
50
39
60
60
48
122
121
111
132
132
118
178
177
156
185
181
161
166
164
144
167
165
143
132
129
116
67
64
60
139
137
123
133
126
113
67
61
49
128
127
119
199
198
181
183
180
163
175
171
154
188
184
164
114
112
101
54
51
46
136
126
115
141
133
118
86
75
62
144
144
138
178
180
172
178
174
165
61
53
47
64
59
51
90
82
75
85
78
69
108
102
91
154
148
130
170
164
146
161
156
141
143
137
135
97
93
89
95
91
78
138
130
112
130
120
110
71
62
58
85
76
71
69
66
58
103
99
87
170
166
152
147
143
130
143
139
125
88
82
74
98
93
74
79
73
64
54
51
43
110
108
96
164
162
145
175
172
152
180
175
155
195
187
165
180
173
155
56
53
48
86
83
76
103
99
97
42
39
32
102
100
90
124
123
115
155
155
143
190
191
172
180
181
162
168
169
152
163
157
145
99
91
82
138
131
115
141
135
120
154
149
128
131
125
107
111
105
87
144
136
118
160
153
133
146
140
122
145
139
123
125
119
103
92
86
75
95
91
79
97
92
83
81
75
68
89
85
78
107
103
93
82
80
75
158
153
139
107
102
91
36
35
33
56
57
52
97
96
90
133
133
120
164
162
145
170
168
151
171
172
156
173
173
157
183
182
167
174
169
153
136
130
114
126
120
105
150
147
136
154
157
144
146
148
137
141
141
129
168
168
154
178
176
163
186
184
169
185
183
168
182
180
165
182
180
165
186
184
169
184
182
166
182
180
163
183
181
163
176
172
155
180
176
159
179
177
160
176
174
156
166
163
145
159
156
139
142
141
131
161
160
151
129
127
118
130
126
111
161
157
138
164
159
140
171
165
148
172
170
152
175
172
155
169
165
149
162
158
141
166
161
147
140
137
124
156
153
142
162
159
147
162
159
147
161
159
144
154
152
136
162
162
146
159
159
143
146
144
129
150
148
133
153
151
138
156
156
142
155
152
139
150
148
135
151
151
138
152
152
138
146
143
132
136
134
123
132
132
121
123
122
111
115
113
104
116
113
103
110
107
97
110
107
98
106
102
94
110
107
99
128
124
119
98
95
89
95
91
83
113
114
110
120
120
115
123
123
119
120
122
119
124
126
123
121
123
120
117
120
117
126
127
122
123
124
120
126
126
124
119
122
119
117
119
119
115
117
116
116
117
118
111
112
111
89
93
91
85
92
90
87
91
94
97
101
102
98
103
104
101
105
106
107
111
112
110
114
115
109
114
114
118
125
126
119
126
126
115
122
122
116
122
122
123
132
132
188
188
179
145
143
135
180
178
164
160
165
151
131
139
135
124
136
137
49
55
74
96
97
103
124
127
127
55
69
78
140
144
138
104
117
131
48
54
63
129
133
134
82
90
106
83
92
101
115
127
140
49
67
96
44
59
76
143
154
164
108
119
130
128
147
162
116
140
158
67
87
116
65
76
97
196
197
192
138
144
146
136
143
144
141
149
150
81
95
113
79
99
127
111
129
149
51
81
125
59
96
151
87
140
202
204
228
241
228
247
253
130
189
216
73
131
182
64
115
169
123
148
171
103
129
152
107
130
149
117
142
162
110
138
157
68
93
122
29
51
99
36
60
99
55
76
100
51
69
91
97
104
111
98
105
111
166
164
160
112
119
122
99
108
115
90
100
111
95
104
113
91
102
113
63
71
76
90
98
97
132
128
110
116
112
94
131
131
112
177
176
157
184
182
162
166
162
142
139
135
121
96
96
83
89
89
74
129
129
115
132
132
119
178
176
156
179
175
156
169
167
148
176
172
152
125
120
108
68
68
60
151
150
132
115
109
96
69
63
50
130
130
121
204
204
187
200
196
179
200
196
179
195
191
171
112
110
98
60
54
49
137
131
119
146
135
118
72
64
52
144
144
137
172
174
166
177
174
162
62
53
44
67
59
49
93
82
73
81
73
64
102
95
84
135
129
112
157
151
133
180
175
155
165
158
150
100
97
90
103
99
85
150
141
120
142
135
118
82
74
67
149
142
135
149
145
136
101
96
83
164
159
146
148
143
132
146
142
128
83
77
71
84
79
63
87
81
67
57
53
46
107
104
93
158
155
138
174
170
150
177
172
152
186
179
156
178
170
152
55
52
47
99
96
90
98
94
92
43
39
33
102
99
90
121
120
112
151
151
139
187
188
169
193
194
175
190
191
173
172
166
153
99
93
82
113
106
94
140
133
119
171
165
146
151
144
128
107
101
86
141
133
116
170
163
143
158
153
134
164
160
143
135
128
113
109
102
91
100
95
83
89
83
74
81
76
69
90
85
79
108
102
93
78
77
71
156
151
136
107
101
91
36
35
33
58
58
54
101
100
94
138
137
124
163
161
144
169
168
150
174
174
158
172
172
156
179
178
163
171
168
152
176
174
157
159
157
141
131
125
115
134
133
122
152
154
138
167
167
152
178
178
164
178
175
162
187
185
169
188
186
171
174
172
157
181
178
163
186
184
169
188
185
170
183
181
164
185
183
166
185
181
164
183
179
162
181
179
161
182
180
163
171
167
150
163
160
144
162
161
146
160
160
146
116
113
103
135
131
116
165
161
142
176
170
152
148
141
130
151
148
136
171
168
151
168
163
148
163
159
142
165
161
146
148
145
130
159
157
144
162
159
147
163
160
148
159
157
142
151
149
134
155
155
139
162
162
146
155
153
138
160
158
143
159
159
145
155
153
140
155
153
140
150
148
135
148
148
134
147
147
133
142
139
128
131
129
118
129
128
117
128
127
116
131
128
119
124
121
112
120
117
108
121
118
109
119
116
105
119
116
107
101
98
91
132
127
123
109
105
98
96
96
93
90
83
81
107
107
103
120
123
120
120
123
119
116
120
116
119
121
118
122
123
118
126
127
122
122
122
120
118
122
118
119
121
120
118
121
119
113
117
115
106
109
110
74
84
94
87
93
97
100
104
106
100
104
108
106
111
111
108
113
112
110
114
115
109
113
114
108
115
115
115
120
121
120
127
126
118
123
124
118
123
124
133
141
140
188
188
179
144
141
133
175
173
157
145
148
138
117
123
120
119
129
131
47
54
73
92
94
100
122
121
123
52
61
72
141
146
142
97
116
127
46
52
63
128
132
133
81
89
106
83
92
100
109
123
133
46
68
92
39
53
70
148
159
169
109
120
130
128
147
162
115
139
157
70
90
118
66
77
98
197
198
192
144
149
148
137
144
143
130
138
139
79
93
111
78
98
123
111
129
146
52
81
125
57
94
150
89
139
200
205
226
243
227
246
253
130
187
216
80
133
182
64
114
168
120
147
170
104
130
153
103
126
146
109
134
155
103
130
153
67
92
118
28
52
99
43
63
102
73
88
104
53
70
89
94
100
108
100
108
112
167
168
160
114
119
119
102
111
115
95
105
113
90
99
108
90
102
112
52
60
65
75
83
82
115
113
100
113
112
99
124
125
112
126
126
112
150
150
134
108
105
94
102
99
94
43
41
35
80
80
68
116
116
104
110
109
98
150
147
131
148
145
130
136
134
119
127
121
111
95
91
83
70
72
65
137
135
122
102
95
87
60
56
48
133
132
125
205
205
187
197
193
176
200
196
179
194
193
173
121
117
107
58
51
47
133
128
115
150
138
124
75
67
58
140
140
133
174
175
169
177
174
162
65
53
45
74
63
49
102
87
74
98
86
74
133
124
114
158
151
137
131
127
112
174
168
149
161
155
139
111
106
98
83
78
69
122
115
100
125
118
104
77
73
61
116
115
103
144
140
131
101
97
84
155
150
140
121
115
106
126
119
108
51
46
43
101
94
77
109
100
88
104
99
88
130
127
113
140
136
118
169
164
149
172
167
151
186
181
161
177
168
147
53
50
45
78
77
73
99
95
92
47
41
38
93
91
84
117
116
108
147
147
134
191
190
168
195
196
173
192
195
174
173
169
154
102
95
86
93
84
72
135
129
114
160
155
135
135
129
114
101
94
84
130
121
106
165
157
139
168
163
145
159
155
138
148
142
127
114
106
95
101
95
84
92
87
79
76
73
64
95
92
85
108
101
92
86
84
78
157
154
139
109
104
94
37
35
31
61
60
53
97
96
90
132
132
119
161
159
144
168
166
151
173
171
156
172
170
155
173
171
156
172
169
154
179
177
161
181
178
163
172
167
153
155
155
140
168
168
154
180
180
166
175
175
161
172
172
158
181
179
163
185
183
167
178
176
161
181
179
164
180
178
161
183
181
163
180
176
161
186
181
167
185
183
168
182
180
165
180
178
163
181
179
164
177
174
159
168
166
151
164
161
146
151
149
135
73
70
61
110
105
91
153
149
131
183
177
158
126
121
108
147
142
131
160
156
146
167
164
150
164
162
145
162
160
143
158
151
137
159
158
143
162
162
147
158
158
143
161
159
144
151
149
134
163
163
149
159
159
145
157
156
141
156
155
139
155
155
139
153
154
138
152
152
139
147
147
135
143
141
128
145
142
130
136
134
121
136
133
121
128
127
115
136
135
124
130
128
117
125
122
111
124
124
112
125
125
113
121
120
110
113
113
102
124
123
110
112
111
104
78
74
72
126
126
123
97
93
89
103
103
100
114
117
111
118
122
116
117
120
116
121
123
120
124
125
120
126
127
122
119
121
118
124
126
123
120
122
119
114
118
115
111
116
115
106
111
111
103
107
111
95
99
103
104
110
111
99
104
106
98
105
104
106
113
112
108
114
114
111
117
117
107
112
114
116
121
118
119
127
124
116
123
121
118
125
125
140
147
146
193
192
184
142
140
131
171
170
156
150
155
142
87
92
93
115
118
125
45
51
68
94
99
101
122
123
124
53
60
71
146
151
147
100
112
120
48
53
65
101
106
109
59
67
86
83
91
97
116
126
134
51
69
92
41
52
69
153
163
170
107
117
126
125
144
160
112
135
155
72
90
116
65
77
97
196
197
191
149
155
151
131
138
138
124
132
132
77
91
109
76
97
122
110
128
144
54
81
124
60
96
152
93
142
204
202
227
244
228
246
252
132
186
215
78
133
181
61
115
165
104
134
161
99
127
150
99
123
144
109
136
157
101
131
152
65
88
116
24
52
98
47
67
100
55
73
98
45
62
89
85
90
105
95
103
108
168
167
161
117
122
122
106
111
114
94
104
109
94
104
111
86
98
110
44
51
60
53
60
64
169
169
155
163
162
148
177
178
164
158
159
144
153
154
138
119
116
107
84
81
71
80
77
67
126
127
111
158
159
141
128
126
113
172
166
149
169
163
143
168
162
141
178
172
152
135
132
120
74
77
68
180
177
169
125
118
113
73
71
64
137
136
129
204
204
186
196
192
175
181
177
160
182
181
161
116
112
102
57
50
46
132
127
114
143
132
114
80
72
60
142
140
135
176
175
168
174
169
155
71
57
46
80
66
53
100
89
76
134
124
117
112
111
107
120
119
113
111
106
100
170
162
146
182
175
158
128
125
116
93
89
78
137
130
115
132
125
112
101
98
86
134
133
121
103
99
95
94
89
81
144
140
124
144
140
124
130
123
112
105
102
91
97
91
73
93
87
77
139
137
134
129
128
124
137
137
130
156
150
142
154
151
142
155
151
141
158
153
139
62
58
54
73
72
68
96
94
90
47
41
39
117
116
109
114
113
105
144
144
131
188
186
170
178
178
161
177
180
160
169
164
150
98
91
83
102
93
82
100
93
80
137
131
112
133
125
107
108
100
88
135
126
110
154
147
129
156
151
132
157
153
135
120
114
98
108
101
90
101
93
82
87
81
73
81
76
68
93
90
83
109
101
93
81
79
73
158
154
139
111
107
96
38
36
32
61
59
53
97
96
89
128
128
115
153
151
136
164
162
147
170
168
153
171
169
154
177
175
160
172
169
154
178
176
161
186
183
168
188
183
169
179
179
163
177
177
163
175
175
161
175
175
162
179
179
165
184
182
167
180
178
163
180
178
163
180
178
163
178
176
159
189
187
170
185
181
166
187
182
168
188
186
171
181
179
164
179
177
162
182
180
165
179
177
162
171
169
154
162
160
145
155
153
139
81
78
70
79
74
64
111
107
92
172
166
150
171
167
149
142
138
128
138
135
126
161
159
145
160
159
142
157
155
138
159
152
139
159
158
143
161
161
146
157
157
142
159
157
143
154
153
138
159
159
146
156
156
142
152
153
138
151
153
137
149
150
134
150
150
135
149
149
135
139
138
125
134
132
120
131
128
116
134
131
118
133
131
119
127
126
115
125
125
114
134
131
121
128
126
116
119
118
108
127
126
116
126
126
113
108
107
97
116
116
104
110
110
103
76
72
70
93
91
89
99
99
93
101
105
101
107
110
104
115
118
113
118
120
117
117
120
116
122
123
118
124
125
121
122
123
120
122
124
121
120
121
119
114
118
115
114
119
118
100
105
104
116
121
121
102
106
111
104
111
110
100
107
106
105
111
113
108
115
116
111
118
116
109
115
113
111
116
115
110
115
113
116
123
121
116
123
121
114
120
120
140
146
145
189
188
180
144
142
134
165
163
150
146
150
138
121
126
125
124
128
130
40
48
57
86
91
93
114
114
116
48
54
67
113
121
125
97
105
122
49
52
66
99
105
109
65
73
91
88
97
103
115
125
132
48
66
89
45
56
68
157
167
170
108
119
127
124
142
158
102
127
147
72
93
118
65
77
97
197
197
192
147
153
150
133
140
139
124
132
132
78
92
109
72
94
118
109
127
143
53
80
122
60
96
153
90
140
205
205
229
244
229
247
252
129
186
213
73
132
179
62
114
165
101
130
162
93
120
146
102
124
142
112
138
156
101
132
152
66
89
117
26
51
95
51
67
97
63
76
95
51
68
91
78
83
99
93
100
106
163
163
157
111
115
117
103
108
111
96
105
109
85
97
104
83
91
103
47
53
63
72
78
83
155
159
142
145
148
133
153
155
141
139
139
127
145
145
131
134
134
123
75
74
63
55
54
44
128
128
112
149
147
131
129
127
116
170
165
148
163
158
142
173
168
147
175
169
149
143
140
127
73
75
70
186
185
178
124
121
114
70
70
62
129
129
121
198
194
177
197
194
175
196
192
173
192
190
172
111
108
100
57
51
47
128
121
110
134
121
105
88
80
69
147
145
138
170
167
161
163
157
145
71
57
43
61
52
43
97
89
75
110
104
93
119
113
109
140
133
127
79
72
70
116
110
100
118
111
100
101
98
91
96
94
80
145
139
118
139
133
118
112
107
99
100
98
88
127
124
113
105
102
95
158
157
137
144
141
125
125
120
109
127
123
112
103
98
83
87
82
71
74
71
67
83
83
79
83
83
78
126
125
120
146
146
136
140
137
127
160
155
149
94
92
87
121
122
112
96
93
92
48
41
40
119
120
110
116
115
107
142
142
130
191
189
174
169
168
153
167
167
150
166
161
148
97
92
83
102
93
82
109
102
90
131
124
106
134
124
108
116
109
96
139
133
117
136
130
111
151
146
125
151
145
125
134
128
111
105
97
87
105
97
88
86
78
70
81
75
67
83
78
71
109
102
93
80
79
74
164
158
144
117
111
100
39
36
34
60
60
55
98
97
88
128
128
113
149
147
131
165
163
148
166
164
146
170
169
151
177
175
158
169
167
150
177
175
160
179
177
162
182
180
163
190
188
171
176
174
159
175
173
158
177
175
160
172
170
155
182
180
164
180
178
162
175
173
158
179
177
162
181
179
164
183
181
166
183
181
166
185
183
168
185
182
167
179
177
162
181
178
163
183
181
166
179
177
161
169
167
152
165
162
147
150
150
136
82
80
70
84
78
71
86
80
72
84
77
69
74
72
63
62
59
53
92
88
83
85
84
79
85
86
79
97
98
90
97
94
90
93
91
87
96
95
88
100
99
92
100
99
95
95
93
89
100
100
92
93
94
86
96
95
90
94
93
89
91
89
85
87
85
84
89
87
83
90
87
83
95
93
89
89
87
83
85
84
79
85
85
79
83
81
77
76
75
70
82
81
76
86
85
80
85
83
78
82
81
75
85
84
78
73
70
66
68
64
61
70
66
64
56
54
52
64
63
60
89
89
85
75
76
72
75
75
72
72
73
70
73
74
72
68
68
66
81
82
80
81
85
82
84
86
87
76
78
79
69
70
73
67
73
75
74
78
81
66
68
73
69
72
80
71
75
82
75
79
84
79
83
90
77
81
91
67
71
81
79
84
91
81
87
89
87
92
96
80
86
90
86
92
94
80
87
89
80
88
91
132
139
138
182
182
173
140
137
129
177
172
158
155
157
144
117
123
122
118
123
123
41
45
56
94
94
95
103
100
102
42
48
57
92
96
101
87
90
101
61
70
79
91
97
103
73
83
93
69
78
86
102
110
119
43
60
80
39
49
63
153
163
167
113
123
130
128
146
159
109
134
151
75
96
119
69
77
100
191
190
187
134
137
136
133
138
136
130
138
137
84
97
112
80
99
123
109
125
141
53
78
121
60
96
155
88
137
206
207
228
243
233
248
251
128
185
212
72
129
177
61
111
164
102
132
159
109
133
153
93
116
134
96
122
144
100
129
150
66
88
117
27
52
94
42
65
98
53
71
97
58
76
99
86
92
106
90
96
102
165
165
160
112
116
119
108
113
115
96
105
108
95
105
110
83
95
108
47
55
63
76
86
92
150
152
136
141
143
128
146
149
134
144
144
133
145
145
131
119
118
107
99
98
87
77
77
67
129
129
115
146
144
129
112
110
100
153
149
132
155
151
135
178
173
153
166
161
138
150
149
130
73
76
72
182
183
174
109
110
102
74
71
63
130
130
121
192
188
170
189
185
166
195
192
172
190
188
169
107
104
96
54
50
46
135
126
109
133
121
103
96
88
77
145
140
130
149
145
134
146
139
129
81
69
54
117
106
90
86
75
63
108
100
84
108
101
92
87
81
75
112
107
102
151
147
130
162
158
141
123
120
113
110
107
92
175
165
140
172
162
143
158
153
139
147
143
132
127
126
114
129
129
114
157
157
131
151
150
129
120
115
104
119
114
104
105
101
88
100
98
81
118
116
103
123
120
116
115
113
104
148
147
136
168
168
154
153
150
137
158
154
145
86
84
75
148
148
137
99
96
95
50
42
41
108
108
100
114
113
105
136
136
124
192
190
174
189
188
171
181
181
164
171
165
155
103
97
89
100
93
81
115
109
98
129
122
106
134
123
108
107
100
89
117
110
96
111
105
88
111
105
90
119
110
96
113
106
91
94
87
77
86
79
70
90
82
74
86
81
70
91
86
76
113
106
97
85
84
79
167
161
146
124
117
107
39
36
34
61
61
57
98
97
88
129
129
114
163
161
145
168
166
151
168
167
149
171
169
151
174
172
155
179
177
160
178
176
161
175
173
158
178
176
159
170
168
151
168
166
150
177
175
160
181
179
164
172
170
154
174
172
157
179
177
162
178
176
160
176
174
159
181
179
164
182
180
165
182
180
165
183
181
166
183
181
166
179
177
162
183
181
165
179
177
162
179
177
162
171
169
154
158
156
141
143
143
130
83
80
71
109
103
87
102
98
85
93
87
76
83
75
67
83
83
77
92
91
85
101
96
92
96
93
87
94
90
85
94
90
86
94
90
86
94
95
88
96
97
90
99
97
94
89
88
85
97
100
92
102
104
96
100
100
95
94
94
89
102
102
94
93
92
89
91
91
86
89
89
84
87
86
82
88
87
83
81
83
79
81
83
78
80
79
74
81
80
75
84
83
79
84
83
78
89
88
81
83
81
75
81
79
74
92
91
86
78
78
75
64
63
60
58
58
54
69
69
65
60
59
60
70
69
70
78
77
78
77
76
77
86
85
88
80
79
83
86
87
89
79
84
84
81
85
86
78
81
85
77
84
87
74
85
87
77
83
88
69
75
80
68
76
79
68
77
80
63
72
75
67
75
84
70
77
84
71
77
86
76
83
88
75
82
86
73
79
85
75
81
87
79
85
87
76
82
84
83
91
92
130
137
137
178
177
168
144
141
133
174
169
155
157
159
146
113
119
118
121
127
126
41
44
56
102
101
101
122
119
118
43
49
54
120
120
115
87
88
89
41
45
50
100
101
103
76
76
84
87
96
101
107
116
123
44
60
81
40
51
61
150
159
166
116
126
134
124
142
155
114
134
151
84
101
125
71
79
102
192
191
188
141
144
143
135
140
137
135
140
137
89
98
112
83
103
122
109
125
136
52
77
120
61
95
154
89
134
201
207
228
243
237
248
253
126
182
209
72
125
172
63
110
161
107
134
159
115
137
155
93
115
134
107
130
147
102
128
146
67
86
116
25
51
95
44
65
101
57
75
100
60
74
95
86
92
103
86
93
98
165
165
159
90
93
96
94
99
102
97
107
108
87
99
103
78
95
107
46
54
62
70
79
85
158
160
144
150
151
137
130
133
119
142
144
131
150
152
138
124
123
110
129
129
116
115
114
101
130
130
115
139
137
122
100
98
88
125
121
104
140
136
119
147
143
124
143
139
118
127
124
110
76
79
76
178
180
174
112
112
107
79
73
63
125
127
116
191
189
169
188
184
167
195
191
174
191
188
168
107
104
94
54
47
46
140
129
114
152
143
123
94
87
75
101
97
89
95
91
85
123
117
107
68
57
44
96
80
61
78
65
54
91
82
74
146
141
126
143
139
123
158
155
139
165
162
142
175
171
151
139
136
125
143
141
127
176
171
160
174
170
159
184
183
166
145
145
129
117
117
107
106
106
97
112
112
99
123
121
108
98
93
85
115
113
100
121
119
102
94
90
77
141
137
123
125
120
108
137
135
122
164
164
150
161
161
149
83
83
75
148
146
137
93
92
85
82
81
77
103
101
101
58
51
47
101
100
93
108
105
97
135
137
124
188
187
168
192
192
172
181
184
165
170
165
154
99
93
85
107
100
88
119
112
99
131
123
108
133
123
109
81
75
64
89
83
68
104
95
82
94
85
72
96
87
74
92
85
72
88
80
69
95
88
79
90
82
74
83
76
67
90
86
78
119
111
100
87
85
78
167
162
145
128
122
110
37
38
33
61
62
56
99
97
90
126
126
113
158
156
138
170
168
151
172
170
154
173
171
156
175
173
157
181
179
164
183
181
166
178
176
160
184
182
168
170
168
154
174
172
157
170
168
153
168
166
149
176
174
157
161
159
144
169
167
151
176
174
159
177
175
159
181
180
162
185
183
166
185
183
168
178
176
161
181
179
161
177
175
158
180
178
162
179
177
162
177
174
159
174
172
157
161
159
146
148
145
133
97
93
83
101
94
81
73
70
58
77
72
61
83
76
67
82
79
70
87
84
71
85
81
67
91
87
74
90
89
75
94
88
81
94
88
78
89
86
77
88
85
76
86
86
77
87
87
79
82
81
73
78
76
68
82
80
74
84
83
76
80
79
72
83
82
75
81
81
74
75
74
64
77
75
67
71
70
62
71
70
63
72
71
63
81
79
71
84
83
75
85
84
77
86
85
78
80
79
72
79
78
70
77
76
69
80
78
71
71
69
63
54
52
51
69
67
64
72
70
66
70
67
63
70
66
62
72
68
64
71
67
63
65
63
61
59
60
57
69
69
67
64
64
62
62
62
60
64
64
62
76
75
74
71
71
69
69
71
71
72
74
74
73
75
75
74
76
76
77
78
78
73
74
74
76
77
78
75
76
77
79
83
82
72
75
75
67
70
72
74
78
79
79
86
86
81
88
88
76
81
86
123
128
131
176
175
167
150
148
140
171
171
153
156
159
145
116
121
119
122
126
126
44
45
54
108
109
107
126
123
120
48
54
59
134
131
123
100
102
104
41
45
49
129
124
120
93
88
92
95
103
108
115
122
130
44
63
81
48
54
66
155
162
166
114
125
132
117
134
146
109
126
139
85
101
120
68
78
99
190
191
185
137
141
137
132
137
132
132
136
135
93
102
111
83
99
119
109
125
135
51
78
119
65
98
155
90
133
196
204
227
242
237
250
253
124
177
205
73
122
170
60
106
157
112
133
158
103
124
147
95
114
134
105
130
147
103
128
146
64
85
113
24
48
93
42
59
96
62
76
98
59
75
93
85
92
102
83
92
99
151
154
150
93
98
103
90
93
95
101
105
107
90
100
106
85
97
108
49
56
65
70
77
82
152
152
136
153
154
141
136
139
124
136
138
125
144
146
131
132
132
117
134
134
119
108
108
94
114
115
99
141
138
124
102
99
89
134
130
113
129
124
108
142
139
121
141
137
119
112
107
96
78
81
81
166
166
164
108
107
96
78
74
62
122
124
113
187
185
165
186
182
165
189
185
168
191
186
168
104
101
91
52
46
45
126
117
102
118
109
90
86
79
69
144
138
126
181
175
163
173
164
152
49
43
34
73
67
55
82
78
68
103
97
88
158
153
138
168
165
148
165
163
146
167
163
143
155
152
133
110
106
96
175
170
155
177
172
162
136
134
125
107
108
104
99
101
98
102
103
102
113
112
110
125
122
117
127
125
111
118
114
100
68
63
53
106
102
93
108
104
88
143
139
119
149
143
126
164
160
144
160
157
144
176
176
165
139
140
131
139
138
130
72
73
65
145
144
140
85
83
82
56
49
45
97
96
90
106
103
98
136
138
126
169
168
149
173
173
153
168
169
150
165
161
151
99
93
86
110
103
92
111
105
90
122
114
100
124
116
101
71
65
55
92
85
73
112
103
91
96
87
74
95
86
73
102
93
82
104
97
86
102
94
85
100
93
84
88
81
72
89
84
76
114
106
95
86
84
76
168
162
146
127
121
109
37
38
33
60
61
54
100
100
92
131
130
117
156
154
137
169
167
149
172
170
151
167
165
147
178
175
160
178
175
160
186
184
169
182
180
165
177
175
159
168
166
150
174
172
157
175
173
158
176
175
157
166
165
147
165
163
148
171
169
154
172
170
155
175
173
157
180
179
161
178
176
159
179
177
162
178
176
161
174
173
155
178
177
159
177
175
160
174
172
157
172
170
155
170
168
153
163
161
148
153
151
140
106
101
93
96
88
76
81
76
67
82
78
69
85
77
69
82
78
68
78
73
63
88
82
73
98
90
81
93
88
78
98
92
81
98
91
83
99
93
83
97
91
81
103
97
88
101
96
88
96
94
84
98
96
88
99
97
90
104
101
94
105
102
96
108
106
98
106
104
94
101
100
92
104
104
92
105
104
93
97
96
88
88
86
82
88
86
83
90
88
85
86
84
78
84
82
76
87
86
79
86
85
79
85
83
76
82
80
73
86
84
79
77
74
74
63
61
58
80
79
75
84
82
81
84
83
81
84
84
82
81
80
78
85
83
82
85
87
84
89
89
87
84
83
81
88
88
86
89
89
87
91
90
89
88
88
86
92
94
93
96
98
97
95
97
96
94
96
95
96
98
97
98
100
99
101
103
101
103
105
102
96
99
97
88
91
89
87
90
91
85
88
90
80
86
87
80
86
86
77
85
84
125
130
130
174
173
165
149
147
139
171
171
154
156
159
144
119
124
122
124
128
128
46
47
53
107
108
103
129
125
122
50
55
58
143
140
131
103
104
106
52
55
60
143
138
132
90
85
89
94
102
106
109
116
124
44
63
82
52
59
67
164
168
170
114
122
127
128
141
151
107
124
137
85
101
120
67
77
97
190
191
185
136
139
135
131
137
132
134
137
137
89
98
107
84
96
113
113
125
133
53
79
118
64
98
152
89
132
195
203
226
242
239
250
254
119
173
201
67
116
164
56
102
152
113
133
155
101
122
142
93
111
128
97
122
141
98
123
142
63
84
111
22
44
90
37
57
93
60
73
97
54
70
90
85
91
101
76
86
94
93
96
101
72
76
82
59
63
70
61
65
71
61
65
69
61
68
77
48
55
65
59
67
72
150
152
138
150
153
138
147
147
134
146
146
133
144
144
131
125
125
112
131
131
118
134
134
121
118
115
103
117
114
102
96
92
84
127
123
105
128
122
108
138
132
118
142
137
119
117
113
100
77
81
79
103
104
100
82
81
69
75
71
61
120
121
111
188
188
169
181
177
159
189
185
167
189
183
166
96
93
84
52
47
44
128
120
102
131
121
103
84
77
68
149
145
133
166
166
153
159
152
137
46
42
35
86
84
78
105
100
91
125
120
108
166
162
146
169
165
149
167
163
147
158
154
135
142
133
117
191
182
168
167
159
146
119
110
101
55
50
47
24
21
17
35
33
35
33
31
35
65
63
62
100
98
93
111
106
95
133
126
113
102
96
85
58
53
46
105
100
87
144
140
122
159
155
138
174
170
155
168
163
149
179
177
163
188
186
173
177
175
166
67
67
62
115
114
108
77
75
75
55
51
46
100
99
93
121
117
112
132
134
123
183
183
163
171
170
150
167
167
148
164
159
150
99
93
87
108
100
91
104
98
82
112
106
90
105
99
84
79
72
61
115
108
97
119
112
99
105
96
84
107
98
85
93
86
75
108
101
90
114
105
95
119
110
100
92
85
74
87
82
75
112
104
94
82
80
73
159
155
144
121
115
105
40
37
35
62
61
57
98
97
88
128
128
113
153
151
134
165
164
146
174
172
154
176
174
156
183
179
164
181
177
163
181
179
164
177
175
160
171
169
154
176
173
158
176
174
159
171
169
153
171
169
154
171
169
154
166
164
149
170
168
152
177
175
160
182
180
165
185
184
166
173
171
154
176
172
157
166
162
149
178
176
160
174
172
156
175
173
158
172
170
155
173
171
156
170
168
153
166
164
150
154
154
143
113
110
101
110
102
90
113
107
98
112
106
97
110
104
88
114
108
92
116
113
97
118
115
101
123
117
104
122
120
105
118
120
105
118
119
107
121
119
110
126
124
115
130
128
120
131
129
121
132
127
120
132
127
119
130
127
116
128
125
114
123
120
109
116
113
102
117
115
103
117
115
103
114
109
100
110
104
96
107
105
93
102
101
91
109
107
100
110
108
101
97
95
88
92
90
82
94
92
84
93
91
83
89
87
81
86
84
77
90
89
82
94
93
86
86
85
79
110
110
104
122
120
119
115
113
112
113
115
110
106
108
106
103
107
101
105
109
102
104
108
105
104
108
105
109
110
107
108
109
105
105
106
102
106
107
102
104
104
101
105
104
101
107
106
102
108
108
102
105
106
101
105
106
102
108
111
104
104
106
99
102
105
98
106
110
103
102
108
103
98
104
100
101
108
107
99
106
106
91
99
101
123
130
130
172
170
162
146
145
140
160
160
149
146
149
137
116
119
117
121
126
125
46
46
53
108
107
105
132
128
125
47
53
55
146
141
128
106
108
104
55
57
59
159
153
145
91
85
91
93
98
97
120
128
132
49
70
83
62
69
75
165
169
169
115
121
124
128
141
148
111
127
139
89
103
121
67
74
95
193
191
185
133
136
132
133
138
133
132
134
134
88
93
104
87
98
113
113
123
132
47
72
104
60
94
144
86
128
191
203
226
242
242
249
253
117
169
199
64
111
161
52
97
149
111
131
149
105
122
137
96
110
126
104
125
143
96
122
141
58
81
109
19
41
89
36
54
92
70
79
99
55
65
85
80
85
96
79
85
93
138
140
146
111
116
117
85
88
93
90
94
96
82
87
88
72
81
90
52
61
71
63
72
79
153
155
141
154
156
141
148
148
135
138
138
125
137
137
124
122
122
109
135
135
122
128
125
113
117
115
102
132
129
117
99
94
87
126
122
105
115
108
93
104
97
83
117
111
95
128
122
111
66
72
68
162
158
152
94
90
80
70
68
57
114
115
106
187
186
167
186
182
161
184
180
158
188
181
162
92
89
82
51
49
45
141
131
114
130
118
101
87
80
72
150
146
134
171
172
158
140
133
118
52
49
43
98
95
90
127
122
113
144
139
127
170
166
150
172
168
151
160
156
139
148
139
123
170
166
147
179
173
158
117
109
96
41
37
31
32
31
31
77
74
63
87
86
68
86
85
69
66
65
54
58
53
47
115
110
101
128
121
108
120
113
101
64
56
50
76
70
60
138
134
119
159
155
138
175
170
157
163
159
145
172
170
153
180
178
162
175
173
164
68
68
62
117
117
110
82
80
80
54
51
46
105
103
97
119
116
113
138
139
130
170
169
151
177
175
155
175
174
155
165
160
152
99
93
87
96
87
78
115
106
92
135
128
112
106
100
86
75
67
58
87
80
68
111
104
90
110
101
88
105
96
83
102
95
84
114
107
96
116
106
96
112
103
92
92
85
74
86
81
75
117
110
99
92
89
82
161
157
146
116
110
101
40
37
35
61
60
56
99
98
89
134
134
120
158
156
140
167
165
148
178
176
159
178
176
159
181
177
163
185
180
166
182
180
165
184
182
167
174
172
157
187
185
169
179
177
162
177
175
159
177
174
159
173
171
156
170
168
153
152
150
135
160
158
143
183
181
165
180
179
161
168
166
149
170
166
151
149
144
131
173
171
156
173
171
156
173
171
155
173
171
156
169
167
151
171
169
154
162
160
146
158
158
147
112
110
100
116
109
98
77
72
69
74
69
66
73
69
64
71
66
62
79
75
74
79
76
72
82
79
71
84
83
75
90
87
82
93
90
83
103
97
92
106
100
95
99
97
93
104
102
98
102
98
96
95
91
88
94
91
84
97
93
86
97
94
87
91
88
81
90
89
82
89
88
82
91
87
85
95
92
90
92
91
86
87
85
79
88
86
82
83
80
76
79
77
73
76
74
70
73
71
67
80
78
74
88
87
82
92
90
86
89
88
84
74
73
69
62
63
55
78
78
74
78
76
75
75
73
72
80
79
78
85
84
81
83
83
79
79
79
75
77
76
74
74
73
71
75
75
74
73
73
73
74
76
75
78
80
80
84
83
84
83
82
83
84
84
84
87
87
87
83
82
84
75
74
76
71
75
73
75
78
76
77
79
81
81
83
85
81
84
83
75
78
77
78
81
80
78
80
80
73
76
78
126
129
129
175
173
162
146
145
137
168
167
157
147
150
139
116
119
118
122
127
127
50
49
56
112
111
109
134
130
126
48
53
56
138
135
123
103
103
99
54
56
59
116
109
109
83
77
83
85
90
89
112
119
123
50
65
80
59
66
72
162
167
166
114
120
121
129
142
146
114
127
137
86
97
112
67
74
89
190
188
182
130
133
129
130
135
130
130
132
132
93
98
108
83
94
109
111
121
130
46
68
99
56
88
135
82
120
183
203
224
242
241
249
253
113
165
195
66
110
158
55
96
146
106
126
145
110
126
140
93
107
123
104
124
142
101
123
143
61
81
109
23
41
89
49
62
94
80
87
104
52
66
88
77
82
94
79
85
92
149
153
154
90
93
98
88
93
94
89
93
97
71
76
79
77
87
97
54
64
72
67
73
86
152
154
137
150
153
136
148
149
133
139
139
124
141
142
125
138
136
120
133
131
115
136
134
119
128
127
112
135
133
117
97
95
85
127
123
106
87
83
70
57
52
41
87
81
70
91
87
80
68
74
72
174
171
165
107
100
90
70
66
54
109
110
101
184
182
162
166
159
139
188
178
159
178
174
150
89
88
80
50
50
44
124
117
99
122
115
96
78
73
64
140
136
126
177
174
162
143
134
123
54
52
45
104
102
96
138
133
122
158
154
137
170
166
148
173
166
150
157
150
134
153
140
124
185
178
159
136
129
115
94
90
77
31
30
28
95
91
82
112
109
95
94
91
82
89
89
76
102
103
84
100
91
79
76
70
62
137
130
119
139
131
118
78
71
64
60
58
48
102
98
85
157
153
136
168
163
151
157
153
140
170
166
151
163
159
145
169
164
153
68
68
60
121
121
113
89
85
84
51
46
40
110
108
100
123
121
117
130
129
121
182
180
163
178
178
155
179
179
158
163
161
152
98
94
87
106
97
87
125
116
100
130
122
105
112
104
90
81
73
64
89
82
70
121
115
101
121
112
99
102
93
81
94
84
74
104
95
84
117
110
97
108
101
88
95
88
79
87
82
74
116
108
100
91
89
81
164
160
146
118
114
103
43
41
37
63
61
55
84
83
76
84
83
77
143
140
128
168
166
150
175
171
155
178
174
158
177
175
157
176
173
156
174
172
157
176
174
158
176
173
158
184
182
167
179
177
162
171
169
154
178
176
161
170
168
153
147
145
130
140
138
123
149
147
132
176
174
157
160
159
142
164
162
144
167
166
148
168
166
149
169
167
152
171
169
154
165
161
147
169
164
150
165
164
146
169
167
150
161
158
145
155
154
144
111
109
99
127
121
109
104
100
91
104
101
92
106
106
95
109
109
97
113
110
97
111
108
95
120
117
104
123
122
108
117
116
104
112
111
102
117
117
106
114
115
104
101
101
93
124
123
115
124
124
115
122
120
111
121
118
111
121
118
112
118
115
107
114
111
103
118
117
110
115
114
107
113
112
105
115
114
107
113
113
104
113
113
104
113
112
105
109
108
101
109
107
101
108
105
100
102
101
95
99
98
92
94
93
86
92
91
83
94
93
83
98
96
87
79
76
73
93
95
91
106
106
104
101
101
99
102
99
97
105
102
100
102
104
101
100
103
100
102
102
97
103
103
98
106
109
101
101
104
97
99
103
100
94
98
94
97
98
95
96
98
94
96
99
97
98
101
100
100
103
103
101
104
103
106
113
108
105
111
106
102
107
104
104
108
104
107
110
106
103
106
102
97
101
98
92
96
93
89
94
88
128
132
128
174
172
160
147
147
138
164
164
154
143
146
135
119
123
121
115
119
118
51
48
54
113
110
107
126
120
117
46
48
51
135
131
121
97
95
93
55
57
59
118
114
109
80
74
79
89
94
92
106
111
116
47
57
74
50
58
65
160
164
161
117
122
124
132
143
149
114
127
135
86
99
112
64
72
84
190
189
180
132
133
130
135
137
134
129
131
131
87
94
102
75
89
103
106
118
126
46
65
97
54
82
132
80
118
177
198
223
242
239
250
252
100
153
183
64
109
153
50
92
139
103
120
139
108
121
132
92
105
120
105
125
143
100
121
139
60
79
102
27
42
86
50
62
89
71
80
97
49
65
88
75
82
97
77
82
87
144
147
148
101
105
108
101
103
103
95
97
100
69
73
80
75
85
95
56
63
71
70
78
86
148
151
134
143
144
127
145
145
129
144
144
129
146
147
131
146
144
129
143
141
126
145
143
128
137
135
118
156
154
134
105
103
93
128
124
106
123
119
103
122
118
102
143
136
122
106
102
92
69
75
72
169
166
159
103
96
82
73
69
59
107
109
99
184
182
162
148
141
123
166
157
141
161
157
136
97
95
87
49
49
44
116
110
94
110
103
84
73
69
60
132
131
127
179
179
169
147
139
128
60
58
51
117
115
107
152
147
132
166
162
141
167
164
143
172
166
148
160
153
134
152
141
121
172
165
142
105
96
79
42
38
30
73
71
68
125
121
104
111
108
98
139
139
123
159
156
145
120
120
114
107
99
88
97
92
84
133
126
114
138
131
120
89
81
75
55
52
46
80
74
64
116
111
97
163
159
143
163
159
143
166
161
147
167
163
148
172
166
155
76
75
68
114
115
106
84
81
79
50
46
40
90
87
78
97
94
90
131
131
122
160
158
142
168
168
145
172
172
151
162
159
152
99
96
89
107
99
87
134
123
107
138
128
111
120
112
98
78
70
62
79
72
59
101
94
81
97
88
75
97
88
75
86
76
66
100
90
80
98
91
78
95
88
76
90
83
73
93
89
81
114
106
97
85
83
75
163
160
142
117
114
101
42
41
37
62
61
55
92
91
85
86
85
77
127
124
113
162
161
144
175
171
155
174
169
154
180
178
160
180
178
161
181
180
163
176
174
158
178
176
161
179
177
161
181
179
164
150
148
133
155
153
138
155
153
138
160
158
142
155
153
138
149
147
133
168
165
150
145
143
130
160
158
145
166
164
148
167
165
149
165
162
147
164
162
147
166
161
147
165
160
146
163
161
145
160
158
140
156
153
138
152
151
139
117
114
104
125
120
107
78
73
68
92
89
85
98
97
90
93
92
85
98
93
86
100
95
88
104
101
90
103
100
89
104
98
94
107
102
94
122
116
108
112
107
99
105
101
94
109
105
98
105
103
93
102
98
89
99
96
88
96
92
85
93
90
84
91
87
81
93
90
87
83
81
78
83
82
78
91
90
86
92
90
85
90
89
83
88
86
79
86
84
78
84
81
78
76
74
71
76
74
71
77
75
73
74
72
68
88
86
82
78
76
71
71
67
62
72
68
67
78
78
77
79
80
77
73
74
71
69
68
67
69
68
67
71
73
71
73
75
72
75
74
73
74
73
72
75
77
73
77
78
75
82
81
82
80
80
81
80
81
81
79
81
81
79
83
82
78
83
82
77
81
81
72
76
76
73
76
75
67
71
70
71
75
75
75
80
79
79
82
83
72
74
76
77
81
81
76
79
80
71
76
75
126
130
124
170
168
156
139
138
130
166
165
155
146
148
137
117
122
119
113
117
117
50
47
53
106
104
100
123
118
111
45
47
48
131
128
113
103
102
96
61
64
62
113
109
102
79
73
77
98
103
101
105
111
116
50
60
77
50
58
66
155
159
156
114
118
121
126
137
143
113
126
134
83
97
109
60
68
74
188
187
177
128
129
126
130
133
129
128
133
128
66
73
82
71
85
98
100
112
121
44
63
94
57
81
126
80
113
172
196
219
241
235
249
251
88
144
173
60
101
147
50
88
136
108
122
140
103
115
125
93
103
116
111
127
143
99
120
138
56
76
99
23
39
79
40
52
84
56
72
91
45
62
82
73
81
96
78
83
88
138
140
142
106
111
112
102
104
104
95
97
98
67
73
78
69
80
93
51
58
67
67
74
81
154
157
140
153
156
139
153
153
137
144
144
128
147
146
128
148
146
129
147
143
126
150
146
129
143
139
121
149
146
125
115
110
99
125
121
103
129
122
108
129
122
109
133
126
112
104
100
89
70
74
72
162
164
156
107
100
88
70
66
58
104
107
97
182
180
161
176
170
152
163
155
138
178
174
154
98
96
85
54
54
50
131
125
110
119
107
94
79
73
66
132
128
123
195
193
184
151
141
131
57
55
47
115
113
103
151
146
131
171
165
147
173
167
149
175
169
150
164
156
136
161
150
130
163
154
133
103
92
79
32
28
25
84
84
75
116
116
102
141
142
133
126
129
119
119
125
116
143
146
134
119
114
104
113
108
101
117
112
101
161
155
143
93
82
71
53
50
45
85
78
69
106
103
91
162
159
144
172
170
153
168
164
149
173
168
154
168
162
151
79
78
70
115
113
105
82
78
77
51
47
43
91
88
81
99
94
92
131
131
123
171
168
153
162
161
138
175
174
154
163
160
152
102
98
91
114
105
93
138
129
110
141
131
112
109
99
85
82
75
66
78
70
60
82
75
64
77
70
59
84
77
66
84
77
66
89
82
70
113
106
92
99
93
78
101
92
83
98
92
85
112
104
93
83
81
72
163
160
144
113
110
99
41
39
35
47
46
39
93
90
83
96
92
85
114
109
99
155
150
136
174
170
156
172
167
153
179
176
160
178
175
158
181
179
163
173
171
155
161
160
145
177
174
160
166
162
148
129
125
111
137
133
118
177
173
159
153
149
135
158
154
141
130
125
112
154
149
136
140
135
123
155
151
138
106
102
89
141
137
122
154
151
135
159
157
141
156
151
139
154
149
137
153
148
135
154
150
134
153
151
138
128
128
116
116
112
100
119
114
99
77
75
71
81
78
75
86
86
78
95
95
87
113
109
98
125
121
107
125
119
105
125
119
105
123
118
105
123
118
105
117
116
106
107
107
98
108
107
102
108
107
103
102
104
97
105
107
96
108
108
102
108
107
102
112
112
103
109
109
100
108
108
104
111
111
106
111
113
103
111
113
106
110
111
105
105
106
100
105
105
97
105
105
101
103
102
100
99
99
94
104
104
97
103
103
95
97
97
92
96
96
91
92
91
87
91
90
86
96
96
95
88
89
87
104
102
101
100
100
96
100
101
97
100
101
98
100
101
96
100
101
97
99
98
95
98
100
96
97
99
96
94
96
93
95
97
95
91
96
93
91
94
90
91
93
90
89
91
92
90
92
93
90
97
95
89
94
93
84
90
90
88
93
92
85
91
89
82
89
87
78
83
84
77
82
83
76
79
83
72
75
80
68
75
77
135
137
134
166
163
153
136
135
129
164
162
153
143
140
131
112
115
109
112
115
114
51
47
51
105
104
102
125
119
116
46
48
47
118
116
104
96
94
90
59
61
61
109
105
100
80
73
78
102
107
106
115
120
120
51
62
74
48
54
60
148
155
154
109
112
114
130
139
144
114
126
134
82
91
104
58
62
69
184
183
173
120
121
118
126
128
124
115
118
116
63
70
83
76
86
100
105
114
124
48
64
94
60
81
122
81
112
165
197
216
237
232
246
251
85
138
172
60
95
140
53
86
130
110
123
140
101
113
122
103
112
120
115
129
141
100
120
139
59
75
100
20
35
77
37
52
86
57
72
94
45
60
80
76
83
94
81
83
88
136
137
140
103
108
110
97
101
101
94
98
99
70
76
85
66
78
93
57
64
72
67
74
82
159
161
145
150
153
136
150
151
131
148
149
130
147
145
127
150
148
130
141
137
121
153
149
132
147
143
125
156
153
132
117
112
100
137
133
115
131
124
111
140
133
120
140
133
117
79
74
67
78
82
80
158
159
152
104
96
85
66
62
54
110
111
102
177
174
156
167
161
141
185
179
159
185
180
160
94
91
81
55
53
50
132
126
112
124
111
98
83
77
70
127
123
118
190
188
179
148
139
128
61
60
52
116
115
105
151
147
132
171
165
147
169
162
144
172
166
148
169
161
141
150
142
122
154
144
123
119
110
96
42
37
35
88
88
77
110
109
98
129
131
123
131
134
124
141
143
131
145
143
128
110
105
96
130
125
115
126
121
110
170
164
151
93
83
70
32
29
24
81
73
65
92
89
78
154
152
138
160
158
143
168
164
150
172
166
154
168
161
151
69
66
59
103
99
92
87
83
82
47
44
36
98
95
85
105
100
97
136
136
128
170
167
152
170
168
147
166
164
148
165
162
151
99
93
86
118
109
97
151
144
118
136
127
102
111
101
86
77
71
61
82
74
64
94
87
76
87
80
69
83
76
65
81
74
63
99
92
80
96
90
76
95
88
75
102
93
84
94
88
81
107
99
89
81
79
70
159
156
141
113
109
98
33
31
27
45
43
35
73
70
63
71
69
59
102
98
86
88
84
71
108
104
90
151
145
131
140
134
118
138
132
115
101
100
84
128
125
109
127
121
108
121
115
101
127
123
107
130
125
112
126
122
108
107
102
89
135
131
117
120
116
103
109
105
92
148
143
130
117
113
100
120
116
103
134
130
116
127
122
110
150
144
128
146
141
124
145
141
126
137
133
119
104
99
88
117
114
98
120
117
105
98
96
86
73
69
64
98
93
82
97
96
87
108
105
97
112
107
96
129
125
113
135
131
118
134
129
119
129
127
113
125
123
109
131
127
114
139
135
122
133
132
119
133
132
119
134
134
121
136
136
124
133
133
123
134
135
121
131
130
119
130
129
118
131
133
121
129
132
120
127
128
117
128
128
117
130
131
118
130
131
121
133
133
124
126
127
117
124
125
117
123
126
114
119
121
112
115
116
110
118
120
110
117
119
109
113
115
105
107
109
99
109
111
101
106
107
98
94
94
87
120
120
114
119
119
115
109
109
102
111
113
104
106
109
99
107
109
99
111
113
103
112
113
108
114
117
111
116
119
113
112
114
109
108
112
105
108
114
106
107
111
104
106
111
104
104
108
101
105
110
104
105
110
101
100
106
98
99
103
96
96
101
96
96
101
94
96
100
92
98
102
98
96
100
98
95
102
99
94
100
97
90
96
92
129
131
126
163
160
150
139
137
131
164
162
153
144
140
132
112
114
108
110
112
112
49
45
50
102
101
99
121
114
111
45
48
46
125
122
110
108
105
101
55
57
58
128
124
119
77
72
76
109
114
111
130
132
129
51
64
72
47
52
57
151
157
156
105
108
110
130
139
144
114
125
133
78
86
100
62
67
74
192
191
181
123
124
120
127
128
125
106
109
108
71
79
90
90
97
107
117
122
129
49
62
91
60
79
119
77
108
157
195
212
233
233
247
251
82
136
169
57
93
135
53
86
127
112
125
138
99
111
117
98
106
112
114
130
140
98
118
137
57
75
100
20
32
74
38
50
83
61
73
93
46
58
79
75
82
91
89
91
93
155
156
158
100
107
108
96
101
100
101
105
106
87
93
101
65
79
94
62
67
77
71
78
85
154
156
140
152
155
138
150
150
132
150
151
132
149
147
130
151
149
132
146
144
127
151
149
131
150
147
126
157
154
130
123
120
106
138
133
118
128
124
110
129
124
110
142
137
121
111
107
99
66
70
70
153
152
147
103
97
86
65
62
52
111
113
103
176
173
154
164
160
141
179
175
156
173
168
146
94
91
79
57
52
47
130
122
108
127
114
102
77
71
62
127
123
119
164
161
156
147
137
127
55
53
45
80
77
69
115
112
101
156
150
135
167
161
142
177
171
152
168
160
140
157
148
129
148
138
117
143
134
117
55
51
44
73
71
66
100
96
88
96
99
90
143
146
133
146
145
133
95
91
81
142
138
128
96
93
82
172
166
150
154
144
126
76
69
58
28
26
23
79
75
67
125
122
110
157
153
138
161
155
143
136
133
122
131
126
116
155
148
137
69
66
59
105
100
95
79
79
76
48
44
40
93
92
81
105
104
98
132
132
122
168
164
149
113
110
95
161
160
144
164
161
150
102
95
87
121
115
100
132
126
107
123
116
96
104
95
79
81
75
63
83
76
65
77
70
59
79
72
61
86
78
67
88
79
68
90
85
74
105
99
87
96
90
79
74
68
58
80
72
65
104
95
87
77
75
67
157
153
141
110
106
97
31
29
25
45
44
36
71
68
60
83
80
68
124
120
104
135
128
112
153
147
129
167
161
142
164
158
138
158
152
133
163
158
140
155
150
132
161
156
140
163
158
142
153
149
131
149
145
128
150
146
129
142
138
121
146
142
125
159
155
137
157
153
135
157
153
138
149
145
130
156
152
137
154
150
134
160
155
140
158
153
138
153
148
133
147
141
127
145
139
125
140
136
121
130
126
111
136
132
118
126
122
113
101
100
93
94
91
81
76
73
66
82
77
71
78
72
66
83
76
70
85
79
73
92
86
80
90
85
77
89
84
77
82
77
69
81
76
68
72
66
57
66
61
53
74
67
59
82
76
67
81
77
65
85
81
69
90
83
76
84
81
73
87
84
74
89
87
76
88
82
74
83
80
73
82
79
73
78
75
70
82
78
73
80
75
71
76
73
68
71
69
63
75
72
68
77
74
70
77
76
72
77
76
71
84
84
78
79
79
73
78
77
72
67
66
61
68
66
64
73
72
69
79
78
73
73
72
69
77
74
77
75
72
73
77
75
73
77
75
74
74
74
70
75
75
70
76
75
73
73
72
67
79
78
74
70
70
65
68
70
66
70
72
69
72
72
72
69
71
71
72
74
73
68
70
69
68
70
72
71
72
74
71
72
73
68
69
71
67
69
69
67
68
68
72
74
74
72
73
73
68
70
69
120
121
116
167
161
149
138
136
130
156
154
142
140
140
128
114
115
107
110
109
106
45
42
48
106
105
101
128
124
120
46
47
48
141
138
122
108
107
102
47
48
50
113
110
105
71
67
70
89
93
89
123
127
125
58
67
75
50
54
55
155
160
155
106
108
109
127
136
141
117
126
132
75
84
95
60
65
72
191
189
178
129
131
128
119
120
121
98
100
101
69
77
84
77
88
97
95
100
108
46
59
83
57
77
115
75
103
152
190
209
227
238
250
252
80
135
164
50
90
130
49
84
124
109
122
134
91
98
107
88
95
100
104
120
132
92
113
132
53
68
95
20
31
73
35
47
79
56
68
89
45
58
76
76
82
93
83
87
91
156
155
156
96
102
105
96
101
101
97
101
102
86
93
99
65
80
97
58
63
71
71
77
83
146
149
132
150
153
136
151
151
133
147
147
129
151
150
132
147
146
128
150
148
131
155
153
135
147
144
124
156
153
129
121
118
104
143
138
123
131
126
112
124
119
106
121
117
102
108
107
97
62
66
66
163
162
157
104
98
87
62
59
50
112
112
103
180
176
156
175
171
152
172
168
149
176
170
148
93
88
77
53
48
43
127
120
106
119
109
95
80
76
67
134
130
126
166
163
157
146
137
126
58
56
48
97
90
77
124
117
103
153
147
131
174
168
148
181
175
157
168
160
140
155
147
127
136
126
106
135
125
108
120
116
100
61
56
51
103
102
93
89
88
76
100
98
90
136
132
123
144
140
131
110
106
97
114
109
100
190
184
171
134
124
107
44
38
33
35
34
30
93
90
78
152
150
134
166
161
148
153
148
137
177
173
159
143
138
128
156
148
137
63
59
52
112
108
100
82
81
76
47
43
40
94
92
81
115
112
107
131
130
119
180
182
164
181
181
163
169
169
152
162
158
149
109
101
93
119
111
97
129
123
106
136
129
112
112
104
87
68
63
50
81
74
63
77
70
59
78
70
59
64
56
45
63
56
45
97
92
81
94
88
76
98
92
79
95
91
82
94
87
80
106
98
90
76
74
66
160
156
144
110
106
97
34
33
29
51
50
42
80
77
69
104
101
89
123
119
102
123
117
101
141
135
116
167
159
139
166
158
138
163
155
135
170
164
146
160
154
136
160
156
139
156
152
135
156
152
133
151
147
131
154
150
133
153
149
132
155
151
134
156
152
135
157
153
136
159
154
140
155
151
136
153
149
134
155
151
136
159
154
140
159
155
141
160
155
141
157
150
135
154
148
132
148
144
129
149
144
130
141
136
121
141
138
122
94
91
88
98
95
87
103
100
88
103
99
87
101
95
86
106
99
90
110
107
94
114
111
98
118
115
102
123
120
107
130
128
114
132
130
116
130
125
112
125
120
108
123
119
107
121
117
105
113
112
102
104
103
93
106
105
98
101
104
94
107
107
97
102
101
91
107
105
99
108
109
101
112
113
105
114
114
107
117
115
109
114
113
106
115
116
108
116
117
109
107
108
99
106
107
98
104
103
96
96
95
88
107
106
102
96
95
91
101
100
97
100
98
95
94
92
90
91
90
87
98
98
95
93
93
89
92
93
94
89
90
91
92
92
91
94
94
93
93
95
92
93
96
94
96
97
98
94
96
93
105
106
100
98
98
95
98
100
94
98
99
94
94
95
95
89
93
91
85
89
89
83
86
87
80
82
82
78
80
80
82
84
84
81
82
82
79
80
79
79
80
78
82
83
82
81
83
81
77
78
76
116
118
111
164
158
146
136
135
128
155
153
142
136
136
123
112
113
105
105
103
101
44
41
47
90
89
85
125
120
116
47
49
49
133
131
114
97
96
91
45
46
48
126
124
118
75
71
70
78
82
80
123
124
121
53
59
66
49
53
54
152
157
152
103
106
107
125
134
138
111
122
127
74
80
92
62
66
71
191
189
181
135
136
134
120
121
123
107
108
110
70
76
83
100
108
110
83
90
96
43
56
79
54
74
109
74
102
150
186
203
225
242
250
253
82
132
161
49
86
127
49
81
121
107
117
127
88
93
97
92
100
104
99
116
129
91
114
130
53
68
93
20
31
72
34
48
79
54
68
88
42
57
74
74
80
91
79
82
87
158
157
157
89
96
99
90
95
96
94
99
100
78
85
92
69
83
100
49
53
62
70
76
82
144
147
130
144
147
130
150
150
134
153
153
137
150
149
131
150
149
131
150
149
131
152
150
132
148
144
123
148
145
123
119
115
103
141
136
123
131
127
112
120
116
102
116
110
98
97
92
86
69
71
73
165
164
158
105
100
88
61
59
50
113
113
100
167
164
140
170
164
145
175
169
151
177
170
150
98
93
83
42
38
33
117
111
100
126
114
102
84
76
68
128
124
118
167
165
158
150
144
134
50
48
42
100
93
80
118
110
93
153
147
130
176
169
151
183
177
159
166
160
141
156
147
128
118
108
94
132
121
103
122
113
99
122
116
105
69
68
60
106
105
96
146
144
132
128
126
116
114
111
104
108
107
95
190
187
175
158
151
138
80
73
67
19
15
16
48
46
41
115
112
101
158
156
140
170
167
155
153
149
138
165
160
146
171
166
152
161
153
141
59
55
47
106
103
95
81
80
75
45
41
37
101
100
88
119
116
113
125
125
114
170
171
153
167
168
149
168
172
154
162
159
149
113
107
98
121
115
99
125
119
99
111
106
86
107
101
84
75
68
55
74
67
54
77
70
57
77
71
57
73
68
57
72
65
54
86
82
69
90
85
71
124
117
104
99
95
85
90
85
79
113
104
93
71
69
59
165
163
151
110
104
96
30
29
25
52
51
45
82
79
73
103
100
87
132
126
110
129
123
107
137
131
113
157
151
133
155
149
131
157
151
132
168
164
145
162
158
139
162
156
140
158
152
136
159
155
138
150
146
130
147
143
128
149
144
130
146
141
127
155
150
136
152
148
131
156
152
136
148
144
127
153
149
132
163
158
144
156
151
137
156
151
137
157
153
137
160
156
140
160
155
139
161
155
139
156
151
135
137
132
119
144
139
124
94
91
83
123
119
111
129
125
116
125
120
110
126
123
111
130
129
114
129
127
112
132
130
114
129
125
110
132
128
113
143
142
126
146
144
129
143
141
127
142
140
127
143
141
126
146
144
128
140
136
123
135
134
121
125
130
117
130
132
124
122
122
113
121
126
115
122
124
115
125
131
120
122
125
119
121
123
114
123
123
114
121
126
117
121
124
117
120
123
116
119
123
115
115
119
112
106
110
103
109
112
106
112
115
107
115
117
109
109
110
103
104
104
98
98
97
91
101
99
96
89
89
87
89
89
88
91
93
93
92
95
96
86
94
93
86
95
94
88
95
93
95
102
101
93
100
98
92
99
96
95
99
96
101
105
102
93
99
97
93
101
99
98
101
101
105
108
108
97
101
98
95
99
95
97
99
95
93
94
90
94
98
91
92
97
91
92
96
91
92
95
91
92
97
92
90
94
91
88
91
89
116
119
112
159
153
139
129
127
121
155
154
144
136
134
124
112
113
106
109
107
104
46
43
47
85
83
78
110
103
101
44
42
43
133
128
116
100
99
94
42
43
45
124
122
117
77
72
73
72
76
77
106
108
105
48
56
61
47
49
50
151
151
148
102
104
104
126
135
138
115
125
132
74
78
91
63
66
71
191
189
182
141
140
134
123
126
126
129
129
132
66
72
78
79
84
86
77
84
90
40
52
75
52
69
102
75
98
144
183
199
222
243
250
251
83
128
160
48
81
122
45
75
113
111
115
123
87
91
93
93
101
102
103
118
130
95
114
130
54
68
93
18
29
67
33
46
76
53
67
87
39
54
76
72
76
89
78
79
85
160
159
154
83
91
93
82
88
90
95
100
103
83
88
100
68
81
104
50
55
65
73
80
86
143
146
129
137
139
123
145
146
130
149
148
133
154
152
134
145
143
125
147
145
127
145
144
126
143
140
118
146
142
121
118
114
103
137
133
119
128
125
111
138
134
120
141
133
121
112
107
101
67
69
71
150
150
143
102
97
85
60
58
50
111
112
101
178
174
154
179
173
154
180
173
155
173
168
148
99
93
84
49
44
41
121
115
105
128
115
104
87
81
71
132
129
123
168
167
160
153
148
138
54
52
46
108
105
91
138
133
115
157
152
134
175
169
150
173
167
148
159
153
135
155
147
128
151
142
127
121
112
98
115
103
86
114
107
90
128
127
114
113
114
105
74
74
70
95
93
87
165
163
153
197
195
178
150
148
130
91
88
76
19
16
16
36
34
30
81
81
71
123
120
108
155
153
137
170
168
156
149
147
135
167
164
147
164
157
141
156
148
136
61
57
49
112
109
101
73
70
67
43
40
33
98
97
82
111
109
107
129
129
117
166
167
149
170
172
153
167
169
152
159
155
146
103
97
89
122
115
101
127
121
103
113
107
89
102
96
81
80
73
59
85
78
64
86
80
67
83
76
63
95
91
78
99
94
83
102
97
84
102
97
83
137
131
117
103
98
88
90
84
78
113
104
90
73
71
63
166
164
151
101
95
87
31
30
26
53
51
45
88
84
79
111
109
95
132
126
110
145
138
122
146
140
122
149
142
124
157
151
133
151
145
127
161
158
139
156
152
133
159
152
135
157
150
133
156
152
135
145
141
125
152
146
133
149
145
131
148
143
129
155
151
136
158
154
137
160
156
139
138
134
117
149
145
128
159
155
140
139
135
121
137
132
120
146
142
128
151
147
129
160
157
138
156
150
134
155
149
133
150
144
129
136
131
119
79
74
74
80
77
76
99
98
92
98
96
92
105
103
98
106
103
97
107
105
97
108
105
99
111
108
102
113
109
104
120
118
112
109
108
101
120
118
110
118
116
109
113
110
104
124
120
114
122
118
112
117
116
109
109
110
99
104
105
97
108
107
98
110
110
102
110
111
102
110
108
100
110
109
102
106
105
101
104
105
99
103
104
98
100
100
94
87
84
79
115
114
108
106
105
99
89
88
83
90
88
85
88
88
81
81
82
75
88
86
80
84
80
75
65
63
59
76
74
72
71
71
68
78
78
75
73
72
68
75
74
70
71
71
68
66
66
64
62
64
63
62
64
64
64
66
66
64
66
66
64
65
63
64
65
64
66
67
67
69
70
70
70
71
71
72
72
72
73
73
72
79
79
77
86
86
84
85
84
83
85
88
86
84
87
85
84
84
82
82
82
80
81
83
80
73
75
73
66
69
68
112
114
107
158
152
138
123
122
115
150
149
137
137
136
122
111
112
103
113
112
106
45
43
46
97
95
89
117
111
109
45
43
43
131
127
116
97
96
91
40
41
43
119
117
112
77
72
73
67
73
73
106
109
106
46
53
57
48
50
51
153
152
149
108
110
110
126
135
137
117
128
135
77
82
95
64
67
71
187
186
178
135
135
126
126
129
126
123
124
124
66
70
74
63
68
75
81
87
91
38
50
70
47
63
93
73
92
132
187
200
218
246
251
253
77
118
151
42
76
117
42
71
110
98
101
110
76
81
82
84
91
93
102
117
128
93
112
128
54
68
94
19
30
68
31
44
75
50
64
85
38
53
75
82
85
94
84
87
91
163
162
157
81
90
92
81
91
92
87
97
98
87
98
102
72
90
106
51
56
66
74
81
87
136
139
122
139
139
123
145
146
130
148
149
133
152
150
133
154
152
134
148
147
129
143
141
123
139
135
116
144
140
121
119
115
104
133
130
116
121
119
105
136
130
117
141
133
120
119
115
106
67
69
68
152
152
143
99
95
82
59
57
49
110
108
100
178
173
154
175
169
151
177
171
152
175
167
146
98
93
82
51
44
42
118
111
102
123
111
103
100
90
82
125
123
117
162
165
160
151
149
137
59
54
48
112
107
93
143
134
120
170
164
145
168
162
144
163
154
137
150
141
123
152
144
125
167
158
139
168
160
139
117
108
91
116
107
90
112
103
88
120
117
107
157
158
152
173
168
161
148
143
134
110
107
98
64
60
56
30
28
23
42
41
35
82
81
74
122
121
113
137
134
123
128
126
112
156
152
138
146
142
127
163
158
141
162
155
139
157
150
137
59
55
49
105
102
96
77
73
71
40
38
32
91
93
77
113
109
106
128
129
120
174
176
160
170
172
156
166
168
153
155
151
143
92
85
77
137
130
115
124
118
100
108
101
85
107
100
85
90
83
69
107
101
85
111
104
89
92
85
70
115
108
94
125
118
106
108
102
91
124
121
107
127
124
110
83
79
69
91
87
78
116
109
97
65
61
55
145
143
132
94
88
81
29
28
26
51
51
46
82
78
73
113
111
97
131
128
108
143
139
120
156
150
130
155
149
129
156
150
132
157
151
132
170
164
145
154
148
130
151
145
126
158
152
132
155
149
129
153
147
127
146
140
125
139
136
122
146
142
128
147
143
125
155
150
135
153
149
130
140
136
119
127
123
107
135
131
116
122
117
104
82
77
66
105
100
90
143
138
125
134
130
115
161
155
140
157
150
135
153
147
129
138
133
124
104
100
96
141
139
129
155
153
139
147
146
133
141
139
128
152
150
137
156
154
139
156
154
141
155
154
142
147
145
134
145
144
134
144
145
135
146
147
136
147
149
137
148
150
136
153
155
141
153
152
141
149
148
138
151
150
141
146
145
136
147
146
135
141
141
129
146
146
134
145
144
133
142
144
131
144
146
134
141
142
130
142
143
133
137
139
129
125
126
119
115
116
109
114
115
108
114
117
109
112
115
107
107
108
101
113
115
107
111
112
103
105
105
96
76
75
72
111
110
104
104
102
98
104
103
96
97
97
95
96
97
95
94
96
93
90
93
90
90
92
92
93
95
94
92
95
93
87
89
87
87
90
89
80
83
82
81
83
82
78
83
81
81
87
85
83
87
86
92
96
94
84
86
85
89
91
90
90
92
91
89
92
91
92
95
94
92
95
92
92
94
91
89
92
89
91
93
91
86
86
86
115
115
109
162
155
142
124
122
116
150
147
137
130
130
115
112
110
101
115
112
106
47
44
47
93
91
85
117
111
107
43
45
44
129
123
112
101
98
93
43
44
46
121
119
113
76
71
71
76
82
82
117
120
119
48
55
57
46
48
49
145
147
143
106
108
106
122
131
131
113
124
128
72
80
86
70
75
77
180
178
170
127
127
122
125
127
126
123
125
125
64
69
72
61
67
74
105
105
107
37
45
64
42
54
81
65
82
116
176
193
208
220
232
238
60
96
130
41
73
111
40
68
104
113
115
119
92
95
94
85
90
92
88
102
114
87
108
124
47
64
88
19
30
68
32
44
79
47
59
86
38
52
76
89
92
97
88
91
93
116
113
114
76
78
80
68
71
71
76
78
79
65
67
71
64
71
81
52
55
63
69
68
70
128
131
114
137
137
121
147
147
131
142
142
126
146
145
127
150
148
131
147
145
127
143
142
124
133
129
111
146
142
123
114
110
99
130
127
113
123
122
107
133
128
116
130
123
111
94
89
82
68
70
69
150
149
140
97
92
79
59
57
49
110
109
100
175
170
151
180
174
155
166
160
141
164
156
135
95
91
79
48
43
37
123
116
104
118
108
99
85
76
68
143
140
132
154
158
155
143
139
127
57
55
49
114
111
97
156
147
126
180
173
150
152
146
125
139
133
116
149
143
124
160
152
133
173
165
144
175
167
146
162
154
135
108
98
82
104
93
78
116
106
97
82
78
74
66
66
60
53
52
48
38
34
32
50
47
41
78
75
66
95
92
83
132
131
121
137
136
123
156
152
137
165
163
147
152
149
133
144
140
125
150
144
128
151
144
128
159
151
134
59
56
48
95
93
82
79
76
72
37
34
30
82
83
69
108
105
101
129
130
120
161
162
146
163
164
148
155
156
142
155
150
143
86
78
70
138
131
117
138
131
116
130
123
107
131
125
109
92
85
70
91
85
69
103
97
81
92
87
71
103
99
85
118
112
98
110
104
93
96
92
80
87
85
72
71
66
58
90
85
76
121
114
104
60
55
50
153
151
140
90
84
78
27
26
24
46
46
42
80
76
70
109
107
93
137
134
114
139
135
115
151
145
125
152
146
125
160
154
135
151
145
127
153
146
128
148
142
124
138
134
114
120
117
96
121
118
96
128
123
101
119
110
94
67
62
53
56
52
43
101
97
83
91
87
74
47
42
32
52
47
37
47
42
32
52
47
38
36
31
23
55
51
43
139
133
124
134
125
108
129
120
103
147
141
124
151
145
128
145
141
122
132
129
119
99
97
91
142
139
129
146
143
133
161
157
140
151
149
132
156
154
140
156
153
141
157
155
141
158
158
143
155
153
139
157
154
141
158
158
145
162
163
150
164
166
153
158
160
147
158
160
147
164
163
153
158
157
147
156
155
146
154
153
144
153
153
142
147
147
135
144
144
132
145
144
133
143
145
133
138
140
128
144
142
131
142
141
132
136
136
127
123
124
117
117
119
111
117
118
111
113
116
109
118
121
113
113
114
106
121
122
116
115
116
110
101
101
97
82
80
78
104
103
97
117
116
109
113
113
101
103
103
100
99
99
97
88
90
87
80
83
80
84
87
86
90
92
91
88
91
86
93
96
91
93
95
94
89
91
91
95
93
94
87
89
89
88
91
90
86
89
88
96
99
98
81
83
82
94
96
95
97
99
98
100
100
100
102
101
101
99
101
98
92
95
91
94
97
93
91
94
92
88
88
88
116
116
110
167
161
148
125
122
116
152
149
137
129
130
117
111
109
101
109
105
99
44
41
44
93
90
85
122
115
111
46
48
47
125
120
108
115
110
105
58
58
61
100
96
90
88
85
83
82
87
87
111
114
113
48
55
57
48
50
51
144
147
142
97
99
98
121
129
130
112
119
124
77
81
88
75
80
81
190
188
179
139
138
132
121
122
124
121
123
122
58
62
66
57
63
70
88
88
90
37
45
60
35
46
70
46
62
88
62
88
112
58
88
112
34
67
101
37
69
102
39
68
98
118
121
118
83
85
84
93
97
99
91
106
118
84
103
121
49
62
87
18
30
65
33
46
78
55
65
90
40
51
74
87
90
95
92
96
95
152
152
144
85
89
90
68
75
78
67
74
77
70
75
79
64
74
82
47
55
61
61
66
66
123
123
110
125
125
112
143
143
127
146
146
130
137
136
118
137
136
118
132
131
113
138
137
119
129
125
109
132
128
109
112
110
98
135
133
120
113
110
98
123
120
107
126
119
107
87
82
76
68
71
70
146
145
135
96
92
78
61
58
51
109
107
99
175
170
152
170
164
145
157
151
133
162
154
135
90
85
76
50
45
39
138
131
117
117
107
97
88
80
72
142
139
129
160
164
162
150
146
136
66
61
57
119
115
105
138
131
117
166
157
138
158
153
138
111
105
95
152
146
131
162
156
138
176
170
152
171
163
144
164
156
138
134
126
110
123
114
101
108
100
89
68
64
60
70
68
60
73
70
64
84
81
74
119
116
104
145
143
130
128
125
114
139
136
124
145
143
125
159
155
138
133
130
119
160
159
144
144
139
125
144
137
121
148
142
125
152
145
128
67
62
56
72
71
66
74
71
69
39
36
33
82
80
71
115
113
108
130
130
119
167
167
153
156
157
142
154
156
142
156
151
144
86
77
69
134
127
112
139
133
117
127
121
105
128
121
105
96
90
75
104
98
82
104
98
85
102
98
84
108
103
91
118
113
100
104
99
86
94
90
77
94
90
77
63
58
52
95
90
83
122
114
103
62
57
52
155
153
142
84
80
75
28
26
24
48
46
42
73
70
62
102
100
85
132
128
110
145
141
121
155
149
129
152
146
127
160
154
136
133
127
110
126
120
105
73
67
58
41
35
31
49
45
40
49
44
39
95
87
77
104
95
85
74
69
62
65
60
49
146
141
126
141
132
120
56
53
47
70
67
57
70
67
57
86
84
72
71
70
58
85
80
73
129
126
117
151
141
123
116
106
87
158
152
134
160
156
138
142
137
125
127
124
114
105
102
97
134
130
116
140
135
124
146
141
129
128
124
112
152
149
136
151
150
135
153
151
137
156
154
140
142
139
128
157
153
139
157
156
141
170
168
155
173
170
158
168
168
154
164
164
150
163
162
151
162
162
151
162
162
151
152
151
140
149
149
138
151
150
139
150
150
139
143
142
131
145
144
133
139
138
127
142
141
130
137
137
125
137
137
128
122
125
115
117
116
107
119
118
110
112
114
106
110
111
104
108
107
101
102
101
95
123
121
115
113
112
107
83
82
78
108
107
98
119
116
107
111
108
99
105
104
96
95
94
87
84
84
81
78
79
76
84
86
85
88
91
90
92
92
90
97
97
95
94
97
94
89
92
89
92
94
92
88
91
90
92
94
92
83
85
84
93
95
94
93
95
94
95
98
95
101
103
100
100
100
100
94
94
94
97
98
95
98
98
96
94
96
93
96
99
96
95
96
95
112
112
107
168
162
148
129
126
119
159
156
144
129
130
117
117
113
106
116
112
106
45
43
43
92
89
86
128
120
117
50
51
50
123
117
107
101
96
91
84
81
81
120
116
109
97
94
88
84
90
89
114
118
116
54
55
59
50
52
53
146
149
145
99
98
97
122
128
130
112
117
123
78
82
89
77
81
83
182
181
172
134
131
125
116
119
119
118
120
121
53
54
61
55
60
68
99
100
100
43
48
59
30
40
60
32
46
69
30
49
70
28
50
71
30
51
79
36
58
91
49
67
93
107
110
109
74
75
77
94
97
100
91
106
118
78
100
117
47
59
86
18
29
63
33
46
77
57
65
88
40
52
77
70
74
87
83
90
92
163
163
155
83
91
92
72
83
89
76
85
89
71
80
84
61
74
84
35
44
55
54
60
66
125
125
112
134
134
120
138
139
123
140
140
124
144
143
126
135
133
116
132
131
113
136
134
117
121
117
102
154
151
130
114
112
100
135
133
120
123
121
107
118
115
103
140
133
123
100
96
90
63
66
66
139
139
128
94
89
75
61
59
51
107
106
97
174
169
152
170
164
146
162
156
138
162
154
134
91
86
77
50
44
38
137
130
117
122
113
104
85
78
69
139
134
126
144
140
138
143
137
128
88
83
71
120
115
105
133
127
112
154
147
130
127
122
110
43
38
35
142
137
126
163
157
140
172
166
147
174
166
147
168
160
141
148
139
123
179
172
155
179
172
155
140
138
120
129
128
109
117
114
98
145
142
128
165
163
145
158
154
137
136
132
116
141
139
127
144
141
123
139
134
118
87
83
74
125
125
109
139
134
120
135
127
114
140
134
119
131
125
112
85
76
66
72
64
53
84
79
78
45
42
39
90
87
79
108
105
98
127
127
116
161
161
148
150
152
136
155
155
142
157
151
144
86
76
69
131
123
109
138
132
115
118
112
96
127
121
105
102
95
80
116
109
94
119
114
100
130
126
112
144
139
126
134
130
114
133
128
113
128
123
107
121
116
100
90
85
74
94
90
82
115
108
96
60
55
50
150
148
137
82
79
73
26
24
23
44
42
38
70
67
59
95
93
77
133
129
110
147
143
122
150
144
124
155
149
130
148
143
123
93
88
71
89
82
69
78
72
65
83
80
69
96
93
83
110
107
98
132
125
113
121
111
97
91
85
75
76
71
60
163
159
144
158
149
137
67
65
58
93
90
80
84
81
70
104
102
90
89
88
75
97
93
85
126
123
114
149
145
125
141
136
115
161
158
139
158
154
136
138
133
123
122
119
109
107
104
97
151
146
132
147
143
126
143
138
123
133
129
118
130
127
115
137
135
122
150
147
134
141
136
125
143
138
129
163
158
145
141
137
125
167
165
152
169
167
154
165
164
151
158
158
144
155
154
143
156
156
144
155
155
143
150
149
138
149
148
137
145
144
133
140
139
128
139
139
128
144
144
133
141
141
129
141
140
129
123
122
111
135
136
126
117
120
110
117
116
108
113
112
103
107
108
101
108
109
101
111
110
102
84
83
77
105
104
98
127
125
120
80
79
75
117
116
108
117
114
106
107
104
96
91
90
83
89
88
80
77
81
77
74
78
74
83
86
85
97
99
98
99
100
98
96
97
95
94
96
93
93
96
92
92
95
91
91
94
90
100
103
100
96
99
97
97
99
98
97
99
98
97
100
97
97
100
96
100
100
100
94
95
94
100
100
98
99
100
97
93
96
93
89
92
89
88
88
87
107
107
102
168
162
147
124
121
113
154
151
139
132
132
120
115
111
104
115
111
105
45
42
43
80
78
74
109
100
97
59
57
56
119
115
106
109
103
98
91
88
84
83
78
74
104
102
92
89
94
90
113
117
115
51
53
57
51
54
54
144
147
142
99
98
98
120
126
127
112
118
123
78
82
89
80
83
85
182
181
171
133
131
122
118
121
119
122
125
125
49
50
57
56
59
66
82
85
87
67
68
75
50
58
65
56
64
73
64
67
77
52
57
64
77
81
87
83
86
95
73
81
89
92
96
97
71
78
85
97
100
103
87
103
115
82
102
120
47
60
86
18
29
63
32
46
76
54
68
89
41
55
79
62
70
89
76
83
94
153
153
146
90
98
98
82
90
94
85
90
91
75
84
86
66
78
91
49
58
70
62
69
76
127
131
116
127
131
116
136
137
123
129
131
117
132
131
116
127
125
110
125
123
105
134
132
115
119
115
100
133
129
116
106
104
92
134
133
119
140
140
125
135
131
114
123
119
106
90
88
81
63
70
70
139
135
126
90
83
69
64
60
51
106
106
97
177
171
154
179
173
155
168
162
143
159
151
132
86
81
72
50
44
38
94
86
77
142
132
123
86
77
70
147
142
132
113
106
103
134
127
117
97
93
78
103
98
91
117
114
108
120
117
105
137
131
117
107
102
94
149
144
133
153
146
131
174
168
147
179
172
150
168
162
143
155
149
129
156
150
129
141
136
121
137
133
117
141
138
121
147
141
124
163
160
141
160
158
139
155
153
139
128
126
113
132
129
117
150
148
130
154
152
133
133
130
119
139
136
120
145
141
126
145
139
131
148
142
128
108
102
94
107
99
89
82
77
65
92
85
81
45
44
40
92
91
82
105
100
94
120
121
113
160
160
146
152
152
137
147
147
132
155
149
140
86
80
70
126
120
105
137
131
111
127
120
102
140
134
116
122
118
102
131
127
110
138
134
117
132
128
112
130
125
110
129
125
112
123
118
106
115
110
96
120
115
101
105
100
89
101
94
88
105
96
85
66
62
57
157
156
146
84
80
75
22
22
21
39
40
34
71
67
59
104
99
86
133
127
110
149
143
125
146
142
122
154
149
129
139
133
116
98
94
79
111
107
92
86
82
71
102
101
90
88
85
74
115
112
102
136
131
119
124
115
100
95
89
78
86
82
71
162
159
143
160
152
136
69
67
58
95
92
80
88
85
77
103
100
88
98
96
83
103
99
89
129
126
115
151
148
133
142
139
125
153
149
134
135
132
117
124
122
111
90
88
82
120
119
111
134
129
118
143
140
125
129
125
116
132
128
117
133
129
115
126
122
111
147
144
131
148
143
131
153
148
138
154
149
139
150
145
137
157
156
145
161
161
149
166
166
153
160
160
146
159
159
147
159
160
145
157
156
145
151
150
139
150
149
138
149
148
137
140
142
130
141
143
131
138
138
127
136
135
124
136
135
126
127
126
117
125
124
115
117
117
108
118
120
112
116
117
110
114
115
108
109
110
103
107
109
102
101
102
94
110
108
102
76
75
70
69
68
64
82
81
73
109
106
98
87
83
76
75
73
69
75
74
70
70
72
69
76
78
75
83
86
85
88
91
90
90
92
91
93
95
95
88
90
88
89
91
89
95
97
97
92
94
93
91
93
92
95
97
96
94
96
95
98
100
99
95
97
96
97
99
98
98
100
99
97
99
98
94
97
96
92
94
93
98
100
99
89
92
91
93
93
92
106
106
101
172
166
151
119
117
109
157
154
143
138
139
127
114
115
107
118
115
106
43
43
43
89
87
82
116
105
96
54
51
48
139
136
128
121
116
109
88
85
82
84
81
78
114
109
101
91
94
93
105
107
106
47
52
56
50
54
52
143
144
138
97
100
98
118
126
127
111
118
123
75
78
86
85
87
87
180
179
169
135
133
123
115
119
119
117
121
123
46
48
57
56
60
65
53
57
59
81
84
87
92
96
100
42
48
57
91
93
95
45
47
51
70
74
74
83
86
95
74
87
93
83
86
89
72
76
84
97
100
103
91
107
118
86
104
119
47
58
83
19
28
63
33
43
80
44
60
89
45
58
82
66
72
88
72
79
90
153
153
150
88
92
95
79
83
86
82
89
92
76
83
87
69
80
92
47
56
67
64
72
76
125
130
114
121
126
111
121
124
110
122
122
108
142
140
125
129
127
112
129
127
109
127
125
108
137
134
116
144
140
123
105
103
92
111
110
98
109
109
96
145
142
124
106
103
90
100
98
90
61
65
67
149
146
138
90
82
68
66
61
52
104
103
94
174
169
150
173
167
148
164
158
140
163
155
136
83
78
69
48
42
38
123
117
104
177
169
148
87
78
69
140
136
126
144
140
133
147
139
129
67
61
52
120
115
100
83
81
74
123
121
111
140
134
118
143
137
120
143
137
120
145
139
121
184
178
159
183
175
155
167
161
139
157
152
132
155
150
131
109
105
93
54
46
41
61
54
45
138
131
119
158
154
136
153
151
132
155
152
134
139
135
118
132
128
117
139
137
121
145
143
124
149
147
129
144
140
122
145
140
125
147
140
129
163
157
145
145
138
127
70
64
59
97
90
82
95
89
84
48
48
43
99
98
89
112
106
100
123
124
116
160
160
147
146
146
132
147
144
132
156
150
141
89
83
73
121
116
101
140
134
113
143
137
118
147
141
122
126
122
106
149
145
129
167
163
146
128
124
107
139
132
117
128
124
112
121
116
104
120
116
102
111
107
93
93
88
77
99
93
86
107
98
86
67
63
58
147
146
136
81
77
72
23
23
21
31
32
26
52
50
40
74
72
61
93
89
76
99
96
83
98
96
85
109
104
95
104
100
89
99
94
85
96
92
83
85
82
74
77
75
66
84
81
71
100
97
86
145
140
127
125
116
102
93
87
77
92
89
76
165
161
145
164
156
140
76
74
64
100
98
87
92
89
81
97
94
83
96
94
81
97
95
85
100
97
86
119
115
101
121
117
103
116
112
99
111
107
93
84
82
72
62
61
57
62
60
53
99
94
83
97
93
80
125
124
104
132
130
113
126
124
108
130
128
111
127
125
109
146
142
127
149
145
131
140
135
122
145
141
128
142
141
128
153
153
139
156
155
143
149
149
136
160
160
146
150
150
138
146
146
135
142
141
131
138
138
127
129
128
118
126
127
116
123
125
114
128
128
117
122
121
111
121
120
112
113
112
104
112
111
102
101
100
92
99
101
92
99
100
91
94
95
89
95
96
90
90
91
85
92
93
86
91
90
83
83
82
77
62
61
57
70
68
60
70
67
60
83
80
74
80
78
74
63
61
60
63
65
62
72
74
71
74
77
76
73
75
74
81
83
83
73
76
76
77
79
77
78
81
80
77
79
79
77
80
78
71
76
74
71
76
74
74
77
75
81
83
81
83
85
85
77
79
79
71
74
73
81
84
83
78
80
79
79
81
80
85
87
86
87
87
86
88
88
86
98
98
93
168
162
147
117
114
107
158
155
144
139
140
128
111
112
103
115
111
102
44
43
43
92
91
85
115
104
96
51
48
44
99
97
92
94
92
87
72
70
64
73
70
65
103
98
91
98
100
100
99
102
100
48
53
56
51
56
53
143
144
138
97
100
98
114
122
123
107
114
119
73
75
82
87
89
89
175
174
164
134
132
123
115
118
119
118
122
124
43
46
55
56
60
66
52
56
59
85
88
92
62
65
69
50
57
62
75
77
82
42
45
49
73
77
79
90
92
98
81
87
93
73
76
79
67
70
78
92
95
98
85
101
112
80
98
109
50
61
81
24
32
62
58
61
81
71
77
95
50
60
83
63
72
88
70
81
90
153
153
150
85
88
92
81
85
88
79
85
89
84
91
95
76
87
99
46
55
67
67
74
78
122
130
113
123
128
113
118
121
108
116
115
104
124
122
107
126
124
109
123
121
104
130
128
110
135
132
113
150
146
128
101
97
91
72
69
61
134
132
116
129
127
114
165
162
146
93
90
82
62
65
65
155
150
141
93
85
72
66
62
53
101
99
91
169
165
147
169
164
147
163
156
140
162
154
135
83
79
69
52
46
41
92
84
75
113
104
95
85
78
73
137
133
122
152
148
140
163
155
144
44
41
36
58
56
51
90
90
85
126
123
114
149
143
124
151
144
125
147
141
122
145
137
117
190
182
164
176
168
151
160
154
137
129
123
110
105
101
90
118
115
103
70
67
60
58
55
52
136
129
119
162
155
139
141
135
123
149
142
125
140
136
116
146
141
131
113
108
95
129
127
110
150
148
131
144
140
125
140
135
121
164
160
145
167
162
149
164
159
143
62
58
52
53
49
42
86
82
77
31
30
26
62
60
51
106
100
94
118
118
111
148
147
136
153
152
141
143
140
128
154
150
140
89
84
73
117
112
98
148
141
121
159
152
134
161
152
135
122
117
102
153
147
131
179
177
158
145
142
124
144
140
125
136
131
117
129
124
110
126
122
107
106
102
88
98
93
82
93
89
80
105
95
84
68
65
60
147
147
136
81
78
73
23
23
23
36
36
35
66
65
59
91
91
80
126
124
111
128
126
112
137
135
121
135
132
117
127
124
109
128
124
113
106
104
94
112
111
101
101
98
89
91
87
77
113
109
96
103
97
84
113
104
92
104
97
84
110
105
92
171
166
150
163
155
140
66
64
55
78
75
65
88
85
76
136
134
120
127
126
114
116
115
105
119
112
103
129
124
110
126
120
105
131
125
107
133
128
110
139
136
125
104
101
94
92
90
83
132
130
114
135
134
116
147
145
129
143
140
126
140
138
124
144
141
129
150
148
134
145
143
128
142
140
126
143
141
128
145
143
131
122
120
107
144
142
131
139
136
126
121
118
110
140
140
127
141
141
128
141
141
129
136
136
124
145
144
135
133
133
124
118
117
108
123
122
112
107
107
97
108
107
98
122
122
112
112
112
102
123
123
113
111
110
101
114
113
104
112
111
103
110
109
100
103
102
93
101
100
92
108
108
100
95
93
87
94
93
88
61
59
56
89
88
79
110
108
99
104
106
101
96
99
96
96
98
95
93
97
95
92
97
95
96
99
98
81
83
82
79
81
80
73
75
74
60
65
63
75
80
78
81
83
80
74
77
73
83
85
84
68
70
69
90
95
90
93
96
94
88
90
90
94
96
95
93
96
92
100
102
99
103
106
102
101
102
99
116
116
114
96
96
94
90
88
85
100
99
93
166
156
144
119
115
111
152
149
138
139
140
127
114
113
104
114
111
104
41
41
40
96
94
89
114
104
97
46
43
41
95
96
93
82
80
78
43
39
36
105
103
98
68
65
63
77
80
81
95
99
98
47
51
55
55
57
55
147
148
142
98
97
97
120
125
125
110
116
118
76
78
81
90
93
90
174
172
159
130
128
119
116
120
119
117
119
121
38
39
46
55
57
65
54
58
60
90
95
96
73
76
79
50
55
62
58
62
67
41
47
55
59
68
79
55
61
75
49
56
70
72
77
81
71
79
87
88
88
94
87
99
110
87
96
107
51
59
75
43
46
64
56
56
67
84
88
94
56
64
79
66
74
92
71
81
91
153
153
150
92
94
99
83
88
93
76
81
85
88
95
97
76
86
97
52
60
74
66
74
78
123
131
114
122
127
112
121
124
112
127
126
115
128
126
112
125
123
108
126
123
106
134
131
114
149
147
127
149
146
128
111
109
97
123
120
109
137
135
120
117
116
105
152
150
134
89
84
77
63
65
63
151
145
138
94
86
74
66
62
52
100
98
90
167
163
144
167
162
145
160
153
137
167
158
140
84
79
71
56
51
46
125
118
109
104
95
86
68
61
56
142
139
127
145
141
132
158
150
137
33
31
28
68
71
66
87
92
95
81
82
78
138
129
117
103
94
79
134
126
106
155
147
128
185
177
160
113
106
95
126
120
109
125
120
108
173
168
157
179
175
159
177
174
157
172
174
160
175
173
159
162
157
144
99
91
76
160
153
135
118
112
96
127
121
111
98
93
83
107
105
89
149
147
130
147
143
128
137
132
118
157
153
135
165
161
144
162
157
140
59
56
50
82
78
71
87
84
79
30
29
25
72
69
62
109
103
96
124
125
116
154
153
138
160
159
145
154
151
139
158
154
144
98
92
81
125
120
105
163
157
137
171
164
146
166
159
141
134
129
113
150
144
128
181
179
160
155
152
133
153
149
135
142
138
123
126
121
107
119
114
100
121
116
102
90
86
74
95
90
81
102
92
81
64
61
55
153
153
142
81
77
73
26
25
25
39
39
38
68
67
61
101
101
90
129
126
112
137
135
120
146
145
128
147
143
127
131
128
113
143
141
129
118
117
108
149
148
138
136
133
122
119
116
104
120
115
104
128
122
110
147
140
128
124
117
105
117
111
98
135
130
115
138
131
118
76
72
63
79
76
70
105
103
94
143
141
124
61
58
52
76
74
70
136
133
119
117
112
98
145
141
126
140
137
123
144
141
127
142
140
124
139
136
124
139
136
127
138
136
121
135
133
116
147
145
129
133
131
119
143
142
129
153
153
139
155
154
141
149
147
132
143
141
126
147
145
132
140
137
124
141
139
125
150
147
134
156
154
139
145
143
128
155
155
140
156
155
141
146
146
133
135
135
123
136
136
126
129
128
118
129
128
118
131
130
118
129
129
116
126
126
113
119
119
107
115
114
103
119
118
108
117
116
107
114
114
103
111
111
100
109
108
99
105
104
95
104
103
94
98
97
88
102
101
94
103
102
95
77
76
72
117
116
106
123
118
107
108
107
98
96
99
95
98
101
98
102
107
105
99
104
103
97
100
99
95
97
96
83
85
84
81
83
82
81
86
84
86
90
88
67
68
67
70
72
71
82
83
83
54
56
55
85
88
84
73
75
73
94
97
96
93
95
94
92
94
91
94
97
94
86
89
86
98
98
95
97
98
95
88
86
84
85
84
79
85
84
79
167
158
146
119
115
111
153
151
139
138
138
126
119
119
110
113
110
102
40
40
40
86
85
81
109
100
94
50
46
44
151
153
146
106
109
107
33
32
30
133
131
116
73
70
65
79
82
80
93
97
95
47
51
55
56
58
56
151
151
146
97
95
94
118
123
123
108
114
116
77
79
82
91
94
91
174
172
159
123
120
112
115
118
117
113
115
119
35
37
42
55
58
65
55
59
61
80
84
87
67
71
74
67
73
76
47
53
60
40
49
60
62
68
77
76
79
86
74
77
83
75
77
80
76
82
86
95
95
101
83
94
105
89
94
104
56
59
72
30
34
47
85
86
91
94
97
104
58
66
79
66
74
88
75
85
98
146
145
143
94
97
102
82
88
93
76
80
85
81
88
90
72
82
93
48
57
66
63
70
74
124
128
116
120
125
112
124
126
114
132
133
122
136
134
117
130
128
111
126
123
106
127
123
106
124
121
102
136
132
116
116
114
100
142
140
126
158
155
143
146
145
132
120
117
103
93
89
80
58
60
59
152
147
140
97
90
75
69
65
52
101
102
95
157
151
136
154
144
131
153
144
127
131
123
107
73
67
63
48
44
38
126
119
111
109
101
91
74
67
62
132
129
117
146
142
132
162
156
142
34
33
29
72
73
67
106
109
108
96
101
96
123
118
103
109
100
86
141
134
115
166
159
141
171
161
142
81
74
65
118
114
101
148
144
128
172
168
151
168
165
147
168
164
146
163
160
141
168
165
145
158
153
138
113
104
89
119
111
97
84
77
64
101
96
84
92
87
79
91
86
76
145
140
127
148
146
131
143
141
125
158
154
136
164
160
141
160
155
139
56
53
45
92
87
78
89
84
80
33
31
29
81
78
73
114
109
102
112
112
105
129
129
117
129
130
117
133
131
119
141
136
127
95
88
78
166
162
145
180
174
154
180
174
156
173
170
151
133
131
114
165
161
145
180
176
159
158
154
137
152
147
131
149
145
128
139
135
119
128
124
109
122
117
103
87
82
72
95
90
82
105
94
84
61
58
53
154
154
143
79
75
71
26
26
23
40
40
37
68
67
61
94
93
84
126
123
110
141
139
124
143
141
125
147
145
128
137
134
121
135
134
124
114
113
106
131
132
125
136
135
122
138
136
122
148
144
131
127
122
109
125
120
109
148
142
130
136
131
119
110
105
92
129
125
111
142
138
125
132
129
118
127
125
113
146
144
128
97
94
86
89
86
81
121
120
106
148
148
132
152
152
136
145
144
131
140
137
125
142
140
126
148
146
134
148
145
135
133
131
115
141
139
121
139
137
122
107
106
92
145
143
129
150
149
133
149
149
135
146
144
131
145
142
129
146
147
131
146
146
131
151
148
134
151
148
133
153
153
137
153
150
135
149
147
134
150
147
135
141
139
126
132
131
118
141
140
129
136
135
125
128
128
117
134
133
122
123
123
111
120
120
108
122
122
110
121
121
110
126
123
112
118
116
105
119
118
109
113
112
104
113
112
103
113
112
104
108
108
99
103
102
92
101
100
91
102
101
93
81
80
76
126
125
115
124
119
108
111
109
101
102
104
100
105
107
107
97
102
100
98
103
101
97
100
97
97
100
97
90
95
93
91
95
94
87
91
90
68
72
71
43
47
46
60
63
66
69
69
69
58
61
60
97
99
99
88
90
91
96
98
95
87
90
87
89
91
90
80
83
82
78
81
78
99
100
94
78
79
74
89
87
83
86
84
80
107
105
102
164
157
143
119
116
109
155
150
139
141
139
127
115
118
108
110
110
102
40
40
43
87
86
83
112
103
95
48
44
40
153
153
144
99
102
100
34
32
30
121
119
108
69
66
61
92
96
94
93
97
98
50
53
55
56
59
57
153
153
147
96
95
90
116
121
121
109
115
116
73
75
76
87
89
90
174
172
160
125
122
111
119
121
121
112
118
119
31
34
39
53
57
65
53
55
61
45
49
54
51
55
61
46
52
57
45
50
56
50
54
62
77
80
87
77
80
87
73
77
82
72
74
78
73
76
81
100
104
108
92
99
107
90
95
106
54
59
69
61
63
69
67
72
77
61
65
70
76
83
91
63
73
85
77
87
99
141
142
142
84
89
93
83
91
92
77
83
87
81
86
90
70
78
91
45
51
63
59
68
72
126
130
118
122
126
113
130
132
119
125
126
114
133
131
116
122
120
103
123
121
103
126
124
107
126
122
105
128
124
109
116
113
101
138
136
122
139
137
124
139
138
124
136
133
119
98
94
86
55
57
56
147
142
134
99
93
78
70
66
53
95
97
89
142
134
122
125
114
103
155
146
136
120
112
96
70
65
57
48
44
39
102
96
85
105
96
85
82
76
71
130
125
115
137
132
122
160
153
140
39
38
33
56
56
50
63
59
50
98
93
79
109
103
87
114
106
92
142
135
118
166
159
142
196
186
166
119
113
105
120
116
104
156
151
136
144
141
126
133
129
113
157
153
136
142
138
120
125
120
103
149
142
123
164
158
138
134
127
111
99
94
80
133
129
114
88
83
75
70
65
56
126
122
108
137
135
120
139
137
122
157
153
135
161
158
139
158
153
137
52
49
41
86
81
72
85
80
77
35
33
32
77
75
70
114
108
101
93
91
85
124
123
113
121
118
109
120
118
107
146
141
131
100
91
83
135
131
115
171
168
149
176
171
153
169
166
147
126
122
105
165
161
144
190
186
169
158
154
138
152
147
131
155
151
135
153
149
132
158
154
139
141
137
123
90
86
76
97
91
85
103
92
82
61
58
53
127
127
115
81
78
73
26
26
23
42
42
39
73
71
66
94
93
84
115
113
99
129
127
112
147
144
129
142
140
125
146
144
129
159
159
146
141
141
130
157
157
146
141
141
126
142
140
125
135
132
119
133
128
116
139
134
122
121
116
104
135
130
118
128
123
111
136
131
116
153
149
133
149
147
131
153
151
134
166
165
144
150
148
132
119
117
104
130
129
115
152
153
138
148
148
134
137
137
123
138
136
123
132
130
117
142
140
128
136
133
123
137
135
119
147
145
127
152
150
132
158
154
138
140
137
122
145
144
129
150
149
136
150
148
135
143
140
127
149
150
134
153
154
138
149
146
131
154
152
137
151
151
135
149
147
131
146
144
131
153
150
137
139
138
125
126
125
112
138
138
127
134
134
123
133
133
121
128
128
116
119
118
107
123
123
112
122
121
110
125
125
113
127
124
114
126
123
113
122
121
112
120
119
110
117
116
107
113
112
103
110
109
101
108
107
97
109
108
98
103
102
92
93
92
87
131
130
121
129
126
115
113
111
104
105
106
101
104
104
103
99
104
102
94
98
97
94
97
94
96
98
95
94
99
97
84
89
88
85
89
88
71
75
76
55
58
56
70
74
73
71
71
71
63
66
65
98
100
97
89
92
89
97
100
97
95
97
94
87
89
88
87
89
88
82
84
82
89
89
84
110
111
104
102
101
95
95
95
86
114
113
104
160
154
138
113
110
104
146
145
132
132
134
121
111
114
104
112
113
105
43
43
46
87
86
83
116
108
99
45
40
36
139
140
133
92
93
91
38
36
34
118
117
108
70
68
62
91
95
93
93
97
97
51
54
55
58
62
59
152
153
146
98
96
92
109
114
114
107
113
114
73
75
77
82
85
86
173
171
159
120
120
106
115
121
119
111
115
115
29
30
34
56
61
65
57
61
63
67
71
73
63
67
67
69
71
73
73
75
76
57
59
66
68
72
78
72
78
80
70
75
76
81
84
87
84
86
89
110
113
117
88
93
100
88
93
98
49
55
65
79
83
86
75
80
83
85
89
96
44
53
63
59
69
81
75
85
97
130
131
132
83
88
92
82
90
91
77
83
86
78
86
89
70
81
93
44
50
63
51
60
64
131
136
123
128
132
119
138
140
130
133
135
123
150
150
137
126
126
110
133
131
115
138
136
119
133
129
112
133
129
114
121
119
109
136
133
121
131
128
114
132
130
116
127
123
110
93
89
81
56
56
54
143
141
133
95
89
72
66
62
48
90
91
81
140
135
118
123
116
102
119
114
104
143
135
118
67
62
53
50
47
42
116
111
101
102
92
83
82
77
71
135
128
120
137
131
121
162
154
143
38
37
34
58
55
49
91
83
68
106
97
80
108
101
83
105
99
83
133
126
111
161
152
137
184
175
157
95
89
82
116
112
102
143
138
123
105
100
90
85
77
70
139
129
116
122
116
104
46
43
37
92
87
78
125
118
102
127
121
102
79
76
68
130
124
114
87
81
75
60
55
45
111
109
96
127
125
112
136
134
121
158
155
141
158
151
134
154
149
133
54
50
43
74
71
64
87
81
79
40
38
38
79
76
73
112
107
99
104
103
95
117
114
108
89
86
82
139
136
129
143
140
129
110
103
95
142
139
122
156
153
134
161
157
140
153
149
133
125
121
104
174
170
153
191
187
170
164
160
144
157
152
136
168
164
147
157
153
136
158
154
137
160
156
140
123
120
110
89
82
75
103
94
81
63
63
55
137
133
127
81
75
73
28
28
27
44
44
43
68
67
60
97
96
85
112
110
98
122
119
107
128
126
112
143
141
126
137
135
122
142
140
127
146
144
131
144
143
130
131
129
116
143
141
128
144
139
127
128
123
111
125
120
108
134
129
117
127
121
112
118
113
102
133
128
114
146
142
127
160
158
143
152
150
135
160
159
142
157
155
139
158
156
142
147
145
129
157
155
139
160
158
143
157
155
142
145
143
130
156
151
139
144
139
127
140
138
128
147
142
131
144
142
125
144
143
125
145
140
126
144
140
125
149
145
130
146
142
128
147
144
131
143
141
128
147
144
131
149
148
134
152
149
136
151
149
136
153
151
137
145
143
129
146
146
132
148
148
134
136
134
121
128
126
113
131
130
119
139
139
128
131
130
119
127
127
115
108
105
95
116
114
103
112
109
99
124
121
111
126
125
116
123
122
114
123
122
113
120
119
110
119
118
109
117
116
107
116
115
107
108
107
98
106
105
97
110
108
100
109
105
98
131
127
119
119
116
107
110
109
102
108
109
103
110
111
108
99
104
99
95
100
99
93
96
95
96
98
98
87
92
92
79
84
84
83
88
88
67
71
73
29
31
35
86
91
94
97
98
97
68
71
71
104
106
104
100
102
99
100
103
100
100
103
100
90
95
93
80
84
83
89
92
90
77
80
77
114
115
111
84
82
83
117
116
114
73
69
65
158
151
136
117
115
107
150
148
134
136
136
125
108
111
104
110
111
104
42
42
43
84
83
79
113
102
97
45
40
38
141
142
130
95
96
93
39
35
33
125
121
114
74
71
68
93
98
95
93
95
95
53
54
57
55
59
55
150
151
142
100
98
95
108
113
112
102
104
105
70
70
72
83
86
86
176
175
159
129
127
112
105
114
111
101
104
108
17
17
21
45
49
53
47
51
54
41
43
46
43
45
49
64
67
66
84
87
82
53
55
59
60
62
67
61
66
71
54
57
61
88
90
92
109
109
112
106
107
112
107
109
111
102
106
108
48
54
68
43
46
59
49
53
64
73
76
86
46
52
67
61
68
79
77
86
97
133
132
132
90
95
98
85
90
93
75
84
85
75
83
87
64
75
86
49
56
68
62
68
72
134
138
125
135
139
127
130
132
122
144
146
134
144
144
132
133
133
118
129
129
114
138
136
121
139
137
121
158
154
139
117
111
102
137
135
123
141
139
124
139
137
123
121
118
106
94
90
83
54
53
53
128
125
117
94
87
75
63
58
48
104
103
94
158
154
137
138
134
118
115
108
89
136
128
110
68
63
54
51
47
42
114
108
99
106
95
86
82
78
72
143
137
126
145
138
126
165
157
146
39
38
35
53
49
47
88
80
68
114
106
88
114
106
89
113
106
90
148
142
126
170
161
146
176
168
151
84
79
71
61
58
49
110
102
89
101
97
87
100
96
89
143
136
123
107
101
90
49
47
41
87
82
72
133
125
107
136
129
111
62
59
49
129
123
113
86
79
74
57
52
43
106
105
91
129
127
114
144
141
128
164
161
147
154
147
130
156
151
135
56
52
45
86
84
77
87
81
78
41
39
36
76
73
66
113
107
97
103
103
93
110
110
100
113
112
105
86
86
83
142
142
134
111
104
96
150
148
130
161
158
141
163
159
142
164
160
143
157
152
135
175
171
155
190
186
169
176
172
155
173
169
152
178
174
157
168
164
148
160
156
139
138
133
117
103
99
89
83
76
68
101
91
79
65
65
57
147
143
133
82
77
73
28
28
27
43
44
42
71
70
63
96
95
84
120
117
106
128
126
114
135
133
120
140
138
125
140
138
125
143
140
128
135
132
120
133
130
117
134
131
118
133
131
118
133
129
117
131
127
115
134
129
117
128
125
112
134
128
118
119
114
103
132
128
115
159
156
141
163
160
145
157
154
139
162
160
145
162
160
144
154
151
137
154
152
135
164
161
146
166
164
149
160
158
145
162
159
147
152
150
137
142
141
127
132
130
118
132
128
112
148
146
128
149
148
130
145
141
126
142
138
123
147
143
128
145
141
126
149
146
133
145
143
130
150
146
134
152
150
137
154
151
139
157
154
141
153
151
136
146
144
129
145
144
131
145
145
131
141
138
126
129
126
114
142
142
130
135
134
123
131
131
119
121
121
110
114
111
101
120
117
107
120
117
107
122
119
109
122
121
112
118
117
108
124
123
114
119
118
109
120
119
110
118
117
108
115
114
105
110
109
102
110
109
101
116
115
106
104
99
95
134
131
121
121
120
111
117
115
109
107
107
100
107
107
102
105
110
103
99
104
101
98
103
101
88
94
91
90
95
92
91
96
92
78
83
82
66
70
74
30
31
36
98
104
106
89
90
88
64
67
67
99
102
99
101
104
100
98
101
98
93
96
93
84
89
88
80
85
84
74
77
75
57
60
58
97
98
92
88
86
87
100
98
97
80
75
73
158
149
135
114
111
103
148
146
132
130
131
120
106
109
102
105
105
99
40
40
41
86
86
81
110
100
94
47
43
41
139
144
129
99
103
99
39
35
34
111
106
94
70
67
64
90
94
92
91
93
93
54
54
58
55
59
55
154
155
145
99
97
94
114
118
118
107
109
110
72
72
74
69
71
70
147
145
134
124
116
102
104
109
108
98
105
109
59
63
66
23
28
32
38
42
45
94
96
95
72
73
72
66
66
69
79
81
83
77
77
82
76
77
82
75
76
79
72
73
75
98
98
100
129
129
130
104
104
111
80
81
83
84
87
89
45
53
66
36
40
54
51
55
68
60
61
75
39
51
66
64
71
83
81
90
100
129
128
128
76
81
84
82
87
90
80
88
90
78
85
87
67
77
91
51
58
70
79
85
89
133
139
125
140
142
131
130
132
122
132
134
121
143
144
129
143
144
126
128
129
113
125
123
108
140
138
122
154
151
131
121
118
106
138
135
121
140
138
126
129
125
117
121
116
106
90
86
79
54
56
53
142
138
129
97
86
75
61
56
46
105
104
94
162
156
140
161
156
138
145
138
119
141
133
114
68
63
53
54
48
43
130
122
112
104
93
83
84
80
72
138
131
123
139
131
121
168
161
148
45
42
38
46
43
40
76
70
60
100
94
78
105
98
83
119
111
95
151
142
125
175
166
149
183
175
156
89
84
78
63
61
54
155
148
134
133
129
118
107
103
94
126
119
106
124
118
111
66
63
58
86
83
71
151
146
123
144
137
119
56
53
45
131
127
115
93
89
82
55
52
46
104
102
89
129
126
113
139
137
124
157
157
143
151
147
129
151
146
130
52
47
40
77
72
66
87
81
79
40
38
35
78
77
69
113
108
98
103
103
91
140
139
124
112
111
97
135
136
124
159
154
141
114
107
96
147
146
130
169
165
148
159
154
137
154
152
132
176
174
154
183
179
161
182
178
161
168
164
145
168
164
145
175
172
153
172
168
152
164
157
141
144
138
124
107
102
89
102
97
89
99
90
78
78
75
66
153
152
137
86
83
75
28
28
27
44
44
42
68
67
61
90
89
80
114
112
98
125
122
109
138
136
123
147
145
132
141
139
126
139
136
123
139
136
123
132
129
116
132
130
117
139
136
124
134
129
118
125
121
109
114
112
100
114
112
99
127
124
111
133
130
116
151
149
134
156
155
140
164
161
146
159
157
142
163
161
146
163
161
146
156
151
137
158
154
139
160
158
143
167
165
150
162
162
147
165
161
145
158
154
138
145
143
130
134
131
121
132
129
113
145
142
127
143
141
126
142
138
123
143
139
125
143
142
126
143
143
127
145
142
129
147
144
131
150
147
134
156
153
141
153
153
139
154
154
141
155
152
139
153
150
137
153
151
136
147
145
129
142
142
129
129
128
115
129
125
113
134
133
120
133
132
122
124
123
113
105
105
94
116
115
104
118
117
106
123
122
111
120
119
111
120
119
110
120
119
110
121
120
112
121
120
112
115
115
106
110
109
103
107
106
100
108
107
99
112
111
103
101
100
95
115
115
104
115
114
105
107
106
100
105
106
99
110
112
107
112
115
111
101
104
101
98
101
97
90
93
92
81
86
84
108
113
110
94
99
95
69
73
75
26
31
36
94
100
101
90
90
88
67
72
72
100
102
101
104
106
105
98
100
98
98
100
98
86
91
89
78
83
82
70
76
75
74
75
73
74
74
69
87
85
82
83
81
76
100
96
94
154
143
126
117
114
106
148
147
136
138
141
129
107
109
103
108
108
101
40
38
40
99
97
92
115
108
100
47
44
43
128
134
118
94
103
97
34
33
32
106
103
89
69
69
65
85
88
86
89
93
94
53
55
57
58
60
58
154
152
147
98
96
93
115
120
120
106
112
112
71
73
75
72
71
71
161
154
148
116
108
103
89
93
94
90
100
100
94
105
105
61
67
71
63
66
67
85
83
80
84
84
82
84
83
84
77
78
81
86
84
84
83
85
89
89
90
93
90
90
93
112
113
113
115
115
116
122
125
128
47
49
52
88
94
99
50
60
74
29
34
47
48
53
66
50
52
66
54
61
69
58
63
74
81
88
95
128
129
128
75
81
84
83
87
90
76
81
84
73
78
84
73
84
95
49
54
64
66
72
74
138
142
131
127
128
119
128
130
120
121
125
110
160
161
145
130
130
117
141
141
128
132
129
116
136
134
121
143
139
123
121
119
107
123
121
107
119
117
109
116
114
102
111
110
99
88
87
80
58
60
57
153
149
139
98
87
76
60
56
44
109
108
97
154
149
131
153
147
128
152
146
127
161
152
134
80
75
65
53
48
43
112
103
94
99
88
78
84
79
73
128
126
118
134
131
119
173
165
152
47
43
39
47
44
41
75
70
60
87
81
66
107
101
85
139
130
114
153
145
127
169
160
143
177
169
150
84
78
72
64
62
55
156
147
133
130
125
115
107
103
95
126
118
107
120
115
103
72
70
62
86
84
72
147
143
120
137
129
111
56
53
45
122
117
107
93
89
82
53
49
43
107
104
92
135
132
120
143
140
127
158
157
144
158
154
136
154
149
134
52
48
41
73
68
62
78
72
70
39
37
34
78
77
70
104
98
89
105
104
92
147
145
126
142
141
121
142
144
123
150
143
130
112
106
93
159
157
142
178
173
157
168
163
146
165
163
143
185
183
163
183
180
161
178
174
157
177
173
154
161
157
138
170
167
148
171
167
150
169
163
147
154
147
134
115
110
97
106
101
93
104
95
83
82
78
70
139
137
123
92
89
81
27
27
26
43
43
41
66
65
60
85
84
75
116
114
100
121
119
105
137
134
121
144
142
129
143
140
128
141
138
125
142
140
127
138
135
123
128
125
113
138
135
123
141
136
124
133
130
117
126
123
110
128
125
113
136
134
119
117
114
100
126
125
110
141
142
126
155
153
138
153
150
135
162
159
144
164
162
147
165
160
146
158
154
140
161
159
144
158
155
140
159
156
142
154
150
133
151
147
131
136
133
121
134
132
122
137
134
118
144
142
127
142
139
124
143
139
125
140
135
121
139
139
123
143
143
127
149
147
134
149
146
134
149
147
134
155
153
140
157
157
143
149
149
135
151
149
136
152
150
137
148
146
131
146
144
129
142
142
129
131
130
117
128
125
113
136
134
121
133
133
120
129
129
117
118
117
106
118
117
106
123
122
111
122
121
110
122
122
113
119
118
109
119
118
109
121
120
111
121
120
111
115
114
105
111
110
104
112
111
104
111
110
101
108
108
99
96
95
87
117
116
107
106
105
97
98
98
91
99
101
93
107
108
103
97
99
96
97
100
96
98
100
95
90
94
91
80
84
83
83
88
85
94
100
96
86
92
91
42
49
53
93
97
98
94
94
92
69
74
74
102
104
103
101
103
102
99
101
99
94
97
95
90
94
92
87
92
90
57
63
63
90
93
91
77
80
78
68
70
69
70
73
70
98
99
91
158
147
129
110
107
100
139
138
131
127
129
120
103
106
100
106
106
99
39
37
39
95
92
88
107
100
93
45
42
41
128
129
114
91
96
91
37
34
31
115
103
88
68
66
61
79
82
80
91
94
95
52
54
56
60
61
60
149
147
143
98
96
93
114
120
119
106
113
113
67
69
71
72
71
71
164
157
151
120
119
117
80
84
88
86
91
90
101
105
110
83
88
91
87
88
92
90
91
89
94
92
91
95
93
91
88
90
88
96
99
95
88
94
92
94
92
90
98
96
94
137
136
136
113
114
115
112
115
117
107
111
118
99
107
121
41
48
65
27
31
44
41
46
58
57
56
68
59
62
67
55
60
71
79
85
92
129
129
127
79
86
89
76
80
83
76
80
83
71
79
83
66
73
84
51
56
61
66
72
74
121
125
115
113
116
107
110
114
104
84
85
76
112
114
98
124
124
111
136
135
123
141
139
126
131
128
115
158
154
137
123
120
110
139
136
124
132
132
115
119
118
109
109
107
99
92
89
82
58
60
57
151
148
138
93
86
70
61
58
46
109
108
95
161
156
137
157
151
131
159
153
132
155
149
128
79
75
68
55
50
46
122
112
102
88
78
69
79
73
67
133
129
121
139
135
125
171
163
151
50
46
42
46
43
40
75
70
59
85
78
67
109
102
87
136
128
110
150
142
124
166
160
142
176
170
149
85
79
72
68
66
60
155
145
131
127
121
112
97
95
87
132
126
117
119
112
102
76
72
65
80
76
67
145
138
118
142
133
116
51
48
40
117
111
101
95
88
82
53
50
41
104
102
89
136
133
121
143
140
128
156
155
142
155
152
134
155
150
135
55
51
44
75
71
65
74
71
69
38
36
35
76
75
69
101
96
88
102
101
89
144
142
126
136
134
118
127
130
114
147
142
131
114
106
95
166
164
150
185
183
168
187
185
170
171
167
150
188
184
167
186
181
165
168
164
147
163
159
143
161
157
140
170
166
150
165
161
144
158
152
136
158
152
136
128
123
109
112
108
100
108
102
89
67
65
56
146
140
129
89
84
78
27
27
26
42
42
39
67
66
60
82
81
72
107
104
92
117
114
103
134
131
118
144
141
128
141
139
126
137
134
122
142
140
127
138
136
123
134
131
119
143
140
127
135
132
119
130
127
115
131
127
115
142
137
126
147
145
133
116
114
103
101
99
86
137
135
122
150
145
131
149
145
130
158
153
139
157
152
138
157
155
137
159
157
139
161
156
142
159
154
140
157
155
140
151
146
131
147
142
127
130
127
116
129
127
118
126
122
107
123
121
106
132
130
115
137
135
120
140
138
123
140
138
125
140
138
125
143
142
129
144
144
130
146
144
131
149
146
134
155
152
139
149
146
134
151
152
136
154
154
138
151
148
135
139
136
124
138
138
125
133
133
119
124
123
112
131
130
119
130
130
118
125
125
113
123
123
111
115
115
103
126
125
114
120
120
108
122
121
110
115
114
103
114
113
104
115
114
105
115
114
105
111
110
102
110
109
103
107
106
99
109
108
101
108
107
101
78
76
72
108
107
100
107
106
98
98
97
90
108
108
101
104
105
100
99
100
95
97
98
93
94
96
90
93
98
94
86
89
86
97
100
99
93
99
95
79
85
83
70
72
73
100
100
104
88
89
88
65
69
68
102
104
102
97
98
99
94
99
97
89
94
92
89
93
92
72
77
75
55
61
64
97
97
92
82
83
79
89
92
88
81
83
79
77
75
69
153
142
127
108
108
103
151
150
143
133
134
126
104
104
100
108
106
101
38
38
39
89
89
84
108
102
94
42
39
38
131
130
113
93
94
87
44
33
30
128
99
87
76
73
67
75
76
75
92
92
94
48
51
52
63
63
63
149
147
143
97
94
91
115
122
121
109
114
114
63
67
71
66
66
65
158
155
147
117
116
115
58
59
61
58
60
62
58
59
63
58
59
61
65
65
68
61
62
65
66
71
73
77
73
76
77
73
72
85
84
83
85
87
86
82
83
83
99
102
97
71
73
71
96
98
102
84
86
91
96
102
110
88
100
109
37
47
61
27
26
39
38
43
57
51
53
62
42
45
51
52
60
72
79
84
92
130
129
126
78
83
88
83
87
90
76
80
84
71
76
80
62
69
79
53
60
64
72
78
83
133
135
126
113
116
107
107
111
101
114
116
107
124
127
113
132
132
120
129
129
118
121
120
108
147
145
130
154
152
133
121
119
109
133
130
119
125
125
111
121
121
108
114
110
103
88
83
78
61
62
59
151
148
137
89
84
64
57
55
45
108
108
94
160
155
135
162
155
139
155
149
133
156
151
130
84
80
72
56
52
50
111
100
89
101
92
85
76
69
64
133
129
120
135
130
121
172
164
151
51
48
44
47
44
40
71
66
56
83
75
64
115
108
94
139
130
113
153
144
127
163
157
139
170
164
143
74
68
61
68
66
59
156
144
130
127
120
111
105
103
95
125
121
111
115
109
99
80
77
70
78
73
66
146
139
121
133
124
106
51
48
40
103
98
89
97
91
85
53
50
41
106
103
91
133
131
118
142
140
127
157
156
143
157
153
135
157
152
137
57
53
46
83
80
73
85
81
79
37
35
34
98
98
84
125
122
106
107
105
93
150
148
127
146
144
123
141
144
123
149
143
130
111
103
91
168
165
151
186
184
169
186
184
169
174
170
153
180
176
159
181
177
160
180
176
159
181
176
160
174
170
153
176
172
155
171
167
150
165
159
143
149
143
127
111
106
94
114
110
101
108
101
88
60
58
50
145
139
128
91
85
80
27
27
26
38
38
36
57
56
51
76
76
66
103
100
88
118
114
102
134
132
118
146
143
132
146
144
130
145
142
128
137
135
122
135
132
119
137
135
122
130
128
115
140
138
125
143
140
127
136
131
119
148
143
132
142
140
127
126
123
111
129
127
113
138
135
122
152
148
134
154
149
135
160
156
141
156
151
137
161
159
141
161
159
142
164
160
146
160
155
141
153
148
134
138
134
119
146
142
126
134
129
118
126
125
115
128
123
108
124
122
107
129
127
112
135
133
118
132
130
115
140
138
125
131
129
116
138
138
125
139
139
125
147
144
131
149
146
134
153
150
137
151
148
137
151
152
136
151
151
135
154
151
138
141
139
126
139
139
126
140
139
126
136
136
124
130
130
118
132
131
120
130
129
118
123
123
112
125
124
113
127
126
115
121
121
110
121
120
109
120
119
108
114
113
104
112
111
102
119
118
110
111
110
101
110
108
102
109
108
102
103
102
96
104
103
97
78
77
73
98
97
90
104
103
94
99
97
91
105
103
97
107
105
101
97
98
93
100
101
96
94
96
90
94
99
95
95
98
94
81
83
81
97
99
96
100
102
100
89
94
96
105
103
101
93
94
93
71
75
74
101
103
101
95
96
98
92
97
95
89
94
92
89
93
92
69
73
72
56
62
63
96
96
88
89
89
84
84
86
81
82
85
79
84
81
76
152
143
127
110
106
102
142
140
133
125
127
118
106
107
103
111
109
104
38
38
39
93
92
87
110
104
96
44
41
40
122
119
100
99
97
88
42
34
35
90
73
63
67
65
57
73
74
74
88
88
90
45
48
49
64
64
64
152
149
145
96
96
92
117
120
120
109
113
113
58
62
66
66
67
65
159
157
146
118
118
115
64
65
68
63
67
72
40
38
38
40
40
38
41
42
41
41
43
42
46
44
43
73
58
59
69
56
54
47
45
48
52
53
56
68
70
73
75
79
78
83
84
84
91
92
96
82
85
92
92
99
110
93
103
114
37
45
65
24
26
38
40
41
57
51
53
62
45
47
54
55
60
71
81
84
89
136
134
130
82
87
91
83
87
90
76
80
83
67
75
78
58
69
78
59
65
69
72
77
82
130
132
121
120
122
112
109
111
101
128
129
122
83
84
76
132
129
124
99
96
91
105
105
97
108
108
94
133
132
118
114
111
102
128
127
115
128
127
113
116
117
102
129
126
111
85
82
73
66
63
61
141
137
129
80
76
60
58
54
45
102
102
90
149
145
128
146
140
122
141
134
120
155
148
132
81
78
70
55
52
48
111
101
91
100
90
83
74
67
60
129
126
120
135
131
121
179
172
158
57
54
49
45
42
39
70
64
54
79
72
61
118
111
96
144
135
120
154
145
130
168
159
144
172
163
145
71
65
56
68
67
59
148
136
122
116
109
100
106
104
94
120
118
108
110
103
96
88
85
78
71
68
59
151
145
125
142
133
113
55
53
46
102
99
90
97
93
87
51
48
38
102
100
86
135
132
120
141
139
124
158
155
139
157
151
131
154
150
130
57
53
45
84
80
70
83
81
77
40
38
34
81
80
70
97
90
80
101
102
90
148
144
126
151
148
126
131
132
117
147
141
128
109
102
89
168
166
151
191
189
172
191
189
171
185
181
166
192
187
173
187
183
167
173
169
152
178
174
157
173
169
152
172
168
151
171
167
150
167
163
146
159
155
139
141
137
123
109
104
94
104
95
85
58
54
49
140
136
122
92
87
80
26
25
23
38
36
35
56
54
50
80
79
70
95
87
78
98
93
80
130
128
116
155
153
140
160
158
141
157
155
138
157
153
138
150
145
131
153
150
135
145
143
128
149
146
131
152
150
135
143
140
127
152
150
135
144
142
127
126
124
109
121
119
104
143
141
128
146
145
128
148
146
128
157
155
137
146
144
126
159
155
138
162
158
141
159
155
138
161
157
140
157
152
138
152
148
133
148
144
129
137
134
120
122
118
109
129
125
110
134
130
116
133
129
114
129
127
114
135
133
120
138
136
121
140
138
123
141
141
129
139
138
127
143
143
129
147
147
133
152
149
137
150
148
135
155
153
139
153
150
137
146
146
133
143
143
129
143
140
127
136
133
120
132
131
118
138
138
124
132
132
120
135
134
123
135
135
123
133
132
121
125
125
113
122
121
110
123
122
114
119
119
110
123
122
111
116
116
105
114
113
104
108
107
99
110
108
102
109
108
101
106
107
100
100
101
94
86
85
79
105
103
97
101
100
92
102
101
92
107
105
99
107
105
99
101
102
95
102
103
96
102
105
99
96
98
93
100
100
96
104
105
101
102
105
102
107
110
107
83
88
89
91
90
86
96
96
94
70
73
74
102
103
101
92
93
94
93
97
96
94
98
97
88
91
89
68
72
73
57
63
63
102
101
96
90
90
85
83
84
78
76
79
74
84
85
79
152
142
127
107
103
96
144
141
134
130
130
122
103
105
98
109
112
105
38
37
37
91
89
83
104
97
89
43
40
39
109
107
89
102
100
92
31
32
33
103
91
76
67
63
57
72
76
75
91
93
90
42
47
45
66
67
65
147
146
138
96
95
91
113
116
116
104
107
108
54
57
58
67
67
65
147
145
132
110
112
107
79
81
87
45
46
52
60
61
65
54
56
56
53
54
56
59
59
63
58
62
65
65
73
72
82
82
81
71
70
71
56
57
59
67
65
71
64
65
67
67
71
70
76
80
79
83
89
94
85
91
101
79
86
95
45
51
70
23
26
33
35
37
52
45
49
61
41
46
54
56
61
69
80
81
83
131
130
128
81
84
91
83
87
90
75
79
83
61
67
72
77
87
95
64
68
73
72
78
79
119
121
110
99
101
90
104
106
93
110
113
99
105
105
92
116
114
104
99
97
86
109
108
97
119
119
103
129
127
113
94
91
81
98
94
83
100
96
84
100
96
85
90
87
79
75
72
69
69
66
64
103
100
93
75
72
62
64
59
48
104
101
90
125
123
113
140
134
126
139
132
121
135
129
120
59
56
55
58
55
52
113
102
92
114
101
89
73
68
61
128
124
118
143
139
130
177
170
157
64
61
56
46
44
40
72
66
56
79
72
61
116
109
95
145
136
121
152
143
128
164
155
140
172
163
145
72
66
57
64
63
55
144
132
119
121
114
104
111
108
98
120
118
108
107
101
93
89
86
79
70
67
60
145
139
120
139
130
114
52
51
40
102
100
91
96
92
86
50
47
38
96
94
80
131
129
114
140
138
120
157
154
138
158
153
132
161
157
137
51
47
39
86
82
73
84
82
79
40
39
32
85
84
72
92
90
74
87
83
78
102
98
86
109
106
90
111
110
97
140
134
122
103
97
84
165
163
148
186
184
166
192
191
173
186
181
166
178
174
157
170
166
149
164
160
143
163
159
143
172
168
151
176
172
155
171
167
150
169
165
148
159
155
139
139
134
122
110
106
95
110
101
90
61
55
52
140
136
122
91
86
79
27
25
23
36
33
33
51
49
43
60
58
52
88
79
68
96
91
82
117
115
103
146
143
130
158
156
139
157
156
138
161
157
142
158
153
139
158
156
141
153
151
136
159
157
141
151
149
134
144
141
129
143
141
126
132
131
115
134
133
118
133
131
117
148
146
133
151
149
132
157
155
139
154
152
134
154
152
134
152
148
133
156
152
135
156
152
135
155
151
135
155
150
136
156
152
137
144
140
125
137
133
119
119
115
106
126
123
107
135
132
117
134
130
115
129
127
114
132
129
117
130
128
113
138
136
121
140
140
128
137
136
125
146
146
132
147
147
133
147
145
132
149
147
134
152
150
137
154
151
139
151
151
137
149
149
135
141
139
126
141
138
125
137
137
124
134
134
120
131
130
119
133
133
122
130
129
118
124
123
112
124
123
112
128
127
116
125
124
116
121
120
112
116
115
104
111
111
100
114
113
104
107
106
97
108
107
101
110
109
102
104
105
98
107
108
101
83
82
76
94
93
86
102
101
94
99
97
91
106
105
98
105
104
97
106
108
100
104
104
98
96
94
90
112
111
107
105
105
101
100
101
96
97
98
95
90
93
90
78
83
81
91
92
85
95
95
94
61
62
63
103
103
102
96
97
97
93
98
96
90
94
93
82
86
84
68
74
74
54
60
61
98
98
93
83
84
79
81
84
78
81
84
79
81
83
76
153
143
129
109
105
98
146
143
134
133
133
123
100
101
91
106
105
97
35
33
33
89
87
82
108
100
93
42
39
38
109
106
88
100
98
90
34
32
31
110
94
76
68
63
56
72
76
74
96
95
92
43
44
44
64
66
64
141
140
131
103
102
98
109
112
112
99
103
104
56
59
61
67
66
68
132
130
123
111
114
109
97
99
106
54
55
62
64
67
63
60
63
64
53
54
53
61
62
63
71
75
74
77
77
78
73
73
72
67
69
69
71
76
75
83
87
89
71
71
74
75
78
79
97
102
102
90
95
102
85
90
102
90
97
108
56
62
80
26
30
36
38
41
48
49
50
58
49
51
55
78
76
79
83
83
85
103
101
99
68
69
74
64
66
70
57
59
63
55
55
61
61
65
74
48
49
52
54
55
52
97
97
85
95
95
84
60
59
52
90
90
78
113
111
95
120
118
102
106
104
90
86
83
74
97
95
78
123
120
104
102
99
89
114
112
100
108
106
93
109
106
95
124
118
109
94
91
87
60
61
55
124
122
115
98
93
88
62
58
48
98
94
87
146
141
133
147
142
131
144
139
126
151
144
129
63
60
57
55
51
48
104
92
81
116
105
91
77
71
65
120
116
111
141
137
128
177
171
161
64
63
57
46
43
40
70
64
54
77
68
58
114
105
91
144
136
118
155
146
129
164
157
140
174
164
144
74
68
58
70
69
62
139
127
114
115
108
97
104
103
95
122
122
113
110
103
96
89
86
79
71
67
59
146
138
120
138
131
111
51
51
39
109
108
97
96
92
87
51
48
40
90
85
71
125
121
106
142
138
121
158
154
138
154
146
127
154
148
129
52
49
41
83
79
72
85
83
81
36
34
31
87
86
75
100
98
84
102
98
89
129
123
112
125
119
109
94
91
84
141
135
124
104
98
86
157
155
140
181
180
164
190
186
171
178
174
157
168
162
146
173
169
152
175
171
155
173
169
152
168
164
147
169
163
144
170
164
146
165
159
143
153
150
133
116
112
100
113
108
98
110
101
90
59
54
51
140
136
123
92
87
79
24
24
22
34
34
33
47
44
42
70
68
63
89
85
78
98
95
87
109
107
100
148
145
132
152
147
133
149
145
130
155
150
136
156
152
138
156
152
137
154
150
136
151
149
136
148
145
132
132
130
117
119
117
104
101
99
89
72
70
65
71
64
56
86
78
67
82
74
62
83
80
71
104
102
89
98
97
83
138
133
120
154
150
134
152
148
131
157
153
136
151
147
132
154
149
135
149
144
132
137
133
122
116
112
103
120
116
101
130
127
112
129
125
110
127
123
108
132
128
114
138
135
123
137
134
121
139
137
124
136
133
121
145
143
130
151
148
135
145
143
130
151
149
136
155
152
139
152
150
137
152
150
137
148
146
133
146
144
131
143
141
128
138
138
124
137
136
123
137
136
125
133
133
121
133
133
121
124
123
112
130
129
118
129
128
117
124
122
114
122
120
111
113
112
103
115
114
106
112
110
104
103
103
97
110
111
102
110
111
102
99
101
93
88
89
83
63
62
56
95
94
88
100
99
93
99
97
91
102
101
95
109
108
102
100
101
95
101
102
96
100
98
94
97
97
93
98
99
94
86
89
84
87
86
84
87
89
87
80
86
84
95
97
91
96
96
96
61
61
61
102
101
99
90
92
91
95
98
95
94
96
93
90
92
91
79
81
81
71
75
75
95
96
90
81
83
79
74
78
73
78
79
76
78
77
71
151
143
128
108
105
98
142
139
130
122
122
111
102
101
92
105
100
94
36
34
32
83
81
76
98
91
84
40
38
37
102
102
87
95
98
92
39
33
35
98
82
67
74
67
62
82
83
81
94
95
91
40
42
45
59
60
59
137
135
128
92
90
88
110
114
113
99
102
106
58
61
66
51
51
52
179
178
169
125
127
119
95
98
100
62
63
67
67
68
68
76
74
76
76
74
76
71
73
76
70
71
74
70
70
70
82
80
78
74
76
73
63
65
66
56
60
61
56
57
59
57
58
65
60
65
71
81
88
92
82
88
99
83
91
100
48
58
75
34
35
45
44
45
53
44
44
48
55
53
53
75
67
68
79
79
80
134
126
121
80
80
78
82
82
82
85
85
86
72
74
81
58
64
71
53
56
57
61
63
64
92
92
83
88
87
79
59
58
53
114
113
103
121
119
103
102
100
87
110
107
97
104
100
86
130
126
109
124
119
104
91
88
80
118
115
104
119
117
106
113
111
97
124
119
104
89
87
77
60
64
55
175
172
157
128
124
111
76
68
51
113
109
98
165
160
148
160
154
144
146
141
129
159
153
139
76
72
70
59
55
53
119
110
97
101
89
78
69
64
57
116
112
107
148
144
135
173
167
157
62
60
54
41
38
35
67
61
50
75
66
55
114
105
91
141
133
115
147
138
121
151
144
126
167
157
137
69
63
53
71
69
63
144
132
120
114
107
95
105
105
96
115
115
106
104
98
89
93
89
84
72
68
60
151
144
125
140
134
114
50
50
37
109
107
97
97
93
88
51
48
40
97
91
78
126
122
107
139
135
118
158
153
137
160
152
132
151
144
126
55
52
44
80
76
68
80
78
76
39
37
34
73
72
61
88
85
72
105
101
93
155
151
135
140
137
119
148
144
127
143
136
126
102
96
86
147
146
131
179
176
160
186
182
166
173
169
151
166
161
142
170
166
149
161
157
141
165
161
144
160
156
138
166
160
141
167
161
143
162
156
140
143
140
123
119
114
102
114
109
99
106
97
88
59
53
51
139
135
119
95
91
78
25
25
23
36
36
34
58
56
55
80
79
73
101
101
92
112
111
102
128
126
114
138
135
122
146
141
127
147
142
128
157
152
138
151
147
133
150
146
131
138
133
119
130
128
115
128
125
113
120
118
105
118
116
104
101
101
92
73
72
67
83
69
58
86
63
48
87
70
54
85
75
62
87
83
71
46
42
39
100
95
85
147
143
128
148
144
127
153
149
132
151
146
132
152
147
133
149
145
130
134
131
116
120
115
107
121
118
102
126
122
109
127
123
108
127
122
108
132
128
114
132
129
116
140
138
125
133
131
118
135
133
120
139
136
124
143
140
128
147
145
132
146
144
131
150
147
135
152
149
136
151
149
136
149
146
133
147
145
132
144
142
129
140
140
127
136
136
123
136
136
124
133
132
121
132
131
120
131
131
119
126
125
114
125
125
114
123
124
114
120
120
111
110
109
100
114
113
104
113
111
105
101
101
94
106
108
99
111
112
103
105
106
99
102
103
97
67
66
61
84
83
77
89
87
81
97
96
92
91
90
86
103
103
98
97
98
92
96
97
91
98
96
92
96
97
92
99
99
94
92
93
88
87
85
83
74
75
73
68
70
70
88
86
83
83
81
83
58
56
57
87
85
83
76
78
75
82
85
82
87
89
86
85
88
87
86
88
87
81
85
83
83
84
81
78
79
77
70
74
73
65
66
64
79
78
71
150
142
126
95
90
84
94
91
80
73
74
62
93
92
82
105
101
93
34
32
30
81
79
74
101
94
86
43
40
39
110
106
90
95
94
87
44
39
38
109
94
76
68
61
56
75
75
73
90
91
83
36
38
38
53
54
53
137
136
129
93
90
89
115
119
118
98
102
106
58
61
66
45
45
46
167
166
157
81
82
80
82
84
92
59
60
64
77
79
79
94
95
93
82
82
81
79
81
82
83
86
87
80
88
87
76
79
83
69
75
80
77
84
86
77
88
87
75
79
81
72
73
79
70
77
81
70
77
78
85
92
97
83
92
100
47
56
73
34
35
45
45
45
54
47
45
49
69
58
60
100
90
89
81
82
79
144
139
128
94
90
84
84
84
80
82
83
79
76
77
84
62
67
73
51
53
55
58
60
62
85
85
77
82
81
73
68
66
61
109
108
97
116
114
97
118
116
101
118
117
100
113
111
94
142
138
121
119
115
101
94
91
86
109
106
97
111
108
98
126
125
108
111
109
93
92
90
79
59
58
53
177
172
156
114
112
98
69
63
47
107
106
95
152
149
139
152
148
142
143
138
128
150
145
131
76
75
71
64
58
55
152
146
130
114
105
92
73
66
58
110
105
100
141
137
128
171
166
153
64
59
53
34
31
28
62
56
46
75
67
56
106
99
85
130
121
106
143
134
119
153
144
129
171
161
143
65
59
50
71
69
63
142
129
118
113
106
95
104
105
98
109
108
103
106
100
89
94
91
83
72
68
59
151
144
123
138
131
112
44
43
35
112
109
99
98
94
89
55
49
43
95
90
77
133
126
111
142
135
118
158
156
135
155
149
129
149
143
125
47
44
37
75
70
63
77
75
74
37
36
33
75
72
64
92
88
76
98
96
86
142
140
126
152
148
131
150
144
124
140
132
121
100
93
84
149
146
133
173
169
153
177
170
153
167
161
143
173
167
148
170
166
149
159
155
137
166
162
143
161
157
137
157
151
135
164
157
141
166
160
144
155
152
135
119
114
102
110
105
95
102
94
86
46
40
39
135
132
116
89
85
76
25
25
23
36
36
35
56
54
53
79
78
72
96
97
89
108
107
100
123
123
111
136
134
119
142
140
126
144
141
128
149
147
134
146
143
130
146
144
130
134
132
119
112
109
98
115
113
102
119
119
108
98
99
88
101
103
92
89
89
80
69
69
61
73
70
62
93
89
81
98
93
82
98
95
82
88
85
78
78
74
66
146
141
128
147
143
127
151
147
132
152
148
132
153
148
131
148
141
126
136
133
119
116
112
105
117
114
101
120
115
105
125
120
107
128
126
112
132
129
118
132
129
117
136
134
121
133
130
117
135
132
119
136
133
121
138
135
121
147
147
133
145
144
131
146
146
132
150
150
136
149
146
133
146
144
131
143
143
129
143
143
130
146
143
130
139
137
124
137
136
125
133
132
121
126
126
115
127
126
115
123
122
113
125
124
115
120
121
112
118
119
110
113
112
103
111
110
101
108
108
101
106
107
100
105
104
99
106
105
97
102
103
96
96
97
91
71
71
69
83
84
80
68
69
63
102
102
98
99
98
94
91
93
88
105
104
98
103
102
96
110
108
101
107
105
97
112
111
104
91
92
85
70
71
69
51
49
47
48
45
44
54
52
50
50
47
49
49
46
48
46
45
47
48
49
51
48
47
52
44
43
48
41
43
44
48
50
49
40
40
41
41
42
41
54
54
53
37
38
38
63
63
64
86
85
79
152
144
128
106
102
94
100
97
90
58
58
51
95
94
85
104
100
91
35
35
32
90
87
77
103
94
84
48
42
41
116
110
94
109
105
96
47
46
45
109
95
75
69
62
53
71
70
68
98
95
90
38
37
39
49
50
48
134
133
123
93
90
88
111
115
115
98
105
104
59
63
68
39
39
41
151
149
144
88
91
91
78
84
85
84
88
90
77
81
84
73
76
76
78
81
80
80
83
83
80
84
86
81
86
87
81
84
86
80
84
90
81
87
94
88
94
102
92
95
99
96
101
105
100
105
109
89
94
97
88
92
95
74
77
87
43
49
63
34
37
43
49
46
53
57
51
52
73
61
59
94
84
81
76
74
73
151
141
128
92
91
84
84
82
80
88
86
85
82
83
86
65
69
75
51
53
55
57
59
60
77
76
68
82
81
73
90
89
85
105
104
94
118
117
102
108
107
93
123
122
107
119
116
103
110
106
94
121
116
106
81
78
73
98
96
85
99
96
85
101
99
87
93
91
77
74
69
61
55
53
48
120
116
100
91
89
75
64
58
43
109
109
100
151
149
137
145
141
132
142
137
124
142
137
125
76
75
71
60
57
53
70
66
59
83
74
62
74
67
58
108
104
98
143
138
129
173
169
154
67
64
55
34
31
25
57
51
41
66
59
47
105
98
83
130
121
106
143
134
119
151
142
128
165
156
138
62
57
48
70
68
62
134
122
110
114
107
96
102
103
96
111
110
106
107
101
90
88
85
76
74
70
61
149
143
122
136
129
110
43
42
34
114
112
102
99
95
90
53
47
41
94
89
75
133
127
107
134
128
111
159
155
135
156
148
128
153
147
127
51
49
40
84
80
73
76
75
73
36
34
32
78
76
68
98
93
82
106
104
94
121
119
103
113
109
98
127
124
109
134
129
121
93
87
79
146
141
129
182
177
162
190
184
165
179
173
154
179
173
155
170
166
150
166
162
144
157
153
134
166
162
143
169
163
147
163
157
141
158
153
138
152
149
135
117
112
100
115
110
101
105
97
84
53
48
42
127
123
107
90
86
77
23
24
21
32
32
31
50
48
43
74
73
64
94
91
82
98
95
86
108
105
96
117
115
101
114
111
102
102
99
91
112
109
101
115
112
104
111
107
99
104
101
91
98
95
86
103
99
90
96
92
83
93
89
79
93
89
79
98
94
83
90
87
74
79
73
61
84
79
68
78
74
63
92
88
77
80
77
69
88
83
75
123
119
106
115
111
100
114
109
98
112
108
94
118
113
102
116
110
101
94
92
86
102
97
90
104
103
89
111
105
96
117
113
100
116
114
100
119
117
104
123
121
108
124
120
108
129
126
114
127
125
112
136
133
121
141
139
125
142
141
128
138
138
124
140
140
126
143
143
129
147
145
132
145
143
130
141
141
127
140
140
126
140
138
125
138
136
123
135
135
123
132
131
120
125
124
113
125
124
113
121
120
112
121
120
111
116
118
108
113
115
105
111
110
101
112
111
103
104
105
98
103
105
97
104
103
98
104
103
95
100
101
94
101
102
96
61
61
58
85
86
82
79
80
75
92
91
87
108
107
105
99
100
97
104
103
96
111
110
103
107
105
97
102
100
92
105
104
98
83
81
76
73
70
68
69
68
68
60
56
56
60
56
56
58
58
58
52
52
51
54
54
53
46
46
46
47
46
48
51
50
53
42
44
45
46
49
48
47
50
47
49
51
52
53
54
55
50
50
52
60
60
61
80
80
74
141
133
116
83
78
69
92
90
83
76
74
68
102
101
90
111
108
96
40
40
37
88
85
76
101
93
84
48
43
41
89
85
75
96
94
86
50
48
46
107
93
74
72
67
58
65
64
62
85
83
78
34
34
36
46
48
44
139
140
126
94
93
90
107
113
113
101
108
107
62
66
72
35
35
38
113
111
107
93
91
93
106
107
109
98
102
97
102
107
100
109
110
103
105
105
98
104
102
97
93
80
75
124
97
82
169
148
130
125
96
87
115
102
98
130
126
124
114
113
110
111
110
104
114
111
105
109
106
102
105
102
97
80
79
81
40
41
55
35
37
46
52
50
54
60
53
52
84
72
69
91
82
79
76
73
73
148
138
125
88
86
80
88
86
84
86
85
83
77
79
81
67
75
79
46
48
49
57
59
60
104
106
97
94
96
88
118
118
114
94
93
87
87
86
79
140
139
129
142
141
130
117
116
103
145
142
130
134
129
124
89
86
81
121
119
107
111
108
95
106
101
90
115
110
98
85
81
74
56
53
48
115
113
100
94
90
75
66
62
45
108
107
99
156
150
139
108
100
89
97
89
75
132
128
115
70
69
65
48
46
45
83
77
71
99
89
77
67
60
52
105
101
95
142
138
129
142
141
129
61
57
49
63
58
53
74
66
60
69
61
49
110
101
86
135
124
110
134
126
112
147
141
125
155
146
128
58
52
44
72
65
59
130
118
105
108
101
92
100
99
93
112
110
105
109
102
91
89
85
77
70
66
59
148
141
122
129
121
107
41
40
33
115
114
105
100
97
93
53
47
40
97
92
79
140
135
115
136
130
111
150
146
126
158
150
130
152
146
129
48
45
38
72
70
64
74
74
71
37
35
32
79
76
68
100
93
82
112
109
99
81
79
69
94
87
80
121
116
105
130
124
115
92
87
77
147
140
127
178
171
157
181
174
158
183
177
161
181
175
159
173
167
148
173
167
149
169
166
148
163
159
140
163
156
140
144
138
124
114
109
95
105
102
89
96
91
81
93
88
78
98
91
80
60
58
51
142
139
122
93
89
81
24
24
22
35
36
34
56
55
52
85
82
73
109
107
93
113
111
96
123
118
104
139
134
120
124
119
108
112
107
95
124
119
107
140
136
123
135
130
117
128
124
109
120
115
103
127
124
111
123
121
109
116
115
102
125
122
110
117
114
100
117
114
101
114
110
97
123
119
107
97
94
82
94
92
79
103
100
90
112
106
99
116
111
100
126
123
110
129
126
113
128
123
108
129
124
112
128
125
112
113
110
101
104
101
90
124
122
107
125
123
110
124
122
109
130
128
113
134
131
118
129
127
112
136
134
119
143
141
126
141
139
124
147
145
131
147
145
129
142
142
128
138
138
124
138
136
123
139
136
124
141
141
128
137
137
123
140
138
125
139
137
124
134
133
122
132
132
120
131
131
119
131
130
120
124
123
114
126
125
116
127
126
118
123
122
113
117
118
109
114
115
106
109
108
101
105
104
97
104
106
96
103
104
95
104
103
97
102
100
94
104
102
96
97
96
90
66
67
63
65
66
62
79
80
75
89
89
85
103
104
99
95
96
90
114
113
107
113
112
105
108
108
101
94
94
88
94
95
90
67
67
62
73
72
66
97
96
92
90
89
86
80
78
76
90
89
84
86
84
81
92
89
86
52
55
56
51
56
58
54
59
61
52
56
57
47
50
51
47
51
52
48
51
53
45
48
49
37
39
41
51
54
52
88
88
80
144
135
117
110
107
98
114
112
103
96
94
85
57
56
50
74
72
66
44
42
41
63
61
54
86
79
70
43
41
40
77
73
72
61
59
59
47
45
45
95
91
85
67
63
60
73
74
70
61
59
55
39
40
38
45
47
45
112
113
108
95
93
94
78
82
86
74
79
85
59
63
72
33
34
36
117
116
112
110
110
108
109
109
111
101
101
100
97
98
92
99
100
93
102
104
96
99
98
94
114
87
84
162
117
93
218
199
169
174
128
105
137
115
101
136
127
122
108
108
106
104
102
99
97
95
91
99
98
93
104
100
94
82
82
80
42
46
57
39
41
49
59
55
60
75
59
59
84
71
66
104
91
90
72
68
68
153
142
129
95
92
86
88
86
84
79
77
75
67
68
70
69
71
76
52
52
49
58
58
55
75
76
71
64
64
61
59
60
60
52
52
48
70
70
66
107
106
93
121
120
103
115
115
95
135
132
114
128
123
112
102
99
92
126
124
109
124
120
103
113
109
93
117
113
96
94
89
79
59
56
48
123
121
106
87
83
65
62
58
42
102
103
95
134
129
118
97
88
77
87
79
66
115
111
99
64
63
60
47
45
43
97
92
86
100
90
79
67
59
52
111
107
102
127
121
113
112
111
101
70
66
56
71
61
53
80
69
59
71
61
50
93
84
70
115
100
86
114
102
86
146
141
125
162
153
136
59
53
45
71
63
57
132
120
106
110
103
93
108
107
101
102
99
95
102
97
86
82
80
72
68
64
56
144
137
118
123
116
102
45
44
37
115
113
106
93
90
87
49
43
37
73
68
56
107
101
86
112
106
90
123
117
100
125
115
98
116
109
95
50
46
41
72
70
65
73
73
70
39
37
34
79
76
68
100
93
83
103
101
91
110
109
98
113
107
97
88
84
73
133
127
117
96
90
81
147
139
127
151
145
130
171
165
149
170
164
148
166
159
143
173
167
149
171
165
146
164
160
143
159
155
138
146
140
124
128
123
109
113
110
97
101
98
88
86
81
72
97
92
85
97
89
81
61
58
51
129
126
109
94
90
82
25
25
23
36
37
35
58
58
54
87
85
76
107
105
90
120
118
103
123
119
104
136
131
117
141
136
124
126
121
109
133
129
114
144
139
125
139
134
120
129
125
110
125
120
109
119
116
103
114
112
99
121
119
106
122
120
107
123
120
107
124
121
109
127
124
112
125
122
110
110
107
95
107
104
92
106
103
90
109
104
92
117
112
104
122
120
107
128
126
113
129
125
111
130
126
111
123
121
108
112
109
100
110
108
97
126
124
109
124
122
109
125
122
109
128
126
111
131
129
113
132
130
115
140
138
123
140
138
123
143
141
126
145
144
127
145
142
129
141
140
127
138
138
124
145
143
130
142
140
127
142
142
129
138
138
124
134
132
119
133
131
118
136
136
123
133
132
121
130
130
119
129
129
118
126
125
116
124
123
114
121
120
112
118
117
108
113
115
105
114
115
106
109
108
102
102
101
94
102
103
94
104
105
96
102
101
94
104
102
96
97
96
89
95
94
87
74
74
70
71
72
68
69
70
65
80
81
76
98
99
94
92
92
88
73
71
68
76
75
72
98
101
94
107
110
102
103
105
101
97
98
94
78
81
75
60
63
59
71
74
71
67
70
68
87
90
80
129
132
120
88
89
84
50
56
58
50
59
60
58
65
65
55
62
59
63
69
65
76
81
77
52
56
54
55
59
60
53
55
57
92
95
93
87
88
80
147
135
114
105
104
98
131
129
121
105
102
95
79
78
71
69
68
62
31
28
28
111
107
102
126
112
101
53
49
44
115
119
113
75
78
80
40
36
34
103
100
92
67
63
62
90
92
89
104
102
98
51
55
54
27
29
28
117
119
115
102
103
104
97
104
109
101
106
115
69
73
81
31
32
35
116
116
111
112
112
109
116
116
118
102
102
99
96
97
92
104
105
99
100
101
94
98
97
94
110
83
78
175
131
103
218
200
167
189
143
111
134
113
96
142
139
131
107
107
106
104
102
99
100
99
95
100
98
94
102
98
92
87
87
85
43
46
58
41
43
51
65
60
65
86
57
55
113
70
68
122
90
90
90
81
79
146
133
120
87
82
77
81
79
77
78
76
75
67
66
66
52
53
58
38
38
39
45
45
46
77
80
70
61
61
57
51
51
47
54
55
49
71
70
61
90
89
72
118
117
99
124
120
104
135
132
112
124
120
104
102
99
90
121
118
102
118
111
98
121
117
105
111
109
96
92
88
81
69
64
56
110
105
94
74
67
58
62
58
48
97
102
92
119
115
103
116
108
98
137
128
117
126
120
109
62
61
61
46
43
38
73
69
62
90
79
70
64
58
50
110
106
100
121
117
107
129
126
117
61
56
51
43
35
28
82
74
62
60
52
46
62
55
46
91
84
72
103
96
83
156
152
134
155
145
130
57
50
43
71
63
56
127
115
101
105
99
87
109
106
98
101
97
90
106
100
91
71
69
63
65
63
55
144
139
120
122
115
101
39
38
31
120
120
114
96
94
93
54
47
40
77
71
59
95
91
79
92
85
74
133
125
110
127
116
102
130
124
110
61
59
54
86
86
81
67
65
64
37
36
34
72
68
61
94
88
78
98
97
85
156
154
138
152
149
130
146
145
131
132
129
118
98
92
84
146
142
128
130
125
109
143
137
121
171
165
149
171
164
148
176
170
151
167
161
143
161
155
139
153
149
134
135
131
116
125
122
109
108
105
95
90
87
79
76
70
63
82
77
71
94
89
82
61
57
52
128
125
110
99
95
86
25
26
23
37
37
36
58
57
52
81
80
71
107
104
94
123
120
106
132
128
114
139
135
120
134
132
117
138
136
121
131
127
112
143
139
125
128
124
110
129
125
110
116
111
100
111
106
94
122
119
106
125
123
110
127
122
110
122
117
105
126
121
109
131
126
114
116
114
101
109
106
94
107
101
92
112
106
97
117
114
101
116
113
101
117
114
101
124
122
109
118
116
103
122
118
106
125
121
109
111
109
99
109
107
98
127
124
112
129
127
115
129
126
114
125
122
110
132
130
117
136
134
120
144
142
128
148
146
133
146
144
131
144
145
129
144
144
129
144
141
129
137
134
122
136
136
124
135
134
123
133
133
119
135
135
122
129
129
118
130
130
119
132
131
121
132
131
119
131
131
119
127
126
115
122
123
114
120
122
112
121
120
111
113
112
103
114
113
106
112
111
105
107
106
100
102
104
97
101
100
94
100
99
92
101
99
94
100
99
92
93
94
86
93
95
87
76
77
72
66
67
62
74
75
70
78
78
74
91
92
87
91
92
87
79
77
73
78
76
72
77
77
70
101
100
95
107
108
105
104
105
103
98
100
98
67
68
67
62
63
63
95
94
90
118
119
110
58
62
58
58
58
57
53
56
53
60
63
59
67
70
64
70
75
69
83
91
85
66
71
66
49
50
51
75
77
71
68
68
66
72
73
72
92
88
81
156
143
123
122
121
114
130
129
120
111
113
103
103
102
96
95
94
84
31
31
31
108
106
101
110
99
87
48
47
42
116
122
119
74
83
86
32
31
30
101
100
93
59
58
58
79
82
81
86
88
89
46
51
51
35
37
37
137
140
137
104
106
109
92
101
105
88
98
102
61
67
73
28
29
31
119
118
114
110
111
106
120
122
118
94
94
92
98
99
94
94
97
94
94
97
93
94
94
92
95
69
62
174
130
102
217
203
167
188
148
113
129
110
104
148
145
136
107
107
103
101
99
96
105
104
99
107
105
99
99
97
91
90
90
89
47
51
62
42
44
53
60
55
61
142
121
114
176
152
139
125
97
89
95
88
84
138
124
112
90
83
76
87
85
81
78
76
73
70
65
65
55
59
65
49
50
55
51
53
53
91
95
84
62
63
57
53
55
48
57
59
51
93
92
79
97
96
78
119
118
101
129
124
109
126
122
104
125
120
104
104
101
91
133
130
112
137
129
111
121
116
99
116
112
99
85
81
74
48
42
36
135
131
121
77
67
58
53
45
35
94
98
89
128
124
111
103
95
83
148
139
130
109
105
95
66
65
62
45
42
37
85
80
73
91
87
78
65
61
54
134
129
123
102
98
90
167
164
146
50
46
40
51
48
42
62
59
48
52
46
40
94
87
78
127
120
107
107
101
87
155
150
133
159
149
134
58
51
44
75
68
61
131
119
104
105
98
87
103
100
94
105
101
93
106
101
91
67
65
59
59
57
48
144
140
121
126
118
104
41
41
34
117
117
111
93
92
91
45
40
33
77
74
60
118
113
101
116
112
100
144
141
125
134
127
113
134
129
114
47
45
39
66
65
61
61
60
59
35
35
32
68
64
57
91
85
77
108
106
93
132
127
114
95
92
81
108
108
95
129
126
116
97
91
84
144
141
127
157
152
135
157
150
135
171
164
148
166
160
143
166
160
142
172
166
148
157
150
136
150
145
130
129
125
111
125
123
110
113
111
100
98
95
85
79
73
66
82
77
71
98
92
86
59
53
48
131
128
113
97
93
84
26
26
24
37
37
36
57
55
50
79
78
69
101
98
88
117
114
100
136
132
117
139
135
120
140
138
123
140
138
123
144
139
125
137
132
117
133
129
114
132
128
113
121
116
104
113
109
97
110
105
93
117
113
101
133
128
116
132
127
115
131
126
114
128
123
111
121
118
106
112
109
96
115
110
100
123
118
108
121
118
106
119
117
104
120
118
105
130
127
115
124
120
107
120
119
105
122
120
105
111
109
97
113
110
102
133
130
119
133
131
115
130
128
113
141
139
126
141
138
125
147
145
128
147
145
127
147
145
132
149
146
133
147
147
131
146
146
130
147
144
132
144
141
130
141
141
130
138
137
126
134
133
120
132
132
119
131
130
119
126
126
114
125
124
114
123
123
111
126
126
115
121
120
109
113
114
105
121
122
113
119
119
110
113
112
104
112
111
105
109
107
101
109
107
101
104
105
98
100
99
93
97
96
90
93
92
87
95
94
87
89
90
82
87
88
81
73
74
69
69
69
64
81
82
77
77
78
73
92
93
88
87
85
81
79
77
74
91
89
85
115
114
108
108
107
100
117
116
109
104
104
96
104
102
97
125
121
116
102
97
94
114
110
103
51
54
52
71
78
80
78
85
85
77
80
81
80
83
81
61
63
62
61
62
60
58
62
59
65
69
65
57
58
59
137
139
129
90
91
85
81
84
82
94
91
84
157
145
126
120
118
112
128
126
117
109
109
100
111
110
103
114
113
103
39
38
39
88
88
83
106
99
92
46
48
46
129
135
131
80
89
92
33
31
31
109
108
101
64
63
63
85
88
87
90
94
95
45
50
51
39
41
40
140
143
140
97
99
101
95
105
108
88
98
102
62
68
74
28
30
31
115
113
108
103
103
99
125
127
123
99
100
98
99
101
95
100
102
98
97
99
98
90
93
90
90
68
61
165
127
104
207
189
163
179
138
106
137
114
110
138
137
129
109
110
103
103
101
98
100
99
94
103
101
95
104
102
96
98
98
98
50
52
63
43
44
59
59
57
63
101
81
79
118
92
87
115
88
80
97
90
86
126
114
106
79
75
74
69
66
67
60
58
59
42
42
40
51
50
57
51
53
57
59
61
60
85
88
78
83
87
79
82
84
76
81
81
74
84
82
71
98
95
79
132
129
111
129
126
108
138
134
116
128
123
107
110
105
97
128
121
108
131
125
108
121
116
98
120
116
101
86
81
73
53
48
44
139
132
121
89
79
67
54
48
35
99
102
93
143
137
125
143
136
125
131
124
112
131
125
109
76
73
64
52
49
46
62
57
52
86
81
72
66
61
56
125
120
111
141
135
126
180
173
160
42
40
36
39
37
32
59
53
46
61
56
47
101
97
84
118
111
96
105
98
82
156
152
135
160
150
136
56
47
41
72
66
60
130
118
104
104
96
85
97
96
89
99
97
88
112
106
95
66
63
58
54
52
44
141
136
116
124
117
102
37
37
30
117
119
111
91
89
87
42
38
33
75
72
60
124
120
106
130
125
111
146
144
127
148
145
128
165
158
142
57
52
47
77
77
72
67
67
67
35
36
34
71
67
62
88
82
78
103
101
88
147
144
129
148
144
130
148
148
131
133
128
118
94
89
82
138
133
121
136
129
115
145
139
124
134
128
111
160
154
136
157
151
133
166
160
142
152
145
132
138
131
118
132
127
114
133
128
116
126
121
109
118
113
104
107
104
94
94
91
83
94
88
82
65
60
53
130
127
109
97
93
83
27
27
25
37
37
36
58
57
52
79
78
69
99
97
86
112
109
96
123
118
104
137
133
118
131
127
112
136
132
117
131
126
111
121
117
103
127
122
107
135
131
117
119
114
102
111
106
94
111
106
94
120
116
104
124
121
108
129
127
114
130
125
113
133
128
116
124
121
111
119
116
105
126
123
112
122
119
109
122
120
107
122
119
107
121
119
106
127
124
111
124
121
110
120
118
105
90
88
80
89
88
81
112
109
103
133
131
120
133
131
116
134
132
116
149
144
130
143
139
124
146
144
129
148
145
130
146
144
131
150
147
134
147
147
133
145
145
131
145
144
133
144
144
133
139
139
128
140
140
128
136
136
124
129
128
117
119
118
107
122
122
110
120
120
109
116
115
104
116
115
106
113
112
103
113
112
103
116
116
106
114
113
106
109
108
101
106
107
98
105
106
97
106
105
98
98
97
90
96
97
90
96
97
90
97
95
90
93
91
87
89
88
82
83
82
75
72
73
68
74
74
70
84
84
80
88
87
83
98
96
92
84
82
79
81
80
77
127
126
119
103
102
96
97
96
83
87
86
77
105
103
90
104
100
97
100
97
89
128
124
117
62
62
61
104
107
106
98
101
102
96
101
100
90
95
93
91
96
93
86
89
88
63
65
62
61
63
60
71
74
68
68
70
68
120
120
111
71
72
69
76
76
74
100
97
87
167
157
138
126
126
119
136
134
123
117
117
106
110
108
102
111
110
100
43
43
45
89
88
84
112
107
100
45
48
45
133
138
133
88
93
95
35
34
31
108
105
101
65
62
62
86
89
88
96
98
99
48
50
51
42
44
43
146
149
148
91
92
92
99
107
111
95
102
110
70
73
78
29
29
29
113
110
103
95
95
90
115
113
108
99
100
95
104
105
100
99
99
95
95
95
92
95
97
94
86
74
72
138
108
96
147
121
113
118
88
80
114
102
94
112
112
110
110
109
108
109
105
105
104
104
102
98
101
100
100
104
102
97
98
100
43
44
54
34
36
49
55
54
65
82
59
55
98
64
59
104
72
68
103
93
90
146
133
125
90
88
86
90
88
86
80
78
76
83
81
78
76
76
77
51
52
57
66
67
68
51
50
43
78
77
70
75
73
65
86
83
75
73
70
61
91
88
75
118
114
101
109
105
92
102
97
85
100
96
85
77
73
63
86
80
66
114
109
92
119
112
96
83
78
65
72
68
60
57
53
49
156
149
139
93
83
72
53
47
35
105
108
100
139
132
120
140
132
121
137
131
118
132
125
109
78
73
65
41
40
36
121
118
101
116
111
98
64
58
56
121
116
108
149
142
134
180
173
161
40
39
35
42
39
34
64
58
51
69
63
55
90
85
72
107
100
85
119
112
97
164
160
144
154
144
131
54
45
39
74
68
62
128
116
101
103
95
84
95
94
89
95
93
84
106
101
89
59
56
51
49
47
39
139
134
116
123
115
101
36
36
29
106
108
100
90
88
86
43
40
35
75
72
60
114
109
95
127
122
108
154
152
134
152
149
132
156
150
135
56
52
46
76
77
70
73
74
70
39
39
37
80
76
70
96
91
83
106
102
92
130
126
112
129
125
112
134
133
124
134
128
118
93
88
82
83
78
67
118
111
98
121
114
102
126
120
105
162
156
138
158
152
133
158
152
134
151
144
129
135
128
116
126
121
109
134
129
117
137
132
120
128
123
112
101
98
87
81
78
70
94
88
81
61
56
49
125
122
104
92
88
78
28
28
26
36
37
35
57
56
50
84
83
74
103
100
90
111
108
94
129
124
110
139
135
121
139
135
121
136
131
117
134
130
114
135
130
116
120
115
101
119
115
100
104
99
86
111
106
93
111
106
94
120
115
103
128
125
113
136
134
121
135
130
118
127
123
111
117
114
104
117
114
104
121
118
108
122
120
109
126
124
111
129
126
113
130
127
115
129
126
114
121
119
106
121
118
106
120
120
106
114
114
100
115
112
103
136
133
119
138
136
120
140
138
123
147
143
128
147
143
128
149
147
132
149
147
132
151
148
135
146
143
130
147
147
133
146
146
132
146
145
134
143
143
132
140
139
126
136
135
124
134
133
122
128
127
116
122
121
110
121
121
110
117
117
106
116
115
105
116
115
106
111
111
102
114
113
104
112
111
105
114
113
106
103
102
96
104
106
96
106
108
99
107
105
99
102
101
95
93
94
87
92
93
86
91
89
85
90
89
84
83
82
77
85
84
79
78
79
74
75
76
71
84
84
80
97
96
92
99
97
93
87
85
81
127
126
124
95
94
86
97
96
88
137
136
119
134
131
118
110
106
99
89
85
85
106
103
96
99
95
88
75
77
75
84
86
86
103
105
105
92
95
94
87
91
89
85
89
87
85
87
86
87
88
85
62
63
61
64
67
65
94
96
90
131
130
121
63
65
62
73
76
73
98
99
88
166
157
139
123
122
116
133
130
119
118
118
107
109
108
101
117
116
107
49
49
48
87
87
82
110
105
97
44
47
43
131
136
132
88
93
94
37
35
33
110
108
103
66
64
64
87
90
89
94
96
97
47
49
51
45
46
45
146
148
147
92
93
92
95
103
107
89
96
104
66
69
75
38
38
36
148
145
129
90
89
85
111
109
104
76
74
79
71
71
76
78
80
77
74
76
74
70
76
74
72
75
74
77
80
78
80
82
84
85
90
88
92
99
96
111
114
112
113
112
112
108
109
108
100
104
103
102
107
110
89
94
96
90
94
98
72
75
80
30
34
46
55
55
66
69
53
56
70
54
53
85
67
68
106
98
94
148
140
130
101
100
96
101
100
94
103
102
96
93
91
89
83
83
84
44
46
50
62
64
65
74
76
69
62
64
57
89
91
82
109
112
103
113
114
106
103
104
92
106
104
92
99
94
84
123
119
100
115
111
98
77
72
65
72
67
59
100
95
81
109
104
93
119
115
104
84
80
75
60
54
51
144
139
129
88
78
66
54
44
37
106
105
98
142
137
125
142
136
121
145
139
124
138
130
116
79
76
68
45
42
35
103
96
85
118
111
104
69
63
59
123
118
111
138
132
121
177
170
156
40
38
34
41
38
33
61
56
47
66
61
51
98
91
80
117
110
97
121
112
98
152
148
132
155
148
134
55
46
40
73
68
62
121
109
94
100
92
80
87
86
79
92
90
84
104
100
92
57
56
49
53
50
41
141
133
117
119
112
99
38
37
32
94
94
89
86
85
81
42
39
35
81
78
68
121
117
102
125
121
106
149
142
128
139
133
119
137
133
120
52
49
44
90
93
85
74
73
67
45
44
42
82
76
70
138
133
124
111
107
97
125
120
108
150
146
132
127
125
108
130
126
115
90
85
78
80
73
67
111
104
94
106
98
88
112
105
93
156
149
133
127
121
105
137
130
115
143
139
124
130
125
111
122
117
105
128
123
111
118
113
102
125
120
108
98
93
82
94
89
82
90
85
79
56
51
45
132
126
112
90
84
74
28
26
27
39
37
34
57
55
50
81
80
71
103
100
89
108
106
94
123
118
105
144
139
125
137
132
118
140
136
121
129
127
112
129
127
111
130
125
113
120
117
105
109
106
94
105
103
91
106
104
91
117
112
100
125
122
110
131
129
116
133
130
120
122
119
109
119
116
105
122
119
109
123
120
107
127
125
112
128
125
116
131
128
118
129
124
113
132
127
115
126
123
111
116
114
100
117
114
102
117
114
102
117
113
105
131
128
117
139
137
122
145
143
128
145
142
127
149
147
132
150
148
133
147
146
130
145
145
131
145
145
132
144
144
131
145
145
132
145
144
133
144
144
132
139
139
127
133
132
121
131
130
119
126
125
114
123
123
111
119
118
108
117
117
108
112
111
102
111
110
102
107
106
98
109
110
102
110
111
103
105
105
96
107
106
98
101
102
95
100
101
94
104
102
97
103
102
94
95
93
87
86
87
80
85
83
78
93
91
86
68
67
62
71
70
66
58
59
54
75
75
71
81
82
77
87
86
82
89
88
84
108
110
105
78
80
73
88
90
79
83
82
74
100
97
90
92
88
84
95
90
87
90
87
86
94
90
88
113
112
104
64
64
60
82
85
85
67
70
74
102
105
101
92
94
91
99
102
100
94
96
95
92
95
92
74
77
74
67
70
67
83
85
81
118
121
117
79
81
80
77
82
82
99
97
92
158
150
133
125
124
116
136
133
122
114
114
103
108
108
102
117
117
112
50
48
50
90
90
87
105
100
95
41
44
43
136
140
133
93
96
95
38
38
37
114
115
112
70
67
68
86
88
88
94
96
100
51
53
56
46
48
46
146
147
143
95
96
96
96
106
112
86
99
109
60
65
76
61
59
56
165
160
146
111
111
107
64
65
62
76
77
79
67
68
72
74
74
74
77
76
77
75
73
73
70
67
68
72
70
72
76
75
79
77
78
82
79
80
84
91
91
95
87
90
94
93
99
102
71
81
80
86
85
87
93
94
97
106
110
110
76
80
83
26
33
45
47
50
59
56
51
59
65
59
65
77
65
69
104
95
92
151
141
128
97
98
94
97
95
93
92
90
88
83
83
80
77
77
78
45
48
54
57
64
67
69
75
67
74
80
71
115
118
109
112
115
106
116
119
111
119
121
108
143
142
131
148
144
134
134
131
112
122
117
102
74
68
62
96
91
82
133
128
114
138
134
114
135
130
112
112
106
95
64
58
54
139
134
123
87
77
65
55
44
38
106
105
98
144
139
126
141
135
120
141
134
119
136
128
115
85
81
74
48
45
38
108
101
91
95
87
78
68
63
57
127
122
116
146
139
128
179
173
156
38
36
30
39
36
31
61
56
47
65
60
50
94
87
74
129
122
107
120
111
100
153
150
134
154
148
133
56
47
41
71
65
59
119
108
93
100
92
81
81
80
74
86
84
80
98
94
87
54
54
46
64
61
52
140
130
116
127
119
107
34
33
28
103
103
97
88
87
84
39
35
32
82
79
69
117
113
98
124
120
105
148
141
128
148
141
128
138
134
121
46
43
38
72
74
67
76
75
70
43
42
40
78
72
66
101
96
85
113
108
98
110
105
94
126
122
107
123
122
105
132
129
120
87
83
76
86
79
71
99
92
83
106
99
91
86
79
69
108
101
89
113
105
94
114
107
96
116
111
99
122
117
105
114
110
98
118
113
101
121
116
104
121
117
105
94
89
78
91
86
79
88
82
73
58
55
46
127
121
108
88
82
73
29
27
26
37
35
34
55
54
48
76
76
66
101
99
86
110
107
94
125
120
107
134
129
115
136
131
117
136
132
117
127
125
110
136
134
119
126
121
109
125
122
110
120
117
104
109
106
93
115
113
100
125
120
108
129
126
114
136
133
121
133
131
120
128
125
114
118
115
105
123
120
109
125
123
110
129
127
114
127
125
113
132
129
117
130
125
113
134
129
117
130
127
114
129
127
114
130
127
114
129
127
114
115
110
102
132
129
118
135
134
118
142
140
125
141
139
123
146
143
128
145
143
128
147
145
129
144
144
131
147
147
133
145
145
131
144
144
130
143
143
132
140
139
128
137
136
125
133
133
122
127
126
115
127
126
115
122
121
112
116
115
104
112
111
102
112
111
102
113
113
104
112
111
103
109
111
103
106
107
99
108
107
98
106
105
97
104
105
98
101
102
95
103
101
96
94
93
86
94
92
86
89
91
83
92
91
83
99
98
91
92
91
82
94
93
85
70
71
65
83
84
79
91
92
87
91
91
87
91
89
85
59
62
57
74
76
69
83
85
74
109
107
98
118
114
107
111
105
102
94
90
86
95
92
86
104
101
95
100
99
94
106
107
98
59
60
60
70
73
69
99
100
96
89
89
86
91
91
91
81
81
81
84
87
84
73
76
73
66
69
66
69
72
69
73
76
72
64
68
67
76
80
81
97
97
92
163
155
141
121
119
112
136
134
123
117
119
107
107
106
100
113
113
107
48
46
48
96
96
93
104
99
95
46
49
48
139
141
135
97
100
99
38
38
38
120
121
118
71
68
69
85
87
88
95
97
101
53
55
58
49
51
49
148
149
144
98
99
100
98
109
114
93
106
116
62
67
78
65
63
58
164
160
144
116
116
112
114
115
113
71
71
69
72
71
68
76
77
77
75
74
74
77
74
75
80
77
77
82
81
79
76
76
75
77
78
80
68
70
73
74
78
85
59
70
75
58
73
75
56
61
62
94
92
95
109
110
113
100
104
104
69
73
76
22
26
36
35
43
54
48
50
57
57
57
62
71
64
66
97
92
89
154
143
130
90
91
87
96
94
92
91
89
87
87
87
84
85
85
85
44
50
55
62
73
74
70
76
66
72
76
67
95
98
89
108
111
102
111
113
104
113
113
100
113
113
101
102
100
86
114
110
94
119
114
99
76
70
63
137
132
120
139
134
119
134
129
113
135
129
111
102
95
82
64
58
51
134
129
121
89
77
65
55
44
40
103
101
94
140
135
121
141
135
119
138
131
117
139
131
116
84
80
72
42
39
32
97
90
80
103
96
87
66
61
55
123
118
112
136
129
119
165
159
145
37
35
31
39
35
33
61
55
47
67
59
50
97
90
77
128
119
105
119
112
102
159
154
140
160
154
139
58
50
44
68
62
57
118
106
93
97
89
79
82
81
76
88
85
83
96
92
85
54
53
46
75
72
63
139
129
115
126
118
106
34
34
29
113
114
108
82
81
79
40
37
34
82
79
69
117
113
100
125
121
106
148
143
130
146
141
129
135
132
120
56
54
48
60
58
56
77
75
73
42
40
38
76
73
65
112
110
100
112
107
97
139
135
120
119
117
102
118
118
102
134
131
123
85
82
75
94
88
81
85
80
71
79
74
65
95
90
81
82
75
64
96
88
79
107
99
90
102
97
86
112
108
96
119
114
102
122
117
106
121
116
104
128
123
111
89
86
75
94
91
83
92
85
77
59
56
48
118
116
103
82
79
71
28
26
25
37
35
34
55
52
46
75
72
62
97
94
83
111
108
98
120
118
105
127
124
111
122
117
105
131
126
114
121
116
104
131
126
114
134
129
117
125
120
107
123
120
107
120
118
104
113
111
97
119
117
104
130
125
113
132
127
116
130
127
114
128
125
113
126
123
113
125
122
112
132
129
117
131
129
116
136
131
119
135
130
118
136
133
120
132
129
116
135
130
119
133
128
115
130
126
113
132
128
115
108
104
93
133
130
116
131
130
114
136
134
118
138
136
121
143
140
125
142
140
125
144
142
127
143
143
127
142
143
127
144
144
131
145
145
132
141
141
128
138
137
124
136
133
122
133
131
119
124
123
113
123
122
112
119
119
108
117
116
105
114
113
102
112
112
101
113
112
103
113
112
104
110
109
102
111
110
100
108
109
101
105
106
99
104
103
94
106
106
97
104
101
98
94
93
87
92
93
86
84
86
78
96
95
86
98
97
89
96
95
89
92
91
85
73
72
68
96
95
91
97
96
92
95
94
89
87
85
79
72
72
65
72
73
66
85
84
78
94
92
85
111
103
95
113
105
97
101
97
88
103
100
92
108
105
97
102
100
94
86
85
80
98
98
95
71
72
70
74
74
73
67
67
64
77
77
74
75
76
73
69
71
67
67
70
67
75
77
74
83
84
81
85
83
82
58
60
61
66
69
71
95
96
89
162
155
142
123
120
114
143
141
132
112
113
104
105
105
97
111
111
104
47
45
46
102
103
99
97
95
91
48
51
49
133
136
130
91
94
95
37
37
38
117
118
113
71
70
70
85
88
88
96
99
102
53
56
59
49
51
50
143
144
142
98
99
100
98
109
113
93
104
112
63
69
77
69
67
61
168
162
144
121
122
117
120
121
116
97
98
96
75
75
76
80
81
83
81
77
77
82
80
79
85
83
80
83
78
75
83
82
78
76
79
79
74
76
78
84
82
85
82
82
82
66
68
70
46
46
49
117
118
122
96
99
103
96
100
104
69
72
78
22
25
41
33
40
58
45
46
55
49
48
53
62
63
63
83
85
83
153
145
130
87
87
85
97
97
94
92
93
91
85
85
86
81
81
82
44
51
57
59
71
74
74
77
72
71
72
67
93
97
89
95
98
89
106
108
97
104
102
92
101
100
89
112
110
96
119
115
100
119
115
100
97
94
82
151
148
130
157
154
134
150
146
126
144
136
118
111
102
90
62
57
49
129
123
116
92
81
65
56
47
38
102
100
94
140
135
122
138
132
116
135
129
114
137
129
114
82
78
70
40
36
34
107
100
86
125
118
106
63
59
53
115
112
106
140
134
123
168
162
147
34
32
28
37
34
32
61
56
48
65
58
49
99
93
80
127
118
104
121
114
103
156
152
136
175
170
152
68
60
54
73
67
61
115
104
92
95
87
79
79
77
73
84
81
80
80
75
69
52
50
43
84
82
73
141
131
117
126
119
106
38
38
32
114
114
108
76
75
74
38
34
31
77
74
64
116
112
99
122
118
102
147
143
126
143
139
123
143
139
126
58
56
50
106
105
97
70
68
67
32
30
32
64
60
55
93
89
80
92
89
79
115
110
98
108
106
92
120
120
106
137
134
128
88
83
77
73
67
59
73
69
60
61
56
46
71
65
55
80
72
64
64
57
48
87
80
70
87
81
72
83
78
68
101
96
85
101
96
85
117
112
100
116
112
101
92
89
78
110
107
98
86
78
71
64
61
53
108
106
98
79
76
71
27
25
24
38
36
35
57
54
48
75
72
62
98
95
84
111
108
98
118
115
102
117
115
102
123
118
106
126
121
109
111
106
95
120
115
103
127
122
110
124
120
108
121
118
106
119
116
103
118
116
103
115
112
100
130
125
114
131
126
114
128
126
113
127
125
112
128
125
115
128
125
115
131
129
116
131
128
116
134
129
117
135
130
118
132
129
116
131
129
116
133
127
117
132
128
114
133
128
116
134
131
118
108
104
93
128
124
111
126
125
113
128
125
113
139
137
123
140
138
124
144
142
126
151
149
133
148
149
133
145
145
129
142
143
128
140
140
125
139
139
125
137
137
124
137
134
124
135
132
123
125
125
112
125
124
112
119
118
107
117
117
106
115
115
104
112
112
100
111
110
101
113
112
104
107
106
99
108
107
97
108
109
101
105
107
99
103
103
94
104
102
93
108
105
97
99
98
91
96
97
90
88
89
82
86
85
77
88
87
79
90
88
83
91
89
84
78
77
73
102
100
97
97
95
91
97
96
92
91
91
84
83
81
75
61
59
55
101
98
93
86
82
75
119
112
103
110
102
93
100
98
88
104
101
93
104
100
93
102
100
95
94
92
87
93
92
87
102
102
99
92
93
91
84
85
83
97
97
95
86
86
84
81
83
80
102
104
100
94
96
93
91
91
87
96
94
90
83
86
83
80
83
78
92
94
87
157
150
138
120
118
112
138
136
128
107
110
101
103
103
95
109
109
102
45
43
45
109
109
106
100
98
94
45
48
46
135
138
132
87
90
91
33
33
34
121
122
117
70
69
69
85
89
89
97
100
104
53
56
59
48
50
50
140
141
139
95
96
97
99
111
115
96
107
115
63
69
77
72
70
64
171
166
147
115
117
109
104
105
101
79
79
79
83
83
84
69
71
72
71
66
66
68
62
63
68
68
69
72
69
69
72
72
78
74
78
87
66
69
79
72
73
78
90
91
92
75
77
79
37
39
41
94
101
103
94
102
103
97
101
105
64
67
73
19
25
41
32
37
57
46
44
55
52
53
59
60
61
64
79
80
83
154
146
132
96
96
93
95
95
93
92
93
90
84
87
86
85
88
88
42
52
57
63
72
76
73
73
68
92
94
89
86
89
81
102
106
96
106
107
97
93
90
79
104
102
89
97
95
82
119
114
101
115
112
98
110
109
96
137
137
121
84
82
72
80
75
64
130
120
108
99
88
81
62
59
53
116
111
105
94
84
71
58
51
41
100
97
92
143
138
125
137
133
116
131
127
111
135
127
114
81
77
71
42
39
33
107
99
88
88
81
71
65
60
54
107
105
99
122
119
107
169
164
147
36
34
29
37
34
31
61
55
47
68
61
52
96
89
77
131
121
108
120
114
101
142
139
123
166
162
145
68
63
57
68
63
56
111
101
87
86
82
73
74
71
68
83
77
71
103
96
89
60
58
50
85
85
75
135
127
112
124
116
102
46
46
39
134
134
129
77
76
74
35
33
29
75
74
64
117
112
99
119
114
100
143
139
123
149
145
129
136
133
120
59
57
51
78
77
71
73
71
69
30
28
27
63
60
55
100
97
90
94
93
84
123
120
107
135
131
116
120
118
104
135
132
124
93
86
80
78
73
65
75
72
63
79
73
66
71
66
58
81
73
64
82
74
65
84
76
68
90
85
76
88
83
73
98
93
81
89
86
73
94
92
80
91
88
78
97
93
83
100
96
87
84
78
70
58
54
45
130
126
115
81
77
73
27
24
24
39
37
35
59
58
52
85
83
75
107
102
94
119
113
103
124
122
108
123
121
104
130
126
112
134
130
115
127
122
111
126
121
110
127
125
112
129
127
114
121
119
106
119
117
104
117
115
102
118
115
103
121
118
106
123
121
108
123
120
109
123
120
110
128
126
113
131
129
116
135
131
119
138
133
121
138
136
123
137
135
122
136
133
121
131
128
116
131
129
117
134
131
117
136
130
116
137
134
120
105
101
89
144
140
127
123
122
112
119
117
107
145
138
124
129
126
113
147
145
130
148
146
131
149
147
134
150
148
135
145
142
129
141
139
125
137
137
124
139
139
125
136
136
125
133
133
121
127
127
115
124
123
112
122
121
112
116
115
106
115
115
104
109
108
97
108
107
98
111
111
102
111
112
103
105
107
97
110
109
100
107
106
97
106
105
96
103
102
93
104
103
95
101
100
92
98
97
90
89
87
81
86
85
80
90
89
84
92
90
83
103
101
94
85
84
81
103
101
98
100
100
96
99
100
95
102
100
94
93
90
81
88
85
77
98
95
87
104
100
90
116
110
100
122
113
102
113
108
99
105
102
93
104
100
94
106
105
99
105
103
96
109
108
100
94
93
86
101
102
94
88
90
78
96
95
86
96
95
87
91
92
84
91
92
86
82
83
77
87
85
80
96
94
88
96
92
87
81
80
78
90
90
83
157
151
139
122
121
115
141
139
129
114
114
106
104
103
99
108
108
102
44
45
47
104
104
101
111
106
103
50
51
51
137
139
134
89
92
90
32
32
31
114
114
112
69
66
67
81
84
83
94
99
100
52
56
58
48
52
51
141
144
139
90
91
92
101
112
117
95
107
114
62
67
77
71
71
65
174
168
148
115
118
114
110
113
109
93
93
92
107
107
107
67
65
67
67
62
62
65
56
60
70
62
66
68
62
64
67
63
67
69
65
70
65
60
70
67
66
72
83
83
84
98
101
99
90
92
92
104
108
109
89
97
100
89
93
100
55
59
66
20
26
43
31
37
57
43
47
61
51
55
64
61
59
66
78
79
83
150
143
132
93
95
93
95
98
94
88
91
87
85
87
86
86
88
89
41
50
58
59
67
74
92
98
91
95
100
94
101
105
97
93
96
86
106
106
97
116
113
104
102
99
88
81
79
66
117
112
97
123
120
103
106
106
90
92
92
81
119
115
102
95
92
81
95
89
76
105
98
90
60
59
52
137
130
117
102
85
71
63
55
48
95
93
87
140
135
122
137
133
117
132
128
112
135
127
115
80
75
70
42
39
33
117
108
97
101
92
82
69
63
57
108
105
99
128
126
112
165
159
143
35
34
28
40
37
34
64
58
50
67
59
51
102
95
84
127
118
105
123
117
103
149
145
128
157
147
126
75
70
62
71
66
59
118
109
96
99
95
86
124
124
113
125
118
107
120
113
105
71
67
60
88
88
79
134
127
112
124
116
102
51
51
44
114
114
108
84
83
81
33
31
28
70
69
59
112
108
93
115
110
97
103
99
87
113
109
95
129
125
112
59
58
52
81
80
75
74
72
70
27
25
23
59
56
52
95
92
85
99
99
91
110
107
96
146
142
126
121
119
105
138
134
126
92
84
78
90
87
81
99
96
92
91
85
83
82
76
72
106
101
89
119
113
99
120
116
103
100
96
85
107
103
92
107
103
92
94
90
79
94
91
86
61
58
54
90
88
79
115
112
104
93
88
80
61
56
47
130
126
114
81
76
72
24
22
21
34
31
30
56
55
49
77
75
67
101
96
88
110
105
94
114
112
98
124
122
107
125
120
106
124
119
105
125
120
108
118
113
101
126
123
111
128
126
113
117
114
101
115
113
100
118
116
103
121
118
105
120
117
104
121
118
105
121
118
108
124
122
111
126
124
111
128
125
113
133
128
116
135
130
118
133
130
117
134
131
118
131
129
116
131
129
116
132
129
117
136
133
119
133
128
114
143
140
126
112
108
98
132
128
115
126
124
116
112
110
102
136
130
117
128
125
113
147
145
130
149
147
132
145
143
130
146
143
131
147
144
131
144
142
129
140
140
127
135
135
122
136
135
123
131
130
120
127
127
115
124
123
112
121
119
111
115
114
105
117
116
105
113
112
101
109
109
100
112
111
102
111
112
103
108
110
100
106
105
96
107
106
98
108
107
98
109
108
99
103
102
94
112
111
102
109
108
98
107
107
97
106
105
97
107
106
98
111
110
100
109
108
98
87
85
82
105
103
100
96
97
92
91
91
86
95
93
91
95
91
86
97
96
88
103
99
92
110
107
97
109
103
94
111
105
96
110
107
96
102
100
91
111
110
100
102
101
93
98
96
92
103
101
98
96
97
94
90
90
88
92
94
87
94
94
90
91
90
86
82
83
77
89
90
83
82
83
76
77
77
71
93
92
90
85
84
83
80
81
79
94
93
88
157
152
142
117
115
109
144
141
133
111
111
103
105
104
100
109
110
104
45
46
48
106
106
103
106
102
98
47
47
48
144
145
141
94
97
95
30
31
30
125
125
123
73
69
70
81
83
82
97
101
101
55
59
62
49
53
52
143
147
142
91
93
93
101
112
117
93
105
112
63
68
78
70
70
65
180
174
154
117
121
113
103
106
105
104
104
104
107
107
107
42
41
43
73
68
68
72
66
66
73
67
66
74
70
68
70
65
66
75
72
72
68
71
75
71
72
77
44
43
45
96
98
98
116
118
116
110
114
112
75
82
89
76
84
93
48
53
62
20
26
43
34
39
59
45
50
62
52
54
65
62
61
66
79
81
85
148
141
130
94
96
94
93
96
93
87
90
87
87
89
88
85
88
89
42
50
58
58
66
73
98
104
95
96
102
93
98
103
95
104
105
97
105
104
96
105
103
94
109
106
95
119
115
101
114
110
93
124
119
101
100
97
84
143
142
126
61
58
49
64
61
51
126
122
107
94
87
79
63
59
56
142
133
118
114
96
75
66
57
48
94
92
84
133
129
113
134
129
117
133
128
114
133
125
113
75
71
66
39
38
34
100
93
83
98
88
77
71
64
58
107
103
96
128
125
110
164
158
143
35
33
29
41
38
34
63
58
48
70
63
54
88
81
71
107
100
88
121
114
101
136
130
116
128
121
103
84
78
72
75
69
62
120
112
100
99
93
83
124
121
109
134
130
122
139
135
125
76
73
68
98
99
87
124
118
102
116
108
95
50
48
44
74
73
68
45
43
42
35
31
30
69
66
58
96
92
78
109
104
91
128
124
112
121
116
104
135
127
116
62
57
52
74
72
67
72
70
68
29
27
26
65
64
59
87
83
76
95
96
87
127
122
111
136
132
113
121
120
104
138
135
124
102
94
84
135
131
121
53
51
48
147
141
138
86
82
78
137
133
121
155
154
133
161
157
140
159
156
141
125
120
106
119
115
100
109
104
89
48
41
39
148
134
119
83
74
58
95
95
91
95
89
83
67
62
52
134
133
118
83
80
74
24
21
21
32
30
29
48
47
41
74
72
64
91
86
76
108
103
90
108
103
91
110
105
91
114
112
98
118
116
102
122
120
107
114
112
99
124
122
109
121
119
106
112
109
97
110
107
95
113
111
98
116
113
100
118
116
104
120
118
105
120
117
107
124
122
111
123
123
111
127
126
115
128
124
114
128
124
114
129
128
117
128
128
116
128
125
115
131
128
118
132
129
117
132
129
116
136
131
117
138
135
121
115
109
101
133
127
116
129
125
119
110
109
100
138
132
120
121
117
111
147
144
131
146
144
131
145
146
128
145
145
128
146
141
127
140
135
121
140
137
124
137
135
122
134
131
120
130
127
117
127
126
115
123
122
111
122
121
110
115
116
105
113
112
103
114
114
105
111
113
103
112
112
103
110
110
101
110
109
100
114
111
103
112
109
101
113
110
100
114
112
101
110
109
100
108
107
98
109
106
98
106
103
95
113
112
105
112
111
105
108
106
100
102
101
95
90
88
82
100
98
92
98
97
92
98
96
91
92
92
90
97
97
93
92
90
86
101
98
93
111
108
101
109
105
95
114
111
99
104
103
90
103
103
93
103
102
95
98
97
90
95
94
88
102
98
94
93
92
91
92
90
88
91
89
85
82
83
79
83
83
79
84
85
80
84
83
78
89
88
82
99
98
93
86
86
82
84
85
82
79
80
77
96
96
91
161
156
147
118
116
112
144
140
133
116
116
109
110
109
105
111
111
106
42
44
46
115
116
114
109
107
104
45
47
49
141
140
136
97
98
98
32
31
32
127
126
122
67
66
66
70
73
73
93
97
97
53
57
60
46
50
50
141
145
142
90
91
89
100
111
114
95
105
113
63
66
78
69
70
64
183
179
159
119
119
111
106
108
108
103
103
102
95
95
94
34
33
38
57
55
57
57
55
55
60
58
58
65
63
64
63
60
65
67
68
71
63
64
67
66
67
72
39
37
41
78
77
79
102
102
101
104
105
104
81
92
99
74
89
100
45
50
62
19
25
46
33
39
58
45
51
60
49
54
61
62
64
70
79
81
87
145
137
125
90
93
94
92
94
94
90
93
89
91
91
88
86
90
93
42
48
57
58
66
73
106
112
103
99
105
96
90
93
86
125
125
115
94
93
81
109
109
96
99
96
84
108
104
89
110
106
89
126
121
103
110
108
96
102
100
84
104
102
88
111
106
93
115
110
96
74
69
62
63
61
59
134
126
118
102
84
63
65
56
46
95
93
84
135
131
115
131
126
113
129
125
110
133
125
113
72
67
62
41
39
35
93
86
76
92
80
68
73
65
58
108
102
94
123
119
104
159
153
138
35
33
29
46
43
38
79
74
63
105
98
86
113
106
92
148
141
125
149
142
127
150
144
130
143
137
119
100
93
87
80
75
68
121
114
101
124
118
101
107
104
96
46
43
42
51
48
46
114
111
104
121
118
110
109
103
91
116
109
99
73
71
65
127
126
116
88
86
82
54
51
46
116
113
102
123
119
105
122
117
104
135
130
114
141
137
121
138
130
119
56
52
47
76
75
70
69
67
65
30
28
26
76
74
69
92
88
81
99
97
89
98
93
82
117
112
100
112
111
97
134
132
120
106
98
88
132
127
115
60
57
53
121
115
109
89
83
78
145
141
130
160
159
140
163
161
144
155
152
137
110
106
94
113
108
96
109
106
96
33
30
29
38
28
23
47
44
38
78
77
69
99
95
89
70
67
56
130
129
114
82
79
73
24
21
21
33
31
29
49
48
42
71
70
61
94
89
79
107
102
90
112
107
95
111
106
96
90
87
78
109
106
96
112
110
97
109
106
94
111
109
96
114
112
99
109
106
93
112
109
97
113
110
98
112
110
97
118
116
103
115
112
101
120
120
108
119
119
108
122
122
111
121
121
109
124
122
111
121
119
109
125
124
113
127
127
116
126
123
113
132
129
119
133
131
118
133
130
117
137
132
118
138
135
121
109
102
96
138
132
122
127
122
116
114
112
103
132
125
117
118
114
105
144
141
128
146
143
130
142
143
125
141
141
123
145
140
126
141
137
123
139
136
123
134
132
119
131
128
117
126
124
113
125
125
113
121
120
109
121
119
108
118
119
107
111
110
101
114
114
105
112
114
104
108
108
99
111
110
101
110
110
101
115
112
104
114
111
104
115
113
103
113
111
100
108
107
98
110
109
100
115
112
104
107
104
96
113
112
105
112
111
104
110
109
102
111
110
103
92
91
84
104
102
96
105
103
98
95
94
88
93
94
89
109
109
104
103
102
96
93
91
84
102
101
94
115
113
102
100
97
88
109
107
100
108
106
98
96
96
88
106
105
99
97
95
89
108
104
99
102
100
99
105
102
97
96
93
89
86
86
82
86
87
83
87
88
82
85
85
82
73
74
71
85
87
85
95
97
94
86
86
84
82
83
81
92
93
92
152
148
140
122
119
116
146
143
136
119
119
112
107
106
103
107
107
102
40
41
43
109
109
107
104
101
99
48
50
52
131
131
127
92
93
93
28
28
29
125
128
123
65
64
65
74
78
78
95
99
99
51
55
58
44
48
49
138
142
139
87
88
87
95
106
110
95
105
111
64
68
77
70
71
65
184
180
160
120
119
112
104
106
106
100
103
104
72
75
76
35
36
41
72
69
70
78
77
75
68
67
65
65
63
61
62
60
60
64
63
62
67
65
65
62
60
62
48
49
52
49
49
51
103
103
102
97
98
98
84
95
101
80
93
102
45
54
66
20
25
46
33
39
58
45
50
62
48
53
59
66
68
72
77
80
87
147
139
127
91
94
95
90
93
92
89
92
88
79
86
82
76
82
84
39
48
56
52
63
69
94
99
88
91
94
85
109
110
101
96
96
84
102
102
89
93
92
80
104
102
90
109
105
91
115
111
94
131
126
109
106
103
91
118
114
98
110
105
91
100
95
81
107
104
92
94
90
84
62
58
55
140
132
124
100
84
66
64
57
45
96
94
85
139
135
119
136
131
115
133
129
113
131
125
112
71
68
61
44
42
38
95
88
78
88
77
64
72
64
55
115
111
104
126
120
107
156
151
132
36
34
29
47
43
41
83
77
69
105
98
86
120
113
97
140
134
118
150
143
129
150
143
129
142
135
120
98
92
81
75
71
64
113
106
93
117
111
96
145
142
128
123
121
109
127
125
113
127
124
111
123
120
111
106
99
88
117
112
102
58
55
48
120
118
109
74
72
69
48
44
39
118
115
103
132
128
113
125
120
107
134
130
115
137
133
118
129
125
112
51
49
43
86
85
78
68
66
63
33
31
27
77
76
69
92
88
83
98
96
90
129
125
112
116
111
99
108
105
91
131
127
115
112
106
95
141
134
119
155
150
137
136
132
124
151
150
136
153
151
136
153
152
136
157
153
138
145
141
126
120
117
106
105
102
91
101
99
89
98
96
92
101
98
94
122
120
109
88
85
75
97
94
86
66
65
54
132
132
119
80
76
72
21
21
20
37
37
35
54
52
47
66
65
55
80
77
68
88
85
74
91
89
76
101
98
86
89
86
78
105
102
91
112
105
96
103
99
89
109
106
93
108
106
93
112
107
95
112
107
95
114
111
101
113
110
100
117
114
101
113
110
98
121
118
108
115
113
102
119
118
107
118
117
106
119
118
107
120
119
108
121
121
108
125
125
111
127
124
111
128
125
113
132
129
117
133
131
118
134
132
116
138
136
123
110
104
96
139
133
123
123
120
112
109
107
99
125
119
110
121
116
107
140
138
123
141
139
123
140
138
123
139
137
122
138
134
119
139
135
120
136
133
120
134
131
118
129
128
117
122
122
110
119
118
107
120
120
108
117
115
104
118
116
105
114
113
105
116
115
106
114
113
102
111
111
100
115
114
105
113
112
103
115
112
101
115
112
103
114
113
102
116
115
104
111
108
100
110
106
99
109
108
99
110
109
100
112
111
103
112
111
102
109
108
99
107
106
97
87
86
79
101
100
94
91
91
88
101
103
100
101
103
98
108
107
99
121
117
106
110
107
94
95
96
85
92
91
83
101
99
92
101
97
91
104
101
93
105
100
93
105
105
100
111
112
104
111
111
105
107
107
101
100
100
94
102
101
96
100
99
98
101
100
96
101
101
97
107
107
102
107
107
103
83
85
84
96
97
96
86
87
87
86
88
88
92
94
92
147
141
136
114
116
114
139
139
128
117
120
109
106
107
105
105
107
103
40
40
42
107
110
105
108
106
104
50
52
53
123
127
121
90
92
95
27
29
28
119
121
119
67
63
66
73
75
76
98
101
101
50
54
57
46
47
48
135
137
132
86
85
84
95
105
108
92
101
108
60
65
73
71
71
67
182
180
161
121
121
115
104
110
109
101
106
108
31
35
38
49
52
57
93
89
87
53
53
55
56
57
59
65
68
67
73
76
76
69
71
74
65
68
69
68
67
71
72
73
76
51
54
55
71
73
72
93
96
100
78
90
98
79
93
102
47
58
73
21
27
47
33
38
61
44
48
64
50
51
65
69
68
75
82
82
86
155
145
129
91
92
94
89
90
88
79
83
80
83
84
86
80
83
90
35
42
51
50
60
68
98
99
89
97
97
88
87
86
79
83
82
71
84
83
73
81
80
71
95
92
82
117
113
100
130
126
110
131
127
111
108
105
94
130
125
109
119
115
100
113
107
93
116
112
101
96
92
87
60
59
55
161
156
146
106
94
74
64
55
44
96
94
85
137
133
116
135
131
114
132
128
112
134
128
115
76
74
67
44
42
39
90
84
73
90
79
67
69
61
52
118
112
107
122
116
104
151
143
125
37
34
29
50
47
44
82
77
68
109
102
88
124
119
98
139
132
117
133
126
112
136
130
117
136
129
116
103
98
85
68
66
58
115
110
96
117
111
97
105
101
92
89
88
80
69
66
59
106
101
93
129
124
116
115
108
98
102
97
90
68
65
57
128
127
115
64
63
56
41
37
31
113
110
98
122
117
103
118
114
101
130
126
111
127
123
108
134
130
118
56
55
49
94
93
86
70
69
65
32
30
26
73
72
65
92
87
83
101
99
92
134
129
116
131
127
113
114
111
97
130
126
114
110
101
92
151
147
130
168
164
145
165
162
147
148
145
132
150
146
133
157
155
138
156
152
137
131
126
112
123
120
107
112
109
99
99
99
87
134
134
118
130
128
113
132
129
118
89
85
77
97
95
86
62
61
51
134
135
121
84
80
77
22
22
21
38
36
34
63
46
39
70
57
47
75
71
62
86
83
72
101
98
88
105
102
90
90
87
80
105
102
89
104
97
88
98
94
84
109
106
94
108
105
93
110
105
93
110
105
93
110
107
97
108
105
94
113
110
98
116
114
101
118
116
105
118
114
104
117
116
105
118
118
106
118
118
106
121
121
109
121
120
107
124
123
110
127
125
112
131
129
116
132
129
116
133
130
117
129
127
112
138
136
123
110
104
96
135
129
120
132
131
119
110
107
96
125
120
110
114
110
101
138
136
121
139
137
122
139
137
121
140
138
123
139
135
120
138
134
119
135
131
119
131
128
115
130
129
118
120
119
108
117
116
105
116
115
104
115
112
102
119
117
106
114
113
105
106
105
96
102
101
90
107
107
96
112
111
102
113
112
103
115
112
102
116
113
103
114
113
102
112
111
100
113
110
101
109
106
99
102
101
93
112
111
102
109
108
100
108
107
99
107
106
97
108
107
98
87
86
80
93
92
85
90
89
87
95
96
93
114
113
104
118
115
103
105
104
91
92
92
87
93
93
90
101
99
96
108
107
102
110
107
103
102
101
97
104
103
100
107
107
106
106
106
103
101
104
101
97
100
98
96
99
97
98
101
99
94
95
94
81
83
86
90
90
90
109
110
101
121
121
111
83
86
81
99
101
98
86
87
87
92
96
95
92
95
95
147
145
138
113
112
110
131
130
120
114
116
106
105
107
104
104
107
103
40
39
42
103
107
101
106
104
103
47
49
51
119
122
117
89
91
95
28
29
29
116
118
116
68
65
68
83
85
86
99
102
103
52
56
58
46
47
49
136
137
132
90
89
88
99
108
111
92
101
108
59
64
72
71
71
66
181
178
163
118
118
111
104
110
109
102
106
111
33
36
42
47
51
57
42
45
47
45
48
54
54
58
64
59
65
70
55
62
67
55
60
70
53
59
63
46
51
56
55
57
63
64
70
71
74
78
82
97
101
105
75
87
95
77
92
101
46
57
70
21
26
50
34
39
61
43
50
65
47
51
64
70
69
76
82
83
86
144
138
121
87
92
91
86
91
88
89
91
89
83
87
85
80
87
90
48
57
64
66
72
75
73
72
66
90
89
82
82
81
73
82
81
73
86
87
79
88
87
78
75
73
65
101
99
87
97
95
80
111
108
93
113
109
100
121
116
102
118
113
101
124
119
107
116
114
102
100
97
88
57
60
54
164
162
154
110
98
79
65
55
45
96
94
85
133
129
112
130
123
107
127
120
105
128
123
107
71
68
60
44
43
40
90
82
72
95
86
74
71
65
55
115
109
103
117
112
100
139
131
114
41
38
33
51
48
43
82
77
67
109
102
89
111
104
88
148
139
124
115
107
92
140
133
120
126
119
106
118
111
98
56
53
45
105
101
87
115
110
96
104
101
94
58
57
54
50
49
42
123
121
111
127
124
114
105
100
92
108
103
97
58
54
48
109
107
98
42
41
36
47
44
38
115
112
102
124
121
108
116
113
101
120
115
101
137
132
118
133
130
119
44
43
38
99
96
89
75
72
69
33
32
28
71
70
62
86
81
77
103
101
95
126
122
110
128
124
108
108
107
91
129
123
115
109
101
93
139
133
120
169
167
147
179
178
159
154
151
137
136
132
119
153
149
134
155
150
136
132
128
113
118
114
99
121
119
106
136
133
121
118
116
104
111
108
97
107
105
95
94
92
84
101
98
89
75
72
64
139
140
132
83
84
79
21
21
20
43
32
28
117
55
41
87
49
41
79
72
64
86
81
74
98
94
85
99
97
84
89
87
75
107
104
93
101
98
88
105
102
91
108
105
95
108
106
95
111
109
96
113
111
98
114
111
99
111
109
97
111
108
95
117
114
102
119
117
106
120
117
107
117
115
102
118
116
103
116
113
101
115
113
101
120
117
107
121
118
108
126
123
113
130
127
117
126
126
114
127
126
115
128
126
113
131
129
117
113
108
98
126
120
109
122
119
112
104
100
93
121
117
107
111
108
101
137
134
121
139
136
123
136
134
119
137
135
120
133
128
114
137
133
118
130
128
115
123
121
108
125
122
112
116
113
103
115
112
102
110
107
97
111
108
100
111
108
100
107
106
95
94
93
86
106
105
96
106
105
97
107
107
96
115
114
103
120
117
107
118
115
105
112
111
102
111
110
101
110
110
98
107
106
96
107
105
99
109
107
101
105
105
96
106
105
96
105
104
98
102
101
94
90
88
82
101
98
92
95
94
89
105
104
98
106
103
95
106
102
95
101
103
97
87
89
84
90
89
87
91
92
90
105
105
100
105
105
101
96
98
96
101
103
101
102
105
104
99
102
101
99
101
100
95
98
97
92
97
96
97
101
100
91
90
92
73
75
77
86
89
90
85
89
88
88
89
87
80
85
83
97
103
105
64
70
72
86
90
93
89
92
94
150
147
140
110
110
107
139
139
130
118
118
111
109
110
109
105
107
104
39
39
41
106
108
108
109
107
106
49
50
52
120
125
121
89
93
93
29
30
31
115
118
117
71
68
74
77
78
81
95
98
101
51
54
59
42
47
47
133
136
129
91
92
90
98
109
112
94
103
108
60
66
72
69
70
67
177
176
163
118
119
110
104
109
111
99
102
106
31
31
36
46
49
55
43
46
52
45
51
55
48
54
59
60
63
68
52
55
62
55
61
65
55
61
64
49
49
56
52
56
62
66
73
76
66
71
75
97
101
104
72
85
94
69
87
97
42
51
66
22
26
53
33
38
60
44
52
68
47
51
65
68
68
74
83
82
90
126
120
110
88
89
87
90
93
92
87
87
87
81
82
85
80
85
88
59
63
68
75
79
82
95
93
87
84
83
77
82
81
72
91
90
82
89
90
82
85
84
78
86
85
78
99
96
84
110
108
95
110
108
95
114
108
100
127
122
108
124
119
106
121
117
105
110
107
95
92
90
81
58
61
56
156
155
140
106
95
74
66
56
46
97
95
86
133
129
113
132
126
110
131
125
110
130
124
108
72
70
61
45
43
40
95
87
76
93
83
72
71
65
56
120
113
107
119
115
103
133
123
108
40
37
31
57
54
49
86
81
71
105
98
88
122
116
100
145
136
121
117
109
93
137
128
115
114
107
94
119
113
99
54
52
44
86
83
69
97
91
78
91
87
81
33
33
30
89
89
82
110
107
97
112
109
98
105
100
90
116
112
100
83
81
69
63
61
53
25
24
20
44
40
36
106
103
93
120
118
106
118
115
103
127
122
108
137
132
118
133
129
118
42
40
36
83
80
73
79
76
73
34
33
29
70
68
61
87
81
77
104
104
97
120
115
104
118
114
99
109
108
92
130
124
115
107
99
92
157
151
138
174
173
153
173
171
151
157
152
139
137
133
120
159
155
140
150
146
130
130
126
111
121
117
102
134
132
119
134
131
118
134
132
118
144
142
128
131
129
115
94
92
80
105
103
94
79
76
67
136
137
129
83
84
79
21
21
18
31
30
27
53
44
39
62
59
52
75
70
63
94
89
82
90
86
79
99
96
84
94
91
80
95
92
82
90
87
77
91
89
78
96
93
83
99
96
86
112
109
97
117
114
101
115
113
101
116
114
101
112
110
97
112
109
97
112
109
99
114
111
101
114
111
98
111
109
96
116
114
102
116
113
102
120
117
107
120
117
107
125
122
112
129
126
116
128
127
116
127
126
115
124
122
109
128
125
113
114
109
99
129
123
112
117
115
107
107
104
97
122
119
108
114
112
105
137
135
122
140
138
125
136
133
118
133
131
116
134
129
115
127
123
109
131
128
115
119
116
104
120
117
107
112
109
98
111
108
98
109
106
96
109
106
98
107
104
96
107
106
96
95
94
88
104
103
94
107
106
98
106
106
95
114
113
102
121
118
107
118
116
105
112
111
102
109
108
99
110
110
98
109
108
98
104
103
93
108
107
97
106
105
96
106
105
96
107
106
100
103
102
96
93
90
84
104
101
95
99
97
91
94
93
87
95
96
89
92
94
86
87
91
85
90
92
87
88
86
84
95
97
94
98
100
95
96
98
93
97
100
97
101
103
102
102
105
104
100
102
101
99
100
100
101
104
103
94
98
97
95
99
98
82
84
86
80
86
86
90
96
97
84
90
91
77
81
84
60
66
69
92
99
98
75
82
82
80
84
88
92
96
97
150
147
136
109
109
104
135
136
126
121
122
114
107
109
106
106
109
103
42
41
44
104
106
105
103
100
100
47
48
50
117
122
119
91
95
95
30
32
32
116
119
118
71
70
75
80
84
85
93
98
101
51
55
60
43
47
47
135
139
132
83
84
83
97
109
111
94
103
108
63
69
74
67
69
66
180
179
166
120
122
112
100
105
107
99
104
108
29
31
36
45
47
53
45
48
54
47
51
54
50
54
56
70
74
77
49
52
60
53
59
60
53
59
60
48
51
56
48
54
60
64
71
74
64
70
73
95
102
104
71
88
96
66
84
95
40
49
64
21
25
52
32
37
60
44
52
66
48
53
64
72
73
78
82
81
84
130
123
115
84
85
83
87
86
83
90
88
84
83
82
79
81
83
79
50
54
57
69
73
74
75
77
67
80
81
71
95
96
89
86
87
80
83
83
74
84
83
74
79
78
70
90
90
79
104
102
89
106
103
91
119
112
104
117
112
98
125
120
108
120
115
103
118
114
102
86
84
75
61
62
61
153
149
139
105
92
74
66
56
46
100
98
89
132
128
112
131
126
112
132
128
111
133
128
112
73
71
62
42
40
39
94
87
75
92
82
71
72
67
58
121
114
105
113
109
98
124
117
104
42
39
36
61
58
51
92
87
75
122
116
101
128
121
106
139
130
113
130
122
105
130
121
106
128
120
108
109
105
93
92
90
81
59
57
50
94
88
76
98
94
91
35
34
34
71
69
66
107
105
95
100
97
90
121
116
108
123
120
106
74
73
62
31
30
24
36
35
31
76
74
71
101
100
92
124
122
111
119
116
105
128
124
110
132
128
113
133
129
116
41
40
34
86
85
77
71
69
65
33
31
30
70
68
63
86
82
77
101
100
93
132
130
116
122
120
105
110
109
95
131
126
115
107
99
91
154
149
136
176
172
155
166
162
145
154
150
136
129
124
111
152
147
133
144
139
125
141
136
122
139
134
120
135
133
120
143
141
129
147
145
130
145
143
129
133
129
117
99
95
86
105
103
96
73
73
62
136
142
133
86
88
83
20
18
19
28
25
25
40
36
32
66
62
56
79
76
69
99
96
86
105
100
89
102
97
85
84
81
72
112
109
99
97
94
84
90
87
77
100
97
88
110
107
97
116
113
101
114
112
100
114
111
99
114
111
98
112
109
99
111
108
97
109
106
93
111
109
96
112
110
97
114
112
99
112
110
97
118
115
102
116
116
104
117
117
105
125
122
110
130
128
115
126
124
111
128
125
112
121
121
107
126
124
112
119
115
104
130
126
114
128
125
115
124
122
112
128
126
113
129
127
115
138
136
123
137
134
122
135
130
118
130
125
113
123
121
106
121
118
103
119
117
104
118
115
102
112
109
99
108
105
95
108
107
98
105
104
95
105
104
97
104
104
94
104
103
94
100
99
91
111
111
100
103
103
92
111
111
100
113
113
102
116
113
103
118
115
104
113
112
101
111
110
99
109
106
98
110
108
97
106
106
97
100
99
90
107
106
98
104
104
95
103
104
95
100
101
93
83
81
76
98
97
90
82
83
75
89
90
84
77
78
72
81
82
78
83
83
81
83
84
81
90
92
89
93
96
93
91
94
90
90
93
90
95
97
99
96
99
100
98
103
102
96
101
100
100
104
105
98
102
103
99
104
104
94
98
99
90
96
99
89
95
97
86
92
95
81
87
89
69
75
80
55
61
66
76
79
85
61
66
79
72
78
90
87
92
95
156
153
142
109
107
105
134
131
124
119
120
112
109
112
107
110
111
105
48
46
49
98
102
101
101
97
98
45
49
48
121
125
121
89
93
96
32
33
34
114
117
117
69
69
73
78
84
84
95
101
104
52
57
62
45
48
50
139
142
138
83
84
82
100
112
114
96
107
111
63
71
76
65
67
64
182
181
169
124
123
116
98
105
108
96
103
108
31
32
37
42
46
51
44
47
53
47
51
53
45
49
50
63
65
68
48
49
54
52
57
61
50
54
58
66
68
73
50
55
62
69
74
76
66
70
70
96
101
102
77
89
100
72
87
100
44
53
67
22
27
53
31
36
59
47
53
68
50
54
66
77
77
83
84
82
85
136
130
119
81
80
82
86
85
84
87
85
85
81
80
81
76
76
73
51
53
58
69
70
73
84
86
76
79
81
71
79
80
72
81
82
75
75
74
66
99
99
90
86
85
76
90
89
78
102
100
89
112
109
98
107
101
92
118
112
98
121
116
104
120
115
103
122
117
105
89
87
78
64
65
67
151
147
135
98
86
68
64
55
44
93
91
82
123
118
102
126
121
106
124
120
103
127
121
106
74
72
63
43
42
41
99
91
80
95
85
74
64
59
50
114
107
97
114
110
98
122
117
102
45
43
39
66
63
56
93
88
74
128
122
104
134
127
107
139
130
112
131
123
105
134
123
106
137
127
110
91
87
75
108
105
95
80
77
68
74
69
61
87
83
75
78
77
71
113
112
98
108
105
95
105
103
93
137
132
123
105
101
92
30
29
24
31
30
26
70
68
64
100
98
95
105
104
96
124
122
107
130
127
112
129
124
110
133
129
114
130
127
114
44
43
37
82
81
73
70
68
65
32
30
29
68
67
62
82
79
74
100
99
92
121
119
105
119
117
103
111
110
96
130
125
115
106
98
90
153
147
134
175
171
154
169
165
148
145
141
127
137
132
119
142
138
123
139
134
121
146
141
126
131
127
113
140
137
125
145
142
130
144
142
127
143
141
128
130
126
115
99
94
86
116
115
104
75
74
68
133
136
128
87
87
83
21
18
19
26
24
24
46
42
37
65
62
56
84
80
73
97
94
84
107
102
90
112
107
95
90
88
78
118
114
103
111
108
98
92
89
79
112
109
99
105
102
92
109
106
95
108
105
94
113
110
98
110
106
96
107
104
93
106
103
92
104
102
89
105
102
90
105
104
91
110
107
95
111
109
96
114
112
99
112
111
100
117
116
105
122
119
107
125
122
109
124
121
109
123
120
107
121
120
107
123
121
109
115
113
102
134
129
117
130
127
116
135
133
122
138
136
123
133
131
118
138
135
122
133
130
117
129
125
113
122
117
105
116
114
99
123
121
105
118
116
103
110
107
95
110
107
96
106
103
93
109
108
99
106
105
96
104
103
95
106
105
95
104
103
94
109
108
100
118
118
107
113
112
101
116
116
105
116
115
104
115
113
103
117
114
104
112
111
100
110
109
98
111
108
100
109
106
96
107
106
97
102
101
93
105
104
95
101
100
91
99
100
90
102
103
93
83
81
76
94
93
86
75
76
68
99
100
95
76
76
72
81
81
78
89
89
87
88
88
86
91
94
91
88
91
88
90
92
90
89
91
89
90
92
94
96
98
99
88
93
92
96
101
100
99
103
104
102
107
108
100
105
105
100
105
106
91
97
100
83
89
92
82
89
91
80
86
88
69
76
81
60
65
72
88
89
93
63
66
69
74
78
85
83
87
90
158
154
144
111
109
106
133
130
124
116
115
109
115
118
113
115
115
109
51
49
52
101
104
103
102
98
99
50
53
52
123
128
124
90
94
97
33
34
34
117
119
119
69
69
74
79
84
84
93
100
102
54
60
64
47
51
53
139
141
138
81
82
80
99
110
112
94
106
109
63
70
75
60
62
60
180
179
167
118
117
110
100
107
111
98
103
109
31
32
37
43
47
52
45
48
53
47
48
50
46
47
48
54
56
57
59
60
61
65
66
65
64
65
64
73
74
78
45
49
56
73
77
80
74
78
77
103
106
109
79
90
102
74
89
102
46
55
69
21
26
52
30
35
58
46
51
67
47
52
65
80
80
85
77
77
80
139
134
119
91
91
89
87
88
83
87
86
81
85
85
80
85
85
83
53
54
60
68
69
72
78
78
69
89
88
79
99
100
93
75
76
69
83
82
74
92
91
83
92
91
82
98
97
88
110
107
95
117
114
103
101
97
89
112
109
97
116
111
99
119
114
102
124
119
107
93
91
82
59
61
61
163
159
149
94
88
71
60
54
43
93
92
83
131
126
110
129
122
108
125
119
103
129
122
107
73
69
61
42
40
37
100
92
82
94
83
70
64
57
49
111
104
93
115
110
100
123
116
103
46
44
40
67
65
59
99
94
80
143
134
116
137
129
109
128
123
107
128
122
106
130
121
106
136
123
106
107
101
87
63
61
56
99
97
88
89
84
75
101
98
85
113
110
97
113
108
96
134
128
115
132
128
118
101
98
90
28
25
19
31
29
24
70
69
63
83
81
75
119
116
108
111
109
102
125
125
113
137
133
118
132
129
112
137
132
116
124
120
107
43
42
36
81
80
74
71
70
64
34
32
30
60
57
56
78
73
70
99
99
92
119
116
103
118
116
100
108
107
94
128
121
111
100
91
84
138
132
120
164
160
144
162
158
142
148
144
130
130
125
113
140
136
124
140
135
123
141
137
123
135
131
117
150
148
133
146
144
130
151
146
134
149
145
133
139
136
125
103
96
89
111
109
101
74
73
67
129
135
127
86
85
82
20
18
17
31
29
27
47
43
40
69
65
61
87
84
75
102
99
87
105
100
87
119
115
99
85
81
70
118
114
105
114
112
101
99
98
87
113
110
96
113
110
96
111
109
97
112
109
97
113
108
98
111
107
97
111
107
97
111
109
98
108
107
96
110
109
98
110
106
94
111
109
97
111
110
97
111
110
98
118
115
105
122
119
109
124
121
108
122
120
107
122
119
109
123
120
110
122
119
109
124
121
110
112
109
101
119
116
105
124
119
107
127
122
110
132
129
119
130
127
116
132
127
115
132
127
115
123
121
108
117
115
102
120
115
103
114
110
98
109
105
95
110
107
97
108
107
98
103
102
93
102
101
92
103
102
93
105
103
96
102
101
91
101
100
89
101
100
90
106
103
95
115
112
104
117
117
105
112
112
100
112
111
102
110
109
100
108
107
96
108
107
96
105
104
95
106
105
96
105
104
95
98
97
88
94
92
86
90
89
83
91
90
83
93
92
85
80
79
73
95
93
87
85
86
81
86
87
83
70
68
67
81
82
80
90
92
89
83
85
82
84
83
84
82
84
84
86
90
91
80
85
85
86
90
91
92
96
97
89
94
94
94
98
99
99
103
106
103
107
110
100
104
105
101
106
107
92
98
102
86
93
96
82
90
94
75
84
86
74
81
85
68
73
79
98
101
106
77
81
84
86
92
97
80
83
86
153
147
138
111
110
106
137
135
130
115
113
107
109
110
106
117
116
110
49
47
48
102
107
104
96
94
97
51
51
51
127
130
126
92
95
98
33
34
35
118
121
121
68
68
73
75
80
80
89
95
96
51
56
60
48
51
55
138
140
138
82
84
82
100
109
112
95
105
106
61
69
72
59
61
62
177
176
166
118
115
107
105
110
112
99
104
109
32
35
39
44
46
51
46
48
51
67
67
67
77
78
75
75
77
75
56
59
57
61
61
63
69
72
74
61
63
65
40
45
50
68
72
75
73
76
76
88
91
93
73
84
95
71
83
98
45
53
67
19
26
49
28
35
56
45
51
68
45
48
63
77
78
83
68
70
72
151
145
131
85
85
83
84
85
81
88
87
84
83
82
79
79
80
81
55
57
60
73
74
75
71
70
62
68
67
59
79
80
73
70
71
64
78
78
68
79
78
70
80
80
71
92
92
82
94
91
80
110
107
95
102
98
91
101
97
86
106
102
90
113
108
96
113
108
96
87
85
76
57
59
58
125
120
113
92
86
69
59
53
43
93
91
83
132
128
112
133
126
113
132
126
110
131
124
109
78
74
65
40
38
35
107
99
89
97
85
73
64
57
48
114
107
96
120
115
106
120
115
101
53
50
45
90
88
79
96
90
79
134
124
105
127
119
106
133
126
112
125
119
103
128
121
107
127
118
100
111
105
90
94
89
85
74
71
66
72
69
64
89
86
73
102
100
86
106
102
93
89
84
80
61
57
53
30
26
23
49
45
40
53
50
45
90
89
82
103
102
96
116
113
106
109
104
97
113
112
103
131
126
112
131
128
111
136
131
115
125
121
109
52
50
45
59
58
52
77
76
70
33
30
29
62
60
58
77
71
68
99
99
93
124
122
110
114
112
97
106
104
91
128
121
112
101
92
85
149
144
131
173
169
152
168
164
148
151
146
132
141
136
121
153
148
133
144
139
123
140
133
119
145
140
126
151
147
132
140
138
122
143
139
123
142
139
122
129
125
115
101
94
88
108
106
99
74
72
67
134
140
131
87
85
82
21
19
17
30
28
26
50
46
43
71
67
63
93
90
81
111
108
96
112
108
95
124
120
104
95
93
82
120
115
107
123
120
109
100
99
87
90
87
73
103
100
87
106
104
97
139
137
130
131
130
120
121
122
112
109
109
99
100
103
91
96
96
86
99
98
88
98
96
85
113
111
101
98
94
84
96
93
83
98
95
86
110
107
98
122
119
107
122
119
107
123
120
110
124
121
111
122
120
109
124
121
111
111
108
100
115
112
101
120
115
103
124
119
107
121
118
107
124
121
111
129
124
112
127
122
110
116
113
101
116
113
100
116
112
99
115
110
98
111
107
97
111
108
98
108
107
98
105
104
95
103
103
94
103
103
94
103
102
94
103
102
92
101
101
90
100
100
89
105
102
94
112
108
100
109
108
97
110
109
98
111
110
101
106
105
96
104
103
92
105
104
93
104
104
95
107
106
97
104
103
94
102
101
92
97
96
89
94
93
87
90
88
82
93
92
86
76
75
69
92
90
84
86
87
82
79
80
76
77
76
74
86
88
85
82
84
81
78
80
77
81
80
81
80
82
82
79
83
84
80
84
86
85
89
90
90
94
96
93
98
98
96
101
102
99
104
108
103
108
111
100
105
107
111
116
118
101
107
112
96
103
108
89
98
103
85
93
96
78
86
88
69
75
80
106
110
112
86
90
93
99
104
108
86
89
93
152
145
134
113
112
107
132
131
126
116
113
108
106
107
103
111
109
103
46
44
44
99
103
100
95
93
95
48
49
49
133
136
132
93
96
98
35
36
36
116
119
119
67
67
72
68
74
74
85
91
92
51
56
60
47
51
54
138
140
139
82
85
82
100
108
112
92
102
102
60
69
72
57
59
61
176
175
165
124
122
113
50
53
55
87
90
92
98
101
101
61
63
64
46
47
53
51
51
55
54
54
54
55
61
62
56
62
63
53
57
58
50
50
53
55
56
58
40
45
50
77
80
82
102
105
104
75
78
81
75
86
97
73
85
99
45
53
67
18
26
49
28
36
56
45
53
70
45
47
62
75
76
83
66
68
73
151
146
131
84
84
83
89
89
86
88
87
84
86
84
82
84
84
85
55
57
61
75
77
77
73
74
65
67
68
59
68
66
60
56
55
49
74
73
64
75
74
66
81
81
71
86
85
75
88
85
74
110
107
94
100
96
88
103
100
89
101
96
86
105
100
91
102
97
86
81
79
70
58
60
57
128
124
115
92
84
67
58
52
43
97
93
85
134
128
112
131
127
110
131
126
111
132
124
111
81
78
69
39
37
33
111
104
95
96
84
72
61
55
47
104
96
87
123
115
108
118
111
99
58
56
53
78
71
65
105
95
85
109
98
85
120
114
102
92
87
81
108
102
91
114
107
92
115
106
90
109
102
90
124
119
106
121
118
107
104
101
94
59
56
50
79
75
69
52
50
47
36
32
31
45
42
36
74
68
62
86
81
73
84
83
74
92
90
82
74
70
65
77
72
69
124
120
121
96
94
88
114
110
102
122
118
108
112
97
80
112
109
99
76
75
69
55
54
50
81
79
75
31
29
28
75
72
67
83
78
74
99
99
92
122
117
106
119
115
101
110
108
93
130
124
111
103
95
88
141
138
123
158
156
140
158
155
140
155
150
133
133
126
110
144
133
119
138
125
108
146
139
123
133
127
111
145
140
126
142
138
123
140
135
120
146
141
126
134
130
120
102
98
90
109
107
100
74
72
67
137
141
134
88
87
85
20
18
16
31
29
27
51
50
46
76
74
67
97
93
84
115
113
100
117
115
100
125
123
108
97
95
86
119
117
107
125
123
109
104
102
89
106
103
94
94
92
83
146
144
130
74
71
67
71
70
64
70
68
61
69
68
59
68
65
57
72
68
62
97
95
87
95
91
82
101
97
88
106
101
89
108
103
94
106
103
96
115
112
103
123
120
107
123
121
108
122
119
109
122
120
109
122
119
106
122
120
107
107
103
94
114
110
100
118
113
101
123
118
106
120
116
104
121
116
104
121
118
105
117
115
102
115
110
98
115
111
98
111
109
96
112
110
97
110
107
95
114
111
99
108
107
98
104
104
93
103
102
94
101
100
91
104
100
93
101
98
89
99
98
89
97
96
87
103
102
93
108
107
98
107
106
97
104
103
94
106
105
96
104
103
94
102
101
92
101
100
91
105
105
96
105
104
95
102
101
95
100
99
93
94
93
86
99
98
91
91
90
83
91
90
84
75
74
70
86
85
78
88
88
83
82
82
78
79
79
75
75
75
75
75
77
77
73
76
75
73
77
76
71
76
76
73
78
81
76
81
85
80
84
88
95
100
102
108
117
123
153
166
175
171
187
196
174
191
198
170
189
195
153
171
179
146
163
173
147
164
171
135
150
161
73
86
93
72
76
81
63
68
73
54
55
62
52
56
62
75
80
86
116
119
123
156
149
137
125
123
119
139
137
129
118
118
111
108
109
107
104
102
96
44
44
44
97
99
96
100
97
96
48
49
49
133
137
131
93
97
97
33
34
34
112
115
115
64
64
69
70
75
75
86
91
92
51
56
59
47
51
52
134
136
134
86
86
83
100
109
110
90
100
103
60
68
74
54
58
59
170
172
160
120
119
109
49
52
55
85
88
91
101
100
103
41
44
45
34
37
43
67
68
67
85
85
84
88
88
88
84
84
85
81
81
80
90
90
89
70
72
74
38
42
48
74
76
76
104
107
105
75
77
79
75
89
98
70
84
97
46
52
68
20
24
48
28
34
54
45
52
69
42
48
60
76
74
82
68
68
73
148
145
135
80
82
83
82
82
81
83
81
77
80
78
74
80
81
80
51
54
59
71
75
77
55
57
47
55
56
47
49
48
42
52
50
44
58
55
47
66
64
55
64
63
54
82
81
72
103
100
87
89
87
77
93
88
82
103
100
90
105
99
90
100
94
85
103
98
86
81
79
70
58
61
56
133
129
115
93
85
67
56
51
41
97
94
86
133
127
111
129
125
108
124
118
104
127
119
106
78
74
65
37
35
32
111
104
95
94
82
67
61
55
49
108
104
96
115
111
102
100
94
82
59
55
52
75
63
55
75
68
60
96
89
74
101
92
81
100
92
86
118
111
101
123
115
99
121
112
98
119
113
101
119
113
99
120
114
101
102
98
89
59
56
49
113
110
102
125
124
117
55
51
46
95
93
81
108
102
92
124
118
105
106
104
91
118
114
107
74
70
66
83
79
72
72
70
66
110
108
102
96
93
85
110
101
90
116
97
79
109
106
93
79
78
71
54
52
48
82
81
77
32
30
28
75
73
68
83
78
74
103
103
96
125
121
109
117
113
99
108
106
91
130
124
111
97
89
82
131
128
115
150
148
133
156
153
138
155
153
136
150
148
131
152
147
131
153
145
125
154
147
131
151
145
129
155
150
136
155
150
136
154
150
135
153
149
135
137
133
122
104
99
92
111
111
104
72
71
66
135
141
131
85
85
81
18
19
16
27
28
26
49
47
43
72
70
63
97
94
85
114
111
99
117
115
99
127
125
110
92
90
82
130
127
119
133
131
116
130
128
113
133
130
116
108
106
93
144
140
126
91
86
82
94
92
82
92
89
79
85
84
73
94
91
80
93
90
79
98
95
87
105
98
85
108
102
88
103
99
87
112
108
92
108
106
92
111
107
98
117
115
103
125
121
109
124
121
111
123
121
110
124
121
109
120
118
105
109
105
96
108
103
94
118
113
102
118
113
101
117
112
100
122
118
105
115
113
100
122
119
106
117
112
100
118
113
103
117
114
102
115
113
101
115
112
99
113
110
98
109
108
98
104
103
95
104
103
94
102
101
92
103
100
93
100
98
88
101
100
91
98
97
88
103
102
93
106
105
96
104
103
94
106
105
96
104
104
95
103
102
93
105
104
95
105
104
95
104
103
95
102
101
92
106
104
98
100
98
92
98
96
90
89
87
81
92
91
85
91
90
84
76
74
70
92
90
84
82
83
78
78
79
74
78
79
75
78
78
78
74
77
76
73
76
75
67
71
73
69
73
75
71
77
78
73
78
80
78
82
86
79
83
85
86
94
100
83
96
103
87
98
108
96
105
116
96
107
119
92
103
115
88
101
113
88
103
110
93
105
119
87
96
104
81
85
91
75
80
84
96
96
101
78
83
86
80
86
88
97
100
100
150
142
129
126
124
120
144
142
128
123
124
111
105
106
103
115
113
107
45
46
45
88
90
87
101
99
95
43
45
41
131
135
129
93
96
97
30
31
32
113
116
115
63
63
68
67
73
72
88
92
93
52
56
59
47
51
52
132
134
132
84
83
80
97
106
107
90
100
103
60
68
74
51
55
57
167
168
157
120
116
107
63
69
72
101
110
112
87
91
93
37
41
42
32
35
41
35
35
38
33
32
34
34
34
35
34
34
35
36
35
34
38
38
36
35
36
39
38
42
47
82
84
84
99
101
98
68
70
71
75
89
98
69
83
96
42
49
65
19
24
45
27
33
51
46
53
67
41
48
58
74
72
79
67
67
72
145
141
132
74
77
77
80
80
79
80
78
75
79
77
72
79
80
79
46
49
55
59
62
65
45
44
37
39
38
32
49
48
40
76
74
66
57
54
45
62
59
51
62
60
51
60
59
49
85
84
74
82
81
72
87
82
75
98
95
84
102
99
88
96
93
83
104
100
88
79
77
68
58
61
57
129
125
111
87
80
61
54
46
38
94
92
84
133
128
112
127
122
108
126
120
105
129
122
108
76
73
64
40
37
35
113
105
95
97
85
72
63
56
53
109
105
97
121
111
95
106
100
88
47
42
40
66
56
51
68
64
55
76
70
60
100
93
81
102
93
75
91
85
71
119
111
94
138
129
111
118
110
99
107
101
90
119
112
99
115
110
100
91
88
77
105
104
95
112
111
106
74
73
63
112
109
95
122
115
102
117
112
100
113
110
99
107
103
95
80
75
69
66
65
59
84
83
75
80
74
65
90
87
76
132
124
108
131
120
100
129
124
107
71
70
64
49
48
44
83
82
78
30
28
26
67
64
59
79
73
68
99
99
90
121
117
102
113
109
93
103
99
86
127
120
110
97
89
83
146
142
130
145
143
128
147
145
130
145
142
127
150
147
132
157
151
136
156
148
131
160
154
138
158
152
136
156
151
134
155
152
135
157
152
138
154
150
135
138
135
125
100
96
90
111
110
104
83
82
78
147
151
143
86
84
79
17
17
14
27
28
25
49
47
43
74
73
66
99
96
87
110
108
96
117
114
103
128
126
112
95
92
83
136
132
123
137
133
118
128
128
111
133
130
115
125
123
107
131
127
113
104
99
88
95
93
81
95
93
85
95
94
90
97
97
92
102
102
93
96
95
86
91
89
80
111
109
100
110
109
99
118
117
106
125
123
112
135
134
125
113
111
103
117
115
107
117
114
105
115
113
104
111
109
100
110
109
99
102
99
90
105
103
92
112
107
97
118
113
103
117
112
99
123
118
104
118
113
100
123
118
105
113
110
98
116
113
101
116
113
103
115
112
103
113
111
98
109
106
94
106
106
96
103
102
93
103
103
94
101
100
91
103
99
91
103
99
91
97
97
88
91
90
81
102
102
93
107
107
98
104
103
94
103
103
94
108
107
98
101
100
91
103
102
93
104
103
95
100
100
92
101
100
91
100
99
91
101
100
93
93
92
87
87
86
82
89
90
82
85
87
78
73
72
69
82
80
75
85
83
79
69
71
66
80
81
78
78
78
77
75
75
73
79
79
77
73
76
75
71
74
74
73
75
79
80
83
85
82
86
88
85
90
92
84
89
92
84
89
92
86
91
96
85
90
95
86
96
100
90
98
101
81
89
96
82
91
98
78
86
98
80
89
98
77
82
89
71
76
79
80
82
82
70
76
76
74
79
77
94
97
94
157
150
135
124
121
116
134
132
120
119
119
109
104
105
99
106
104
97
41
41
42
90
91
88
99
93
90
39
39
38
129
130
127
96
94
95
32
31
31
111
113
111
62
62
65
65
70
68
87
91
92
49
52
58
47
52
52
132
135
128
82
82
79
100
107
110
90
100
100
60
67
72
51
53
57
166
164
158
117
113
102
76
82
82
85
94
96
70
76
78
34
38
40
42
44
46
42
40
41
43
44
42
44
45
43
46
46
44
49
49
47
49
49
47
67
64
64
37
37
42
90
90
90
88
90
87
69
70
73
75
88
97
69
81
95
42
48
64
19
23
43
27
30
49
45
49
65
43
46
58
75
74
79
66
65
69
138
135
126
85
88
87
85
85
84
87
85
81
80
80
76
78
80
80
45
48
56
57
61
64
41
40
33
38
37
30
37
35
31
39
37
31
55
50
45
53
49
42
60
58
50
75
74
67
71
70
62
83
82
74
87
82
76
93
89
79
97
94
84
91
88
78
95
90
78
75
73
64
55
57
56
130
125
118
87
81
63
56
48
40
92
91
82
132
128
112
125
121
106
128
123
107
129
121
108
75
72
63
41
38
35
102
95
87
99
86
73
56
50
46
113
108
101
144
133
116
146
137
120
35
34
31
50
44
37
69
62
55
62
59
50
46
43
36
59
54
45
79
72
60
144
137
119
152
144
127
111
103
94
99
93
82
121
113
102
114
108
98
106
102
92
117
115
108
97
95
92
85
82
74
127
123
111
135
129
116
113
108
97
112
108
96
135
131
119
76
71
68
32
31
25
47
46
36
67
64
54
99
99
87
142
141
126
146
141
121
131
126
109
56
55
49
57
55
51
88
86
82
29
27
25
71
69
64
87
82
77
103
103
94
127
123
110
123
119
102
109
106
93
131
123
113
95
88
82
146
143
131
152
150
135
146
144
128
153
148
134
155
151
136
159
155
140
160
153
136
159
152
136
157
151
135
161
156
139
160
157
140
159
155
140
162
158
144
136
133
122
83
80
74
101
99
88
63
62
57
102
98
93
87
84
79
18
18
15
23
23
21
44
43
39
71
70
63
74
71
62
85
83
72
86
84
78
116
114
104
112
109
100
127
122
114
117
112
103
116
116
106
107
106
95
120
116
106
95
91
87
80
77
70
116
111
103
103
99
87
103
98
93
101
96
91
102
99
89
96
93
83
101
95
85
112
106
95
115
110
97
119
114
102
115
110
98
112
108
96
114
111
99
118
114
104
115
111
100
114
110
98
104
99
88
105
100
89
100
97
87
102
99
88
106
101
92
113
108
99
112
107
94
116
112
98
117
112
99
115
110
97
110
108
95
109
106
94
110
108
96
109
106
95
115
113
100
108
105
93
104
103
94
103
103
94
104
103
94
104
103
94
100
97
89
103
100
91
100
99
90
95
94
85
100
100
91
105
104
95
107
106
97
103
102
93
102
101
93
104
103
94
99
98
90
103
102
93
101
100
91
98
97
90
92
91
83
95
94
86
91
89
85
91
90
86
86
88
79
88
89
80
70
68
66
73
71
66
68
66
62
68
69
64
79
79
77
80
80
79
78
78
76
78
79
76
71
73
72
77
79
79
80
80
80
76
76
78
81
84
84
83
88
87
85
89
88
84
89
88
88
92
95
86
90
92
92
96
94
90
95
95
80
85
87
82
86
89
82
87
96
76
82
87
76
80
83
68
72
77
78
84
81
71
76
72
76
80
79
95
99
95
160
154
140
118
115
110
135
131
125
109
108
102
100
102
94
104
102
95
41
41
41
104
105
101
104
98
94
41
41
39
127
128
125
95
93
94
33
31
31
123
124
122
73
73
75
65
70
68
97
101
102
48
51
56
49
53
53
131
134
127
82
82
79
99
106
108
91
101
101
59
67
71
49
51
55
162
160
154
117
113
103
59
63
62
47
51
53
33
36
37
43
45
44
53
55
53
49
47
46
43
44
46
45
45
47
47
47
49
43
46
46
43
46
46
46
47
47
55
56
60
37
36
36
59
59
57
64
67
69
78
89
99
68
80
93
41
47
61
19
23
41
27
31
48
43
47
61
43
46
55
74
73
78
63
63
67
131
128
119
76
78
77
78
78
77
78
77
73
74
76
71
71
75
74
43
47
52
63
67
65
43
42
36
44
43
37
35
34
30
63
60
54
70
67
58
63
59
50
54
52
46
83
81
75
88
88
78
77
77
68
80
75
69
94
90
81
91
88
78
91
88
78
98
92
83
76
74
67
57
58
54
104
102
95
76
71
57
56
50
38
89
86
80
136
129
119
119
115
101
125
121
105
126
121
107
71
70
61
38
36
34
102
95
87
100
88
75
56
51
46
118
115
107
129
125
110
153
141
122
37
32
29
50
45
38
64
56
49
50
47
41
41
43
36
63
58
50
70
65
54
124
119
105
81
75
64
84
77
69
99
94
86
105
100
91
110
107
96
74
72
65
60
57
53
52
48
46
77
73
69
114
109
100
123
116
104
103
99
85
110
106
96
90
85
81
72
70
65
30
29
26
60
57
48
84
83
70
124
123
110
144
143
128
146
141
120
126
120
106
52
50
45
62
59
54
83
82
80
30
28
26
60
59
54
77
73
69
98
97
91
114
109
99
114
110
94
109
106
91
130
124
112
93
85
80
141
137
126
146
144
129
150
148
133
153
149
134
152
148
133
154
150
136
157
149
134
159
152
134
157
152
134
162
153
138
158
149
134
153
148
132
149
146
129
132
129
118
90
87
81
108
105
96
56
54
51
139
135
127
91
87
83
18
18
16
23
24
21
28
26
25
54
53
48
69
70
62
78
79
72
80
80
75
80
80
75
95
93
88
90
88
84
98
96
91
99
99
93
90
89
81
107
107
96
93
93
84
70
69
62
74
73
66
74
72
66
81
79
73
80
77
71
81
80
72
92
90
82
90
86
76
92
89
79
97
95
85
96
92
83
98
94
85
94
89
80
89
86
77
88
86
77
87
84
76
88
84
73
90
85
76
85
81
72
106
103
93
96
93
82
102
97
87
106
101
92
105
102
92
108
105
95
110
105
91
106
101
88
111
106
96
107
102
92
106
103
91
106
103
91
107
104
94
109
106
96
105
102
92
108
106
95
101
100
91
104
103
94
101
100
89
99
99
88
100
99
91
96
95
87
104
104
95
104
102
94
105
103
95
100
101
91
100
99
90
100
99
91
101
99
93
101
100
93
103
102
96
98
97
90
92
91
84
90
89
82
88
87
81
84
83
76
89
87
81
89
88
82
70
71
68
75
73
68
75
73
69
76
75
71
81
81
79
76
76
74
79
81
79
78
80
77
72
74
74
74
78
75
81
81
78
85
86
84
81
81
79
85
86
83
83
84
82
86
87
85
85
88
87
86
88
87
86
88
87
91
93
92
80
83
84
81
84
85
86
88
92
77
79
79
81
82
82
68
72
74
75
80
79
68
73
72
74
78
78
96
98
96
158
150
139
119
117
111
140
137
129
116
116
109
98
99
92
100
99
93
42
38
39
110
108
103
105
100
96
39
42
40
120
121
117
93
93
93
33
31
32
118
119
115
67
66
65
66
70
68
92
95
96
48
50
55
44
46
47
123
125
118
80
81
78
98
105
106
87
95
97
60
65
70
51
53
53
162
161
150
111
106
99
73
75
72
78
78
77
58
58
57
41
41
40
58
58
57
50
48
49
54
55
56
52
52
53
51
51
52
52
53
53
54
55
56
55
55
55
59
62
64
74
74
76
79
80
77
57
61
62
73
85
94
71
80
91
41
47
61
18
21
39
26
32
47
43
48
61
42
46
53
68
68
74
60
61
66
130
124
117
79
79
79
85
83
81
81
81
74
81
80
75
77
78
77
53
54
59
77
75
70
36
35
29
38
36
31
50
49
43
62
59
50
58
58
47
52
50
40
76
76
69
84
84
77
95
94
86
93
92
85
76
71
65
89
86
76
93
90
80
83
80
70
86
80
71
72
69
62
51
52
47
136
135
120
84
79
64
57
52
39
89
85
79
132
125
115
122
117
104
123
118
103
124
118
104
71
70
61
38
37
35
101
93
86
96
83
70
56
51
45
113
110
101
124
120
106
148
136
117
36
31
27
44
42
34
60
57
48
48
46
40
50
51
44
85
80
69
102
98
82
125
120
109
128
122
112
91
84
77
78
72
66
103
98
88
99
95
85
79
75
66
75
71
63
95
90
83
93
88
81
128
120
113
135
127
115
125
120
105
68
64
57
121
113
99
73
67
62
30
29
27
66
63
54
97
95
82
129
129
115
140
138
121
141
137
120
136
129
116
40
36
32
66
62
58
81
80
78
26
24
22
68
67
62
86
83
78
97
96
89
114
110
96
103
98
86
96
93
78
122
116
104
88
80
75
141
137
126
149
147
132
151
148
133
156
151
137
155
151
137
153
149
133
153
146
128
160
153
135
159
153
136
159
151
136
159
150
136
155
150
134
149
146
130
130
127
116
93
90
84
110
109
99
60
54
52
137
133
125
93
88
84
19
19
17
23
23
21
51
49
47
82
81
75
109
111
103
114
117
108
140
142
133
145
147
135
153
154
142
147
148
137
153
154
144
149
149
138
149
149
138
149
148
140
131
130
123
130
130
121
135
134
124
137
137
125
137
136
125
136
135
124
137
135
128
133
132
124
121
119
111
118
117
106
114
113
102
111
108
98
125
123
112
116
112
102
110
108
97
101
101
90
80
77
68
102
100
88
118
116
100
101
99
84
104
101
91
97
94
84
104
99
90
106
101
91
107
104
94
106
103
93
109
105
91
105
101
87
109
104
94
106
101
91
106
104
91
104
101
89
105
102
92
107
105
94
103
100
90
101
99
88
102
101
92
98
97
88
95
94
84
101
100
89
97
96
86
98
98
88
100
99
90
101
101
92
102
100
92
97
97
89
99
98
90
102
102
93
104
103
97
103
102
95
102
100
94
98
97
91
94
93
87
90
89
83
86
84
78
79
78
72
89
88
82
87
86
80
70
71
68
81
80
75
71
70
66
75
73
69
80
80
78
75
76
74
74
77
73
71
72
70
67
69
70
74
75
73
84
84
80
82
82
78
85
85
80
83
84
78
82
83
78
87
88
83
86
89
85
83
86
83
83
85
82
84
86
83
83
83
83
83
83
83
85
85
87
76
77
76
79
80
78
65
68
69
74
78
77
70
76
74
72
77
73
95
98
94
157
150
140
116
114
108
144
141
133
124
124
116
97
98
91
99
98
93
42
37
38
102
99
94
110
105
100
42
44
42
125
125
121
87
86
86
32
30
31
116
118
113
66
64
62
76
79
78
96
100
101
47
49
54
46
50
50
131
131
124
80
81
78
97
104
105
88
95
97
61
67
71
50
52
52
157
156
145
111
106
99
47
47
44
84
83
81
86
86
84
50
50
50
53
53
53
53
51
50
43
44
42
43
43
43
43
43
44
48
46
45
47
45
44
40
40
39
49
52
53
71
69
72
74
75
72
59
62
64
73
84
94
69
79
87
40
46
57
18
21
39
26
32
46
42
47
58
42
44
54
65
65
69
57
59
62
124
119
112
78
78
78
81
79
76
85
85
78
80
79
73
76
77
75
52
53
56
68
65
63
36
35
31
35
34
30
36
34
29
57
56
45
60
60
49
72
73
64
84
86
76
87
89
81
95
94
85
90
89
81
68
67
61
83
82
72
86
83
75
83
80
72
84
81
71
72
71
63
54
54
50
151
150
137
91
86
71
59
53
41
91
90
79
125
121
105
123
118
102
119
114
101
123
118
103
69
68
59
41
38
37
109
103
95
105
91
79
58
55
48
111
106
98
119
110
100
142
131
111
32
28
24
44
42
34
62
57
48
47
43
38
58
54
48
103
96
84
118
113
97
145
142
130
162
155
140
76
70
64
57
52
46
95
89
79
80
76
65
105
98
86
101
94
81
107
100
87
107
100
86
130
123
112
127
119
104
128
116
101
65
60
55
80
74
65
73
68
61
36
33
28
70
66
57
102
99
87
134
133
119
140
139
124
136
133
118
131
124
110
34
29
25
67
66
61
85
82
81
26
24
22
66
65
60
88
84
78
100
98
89
125
120
107
105
101
89
97
94
81
126
119
109
91
83
78
139
135
124
149
145
130
153
148
134
153
151
136
153
151
136
158
154
139
165
161
143
164
160
143
159
155
139
159
156
139
157
155
138
154
150
133
146
145
128
126
124
114
94
91
83
106
104
96
66
61
52
135
132
125
91
84
82
19
19
17
24
25
22
51
50
46
55
54
49
101
101
89
93
92
85
105
104
97
109
108
100
133
133
123
136
135
127
145
145
133
147
147
132
142
142
129
148
148
137
144
143
132
137
136
125
137
134
125
137
134
122
126
124
112
129
127
115
129
126
116
113
110
100
113
109
100
94
93
87
95
94
88
98
95
90
112
109
101
109
105
96
104
102
95
54
53
46
63
62
58
89
87
83
90
87
78
91
88
77
107
102
93
99
94
84
103
100
92
107
104
93
105
100
91
106
101
91
101
96
84
102
97
85
100
98
87
101
100
89
102
100
89
102
99
89
102
99
88
100
97
87
102
101
93
100
99
90
95
94
85
100
99
90
94
92
85
95
94
84
92
91
82
91
90
81
94
94
83
95
94
87
97
96
88
99
98
90
96
95
86
100
99
90
105
101
96
104
101
95
101
100
91
96
97
88
91
90
82
92
91
83
79
78
73
79
77
73
86
87
79
84
85
78
66
66
62
82
79
73
75
74
68
75
74
68
81
81
75
79
81
79
74
76
73
71
72
70
73
75
73
73
73
71
78
76
74
75
73
71
78
78
74
79
80
75
82
82
80
87
88
85
85
85
85
88
88
84
88
88
86
88
88
86
85
85
83
83
83
81
81
83
83
72
75
73
70
72
71
61
64
64
74
78
79
71
76
72
71
74
71
92
93
90
155
147
138
116
115
109
135
132
124
116
116
109
93
96
90
92
94
89
42
38
40
96
93
88
118
114
108
43
44
42
137
136
130
83
82
82
30
30
27
108
110
103
60
56
55
74
75
73
97
101
100
46
49
51
51
53
52
129
129
124
88
88
84
95
100
100
85
92
90
58
65
65
52
55
54
156
150
140
113
106
99
46
45
42
86
83
79
86
83
77
45
47
48
51
49
48
64
62
60
53
54
51
53
55
52
52
54
51
55
53
51
57
55
53
61
60
57
47
48
48
77
76
77
59
60
57
54
58
58
70
81
89
70
78
87
40
45
53
18
23
38
25
32
46
42
47
57
42
45
51
60
61
65
55
58
62
122
117
114
79
78
75
81
79
76
80
78
74
80
78
74
77
74
71
49
51
50
66
64
61
47
46
38
47
46
38
44
42
36
67
66
56
84
84
75
74
74
65
73
71
62
81
80
71
85
85
76
94
93
85
70
69
63
77
77
67
82
79
71
85
82
74
80
77
67
73
72
64
55
55
48
135
135
118
86
82
64
59
53
44
87
86
75
127
123
107
125
121
105
121
116
103
122
117
103
67
66
57
38
39
36
98
95
86
102
88
76
53
50
43
111
105
97
121
111
102
139
128
109
30
26
22
43
41
34
64
57
51
48
43
38
63
58
53
106
98
87
117
111
95
139
136
122
164
156
140
76
71
65
67
62
55
113
105
92
111
102
88
127
116
101
127
117
99
125
114
95
129
118
98
136
125
115
134
125
110
118
106
91
43
39
34
73
67
59
71
66
60
36
33
29
71
67
58
107
103
91
130
129
115
143
142
128
133
131
116
137
129
116
39
35
31
75
74
69
85
82
81
26
24
23
65
64
58
87
84
77
99
97
88
121
116
104
114
109
97
100
97
85
130
123
113
94
86
81
135
131
120
154
150
135
156
151
137
150
147
132
154
152
137
151
147
133
155
151
133
157
153
136
156
152
136
156
154
137
160
158
141
160
155
142
158
157
143
126
124
114
96
93
84
101
97
86
59
58
50
132
130
122
89
82
79
19
18
16
23
23
21
51
49
45
56
55
50
96
96
85
85
84
77
106
105
96
112
111
106
135
135
122
139
138
125
142
141
130
149
149
135
142
142
129
150
150
138
136
135
125
128
127
115
126
124
112
134
131
121
131
129
118
132
129
118
129
126
116
118
116
105
118
114
106
89
88
83
124
124
120
104
101
98
117
115
106
120
117
107
95
93
85
68
66
60
88
87
84
67
66
62
91
89
78
86
83
74
111
106
98
101
96
86
104
100
92
102
100
88
105
100
90
107
102
92
98
93
81
99
94
82
102
101
90
101
101
90
104
102
91
100
98
87
97
95
84
99
97
86
97
96
88
96
95
86
102
101
92
98
97
88
93
92
86
97
96
86
99
99
90
87
86
78
102
102
92
97
95
89
97
96
87
97
97
88
104
103
94
104
103
94
101
97
92
100
96
90
94
93
85
98
100
90
98
97
89
94
93
85
80
79
75
82
80
76
83
84
77
78
79
71
65
65
60
87
83
77
76
75
69
70
69
62
81
81
76
76
78
76
76
76
74
79
79
76
79
80
74
87
87
82
89
88
83
82
81
76
84
84
79
85
86
81
86
86
84
92
92
90
86
87
84
88
89
86
90
90
88
89
89
87
86
87
84
84
84
81
78
80
79
69
71
72
67
70
69
59
61
60
73
72
74
71
72
71
71
73
70
100
100
96
156
149
138
113
111
105
135
132
124
118
118
111
96
99
92
92
93
89
41
38
40
98
96
91
113
108
102
44
43
41
151
151
143
90
88
86
31
31
29
113
113
107
67
63
63
71
72
70
104
107
106
44
47
50
49
51
50
127
127
122
77
77
72
92
97
95
92
93
93
64
65
68
57
58
58
159
153
143
118
112
104
51
49
47
82
79
71
85
82
78
48
49
50
49
47
47
67
65
63
60
60
58
63
62
56
59
57
52
60
58
53
64
63
57
70
68
64
55
57
57
61
60
60
59
60
58
74
77
74
72
84
88
70
78
87
38
42
51
23
24
39
28
33
45
45
47
54
44
45
50
53
53
57
55
58
62
122
118
115
88
88
84
86
84
80
79
77
73
71
69
65
72
70
67
50
51
51
59
57
55
51
50
41
63
63
54
61
60
52
83
83
73
83
82
74
97
95
87
95
92
84
83
80
72
100
99
89
95
95
85
78
76
71
78
77
68
73
70
59
74
71
61
72
69
59
68
68
60
57
59
54
126
122
109
88
81
66
59
51
40
95
92
82
127
121
107
124
119
105
123
119
103
123
118
103
71
70
61
38
37
34
108
104
97
107
93
81
51
48
42
116
110
102
140
130
117
144
132
116
31
29
23
45
47
40
51
46
40
43
38
35
62
57
54
99
93
83
113
108
93
143
139
124
161
152
135
75
71
64
59
54
47
109
96
81
94
85
74
101
94
81
116
109
93
110
102
89
121
113
98
137
128
109
126
115
100
112
104
92
37
33
28
72
68
59
87
83
78
35
34
30
76
74
65
113
109
95
138
136
122
124
122
111
137
133
122
133
125
112
40
36
32
78
75
68
81
80
77
26
24
23
67
65
60
89
86
80
100
98
88
118
114
100
120
116
104
105
102
88
125
121
114
91
84
79
118
114
104
148
143
129
155
151
137
133
130
118
153
150
138
153
151
135
154
152
136
158
156
141
152
150
135
155
153
138
158
156
141
157
155
139
161
159
143
124
122
111
94
90
84
95
88
79
60
60
55
132
131
121
92
85
81
22
19
18
24
22
20
40
38
36
46
44
42
78
77
70
116
116
104
124
122
109
137
135
123
122
122
109
143
142
130
145
144
133
146
146
135
139
139
128
137
137
127
116
115
107
133
132
120
136
136
126
139
138
129
133
132
122
133
132
122
131
128
118
123
121
108
125
123
113
81
80
75
58
58
55
81
81
75
105
105
94
106
105
93
103
103
92
77
76
72
89
87
84
66
65
62
72
71
62
83
82
71
114
111
104
100
97
89
104
102
91
102
99
89
103
100
90
100
97
87
100
98
84
95
92
81
100
97
87
105
102
92
102
101
91
98
97
86
95
94
83
94
94
83
95
92
83
92
88
80
94
93
84
96
95
86
97
96
88
94
93
84
89
88
79
78
77
69
84
81
73
98
95
87
97
94
86
96
92
84
103
102
93
102
101
92
98
96
90
99
97
91
92
91
83
94
93
85
94
92
86
87
86
80
84
84
80
82
82
77
79
78
72
79
78
72
65
66
61
86
86
78
86
85
79
94
92
86
78
75
70
80
79
77
76
74
72
101
100
95
102
100
96
94
92
88
90
90
87
87
87
84
86
85
81
86
84
80
84
85
82
89
89
86
85
85
83
84
85
83
88
89
86
87
88
85
86
87
85
85
86
84
80
82
80
71
74
72
69
69
71
62
62
64
74
76
74
70
73
70
70
73
71
97
97
92
156
148
140
116
114
110
135
135
124
119
121
111
93
92
86
94
94
92
39
35
36
110
107
102
109
103
97
41
38
39
139
139
130
88
87
81
33
31
33
104
99
99
60
55
55
64
66
63
101
102
102
41
42
45
50
50
50
131
131
122
78
76
71
94
97
96
93
93
92
63
62
65
58
61
58
157
152
139
112
105
95
64
63
60
76
72
69
82
80
81
43
43
46
47
46
46
63
59
57
42
42
41
65
62
60
85
80
79
67
66
65
58
59
60
62
60
61
58
60
60
54
54
54
74
74
75
72
71
70
74
85
89
69
79
88
39
43
51
23
23
38
32
33
46
47
48
55
44
45
47
52
51
56
56
58
64
116
114
112
90
88
82
88
85
79
84
80
75
72
68
63
67
67
64
44
42
42
52
50
48
48
46
38
57
56
48
62
62
53
76
75
66
86
82
75
88
85
77
86
83
75
89
86
78
95
95
84
106
105
95
73
72
62
80
79
68
81
78
68
76
73
63
86
83
73
72
71
64
57
58
55
151
146
134
91
84
70
59
51
40
94
91
81
126
119
106
126
121
107
123
118
103
121
116
102
74
73
63
39
38
35
101
96
89
103
89
79
49
45
41
115
113
104
130
124
109
139
128
113
31
28
23
45
41
37
65
55
49
41
35
32
66
61
57
110
105
94
118
113
98
147
143
127
166
157
140
75
70
64
53
48
42
127
116
96
101
93
79
79
73
65
96
90
78
95
90
75
92
85
75
117
111
94
137
130
110
96
88
77
37
34
28
79
75
67
91
88
83
34
33
29
74
72
64
110
108
94
139
135
124
53
50
42
119
115
108
128
120
108
36
33
28
73
70
63
78
77
74
25
23
21
70
69
64
91
87
82
96
95
85
118
113
101
120
115
103
109
105
92
125
121
112
91
84
79
102
99
90
140
136
123
154
149
135
131
128
116
147
144
133
152
149
134
150
148
132
157
155
139
152
150
135
150
148
133
153
151
136
152
151
132
152
150
132
119
116
106
90
87
81
85
78
69
65
64
60
132
132
122
92
85
81
21
18
17
25
23
21
27
25
23
29
27
26
35
34
32
48
47
41
63
63
57
56
56
50
61
59
51
72
72
64
71
71
64
71
69
63
65
64
57
66
64
59
81
81
75
85
84
78
82
81
78
80
78
75
79
77
73
77
75
71
80
77
73
76
73
71
73
71
69
74
73
68
102
104
99
87
88
83
70
71
63
80
80
73
84
83
74
94
91
86
76
73
71
77
75
73
83
81
75
81
80
70
110
107
100
102
98
90
103
100
89
104
101
90
103
100
90
101
98
88
93
91
78
95
92
82
98
95
85
101
98
88
99
98
87
97
96
86
98
98
87
99
98
87
93
90
82
95
91
83
95
94
86
92
91
83
95
94
86
98
97
89
90
89
80
83
82
73
84
81
73
85
83
74
95
92
84
96
93
85
97
96
87
96
95
86
96
94
88
96
95
89
98
97
88
96
95
86
97
96
90
90
89
83
87
88
82
80
80
76
80
79
73
79
78
72
64
65
60
85
84
77
95
93
87
92
90
84
84
80
76
76
74
71
117
116
110
105
104
100
91
90
86
94
92
88
100
101
95
85
85
79
88
86
82
89
87
83
87
88
83
89
90
84
83
83
82
84
84
83
107
107
106
116
116
115
115
115
114
114
115
114
106
109
105
107
109
106
103
103
103
92
92
92
79
82
79
73
76
72
74
76
73
97
98
92
154
146
138
120
118
115
140
139
129
118
120
110
96
95
88
89
88
86
35
31
30
87
84
80
98
92
86
42
38
39
120
119
111
79
77
71
30
28
27
116
111
108
63
57
57
61
63
60
98
99
99
39
41
43
47
48
47
133
133
124
78
76
70
94
96
94
94
95
92
63
63
63
62
64
61
157
153
139
112
103
97
46
42
43
93
86
81
86
82
79
42
41
40
45
45
43
58
57
54
44
48
46
80
77
71
111
105
100
66
65
64
49
50
52
49
51
51
54
53
54
62
61
62
77
77
79
63
58
57
81
87
90
75
83
90
44
46
52
25
25
37
32
32
44
43
44
50
44
44
46
52
52
57
57
59
64
112
110
109
87
84
78
87
83
78
82
78
73
71
67
62
66
65
63
48
47
46
60
58
55
61
59
51
71
71
63
74
74
65
75
74
65
95
95
86
88
88
79
93
92
84
95
95
84
97
94
84
114
111
99
75
71
66
89
86
76
94
91
80
92
89
79
99
96
86
79
78
70
56
55
54
159
156
141
94
86
72
59
51
39
93
91
78
129
122
108
125
120
106
117
113
97
119
111
98
72
68
59
41
41
37
97
91
85
106
93
83
49
44
40
103
103
93
135
130
115
142
135
120
32
29
26
51
43
36
128
107
88
45
37
34
67
63
58
97
92
80
111
107
93
139
136
122
158
152
136
73
69
62
42
40
33
79
71
59
48
43
38
54
50
46
60
53
46
92
84
78
37
33
32
71
66
57
101
93
81
96
91
84
30
31
26
85
79
72
97
93
87
35
33
29
74
73
65
98
96
84
122
120
105
139
135
119
108
103
93
128
121
108
37
32
29
69
64
58
78
75
73
25
23
21
66
65
60
89
86
78
96
95
87
123
118
106
117
112
99
106
103
88
126
123
113
92
85
79
116
112
105
141
136
124
153
149
135
125
123
109
143
141
127
152
150
135
145
143
128
151
148
133
154
152
137
151
147
132
149
145
131
146
143
126
144
142
125
121
117
106
94
89
83
86
79
70
65
64
60
132
131
119
93
88
82
22
19
18
26
24
23
37
35
35
46
44
40
81
78
70
89
86
80
119
116
108
135
131
123
140
137
127
143
141
131
144
143
132
145
145
133
145
148
136
145
145
134
139
138
128
139
135
127
136
135
129
126
126
119
124
127
118
127
128
120
120
117
108
127
125
118
125
123
116
106
105
97
129
128
121
113
112
103
108
107
97
73
70
64
73
70
63
80
77
71
64
60
57
80
80
75
90
90
84
73
72
67
112
108
102
99
96
88
101
98
88
102
99
89
98
95
85
101
98
88
94
91
80
94
91
83
94
93
84
96
95
86
100
97
89
96
93
85
93
91
83
95
94
86
93
92
83
92
91
83
95
94
85
90
89
80
88
87
79
99
99
89
102
101
92
88
87
79
73
70
64
74
74
63
91
88
80
92
89
81
98
95
89
95
91
86
92
91
83
95
94
85
95
94
86
98
97
89
100
97
91
88
84
78
90
89
82
84
83
77
77
78
73
68
68
64
63
63
62
95
91
86
97
93
86
92
89
82
79
75
70
87
84
79
104
101
96
74
72
67
76
76
70
87
88
81
101
100
94
91
89
85
88
87
83
87
85
84
89
89
87
89
90
87
88
89
87
101
104
106
95
99
100
94
98
99
96
100
101
109
112
115
106
110
113
93
96
101
89
91
91
85
87
84
82
82
80
83
83
79
84
87
82
104
105
99
152
144
137
122
120
118
135
134
126
110
112
104
92
91
87
86
89
85
32
31
30
85
83
77
97
88
80
37
37
34
120
121
111
79
76
72
31
29
28
105
101
98
62
55
55
60
62
60
89
91
88
36
38
38
40
42
39
125
126
115
74
74
68
94
96
92
94
94
91
59
59
59
63
65
62
152
147
134
104
95
89
48
45
45
81
76
71
91
87
82
39
38
37
47
45
44
56
54
51
43
44
44
67
64
60
83
77
72
58
60
59
50
49
50
53
51
54
50
51
54
59
59
59
73
72
76
69
65
69
80
86
87
74
83
87
42
44
48
23
24
33
30
31
40
39
42
50
41
43
46
52
51
55
54
55
61
105
103
101
85
83
78
80
79
72
80
78
72
73
69
63
65
64
61
43
40
41
54
50
52
58
58
49
66
64
55
64
63
54
79
78
69
91
90
81
90
89
80
84
84
75
99
98
87
107
104
94
116
114
101
92
88
83
85
82
73
95
92
82
103
100
90
96
93
83
80
79
72
56
56
54
148
144
130
89
81
67
55
47
36
91
88
76
129
122
108
122
117
103
116
111
96
122
114
101
76
72
63
42
42
38
94
88
82
108
95
86
48
42
39
108
106
96
119
114
99
130
122
108
29
26
23
34
31
28
68
62
53
27
22
21
63
58
54
89
84
76
99
94
86
136
133
119
156
151
134
71
67
61
42
39
33
97
89
74
70
66
57
80
75
69
90
84
74
112
102
96
44
39
36
81
74
63
135
126
110
111
106
97
25
25
24
88
83
75
100
95
89
32
30
27
74
73
66
91
88
82
89
86
74
126
122
106
118
113
101
127
118
106
43
38
34
70
65
59
75
72
70
25
23
21
63
62
57
91
87
80
94
93
85
119
114
103
112
108
93
106
103
87
122
119
108
88
82
75
113
109
102
135
130
117
158
154
136
133
131
118
139
136
124
151
149
134
148
146
131
152
150
134
152
150
135
150
146
131
156
151
137
154
151
134
151
148
132
131
127
116
105
100
93
86
79
70
61
60
56
130
129
115
90
86
77
22
19
18
25
23
21
43
41
37
61
60
52
86
84
72
115
113
101
117
116
102
126
123
110
126
123
111
135
131
119
138
133
120
137
132
118
138
134
119
142
138
124
132
128
115
125
121
110
129
127
117
129
127
118
127
124
113
125
123
113
124
121
113
126
124
115
123
122
111
97
96
86
104
104
93
101
100
90
100
99
89
72
70
64
87
84
79
140
133
129
95
90
86
80
80
74
89
89
81
76
75
66
110
107
101
102
99
91
99
96
86
98
95
85
98
95
84
96
93
82
97
94
83
93
90
82
96
95
86
97
96
87
98
95
87
95
91
83
93
92
83
91
90
81
90
89
80
91
90
81
93
93
84
91
90
81
88
86
79
93
92
83
94
93
84
89
88
80
68
64
55
95
89
76
86
83
71
95
92
81
93
90
83
95
92
86
94
93
84
90
89
80
93
92
83
101
100
92
101
97
92
91
87
81
88
87
80
85
84
77
80
80
75
72
72
68
64
63
62
94
91
86
96
93
85
93
90
81
98
96
87
128
125
118
96
93
85
70
67
62
77
77
70
87
86
80
91
90
84
93
91
87
89
87
83
82
80
79
88
89
86
89
90
87
90
91
90
86
91
92
88
92
93
84
89
89
83
87
88
87
91
92
89
93
95
49
53
54
74
78
72
82
85
79
77
79
75
85
86
82
70
73
68
106
106
101
154
147
137
122
120
116
134
133
124
111
113
106
90
93
88
86
92
87
33
32
31
93
91
85
96
87
79
36
35
32
107
108
98
76
72
69
31
29
28
102
99
96
59
52
52
57
58
56
86
88
85
35
36
36
35
38
35
125
127
115
73
72
67
87
89
85
88
88
85
55
54
54
64
64
62
148
144
131
100
90
84
65
62
62
79
76
72
97
94
90
42
39
38
44
42
42
46
44
41
44
46
45
70
65
61
87
79
74
54
56
55
49
47
48
50
48
51
48
50
53
56
56
56
73
73
77
58
57
60
87
94
95
78
86
90
43
45
49
24
25
34
31
32
40
35
39
46
41
43
46
52
51
54
52
54
59
105
103
101
81
80
74
77
76
70
75
74
68
70
66
60
64
63
61
56
53
52
56
54
50
65
65
56
66
65
57
77
76
67
91
90
81
91
91
82
79
79
70
90
89
80
91
90
81
87
86
74
109
110
94
96
94
84
101
98
86
103
100
90
102
99
88
98
95
85
77
77
69
58
60
53
134
128
115
83
76
61
55
47
35
95
91
81
124
117
102
123
118
104
119
115
99
118
112
100
76
73
66
42
41
38
101
97
90
106
94
83
45
40
35
115
114
104
128
124
109
139
132
114
32
28
25
35
33
30
65
61
55
29
26
25
58
56
50
85
79
71
93
88
79
143
136
124
150
143
130
66
60
56
46
43
38
108
98
83
80
74
63
85
79
70
88
81
70
117
110
101
47
42
38
79
76
67
127
121
105
109
103
92
26
25
21
98
92
85
96
91
86
28
27
23
76
74
67
117
112
101
106
102
88
141
137
122
130
126
109
128
119
106
42
37
33
72
67
61
73
71
69
26
24
23
61
59
54
91
88
81
93
91
83
113
109
95
117
113
97
105
102
86
122
119
109
88
81
74
119
115
106
136
131
119
139
135
120
123
121
108
141
138
126
150
147
132
143
141
126
148
144
127
151
147
130
148
146
131
151
149
134
153
152
134
155
153
136
134
131
118
108
104
96
84
77
70
64
61
60
147
145
134
96
90
80
21
19
17
26
24
22
43
41
38
59
58
50
91
88
77
113
110
98
115
112
98
131
128
113
127
125
113
124
121
109
131
128
115
132
126
114
132
127
117
140
134
121
134
131
120
132
127
117
135
131
121
137
134
123
130
126
115
125
122
112
126
126
117
118
118
110
124
123
113
93
92
85
110
109
100
107
105
97
111
108
99
103
104
96
74
72
69
103
95
91
73
68
64
79
79
74
82
81
75
78
78
68
104
101
93
96
93
85
99
96
86
94
91
81
96
92
84
101
98
90
96
92
83
95
93
82
97
94
86
98
95
87
95
94
86
94
93
84
92
91
82
94
93
84
90
89
82
88
87
80
88
87
78
91
90
82
87
86
80
93
92
85
90
90
81
82
79
71
58
55
47
87
82
71
89
84
75
85
85
77
93
92
83
92
91
82
95
92
84
100
97
89
105
101
93
101
99
91
98
96
89
97
92
84
89
87
80
84
83
76
79
79
75
71
72
68
65
64
60
94
91
84
96
92
84
90
87
79
90
87
79
100
98
90
55
54
47
91
90
85
62
61
55
89
88
84
104
102
98
83
81
79
94
92
91
84
82
80
84
84
82
86
87
84
82
82
82
59
63
62
59
63
61
57
61
60
58
58
60
59
61
62
59
60
63
51
53
54
50
54
53
51
55
53
51
53
55
49
50
52
52
53
56
105
104
99
150
147
136
128
126
121
132
131
122
115
118
110
88
92
88
92
99
94
32
31
29
99
97
91
94
86
78
35
32
31
108
107
101
72
71
66
34
31
29
99
96
91
60
54
56
63
64
63
95
96
94
36
38
38
47
48
47
130
128
120
80
77
72
83
81
78
80
76
76
49
45
46
68
67
64
146
139
129
98
92
83
71
70
67
83
79
77
95
91
87
50
47
46
51
46
47
52
46
45
44
45
42
69
61
61
86
74
69
54
56
52
45
42
40
45
44
45
55
54
56
67
63
62
85
83
81
64
63
62
72
73
73
66
67
70
38
38
42
31
28
31
115
82
69
85
61
57
42
44
47
53
53
56
55
56
64
91
87
87
66
65
63
66
62
59
61
57
54
57
54
51
58
55
53
45
44
41
52
50
46
78
77
68
75
74
65
83
82
73
92
91
82
93
92
83
93
92
83
94
94
85
89
88
79
94
93
81
121
121
106
91
88
79
109
106
94
103
100
90
96
93
83
101
99
88
80
79
71
59
60
54
135
130
116
83
75
61
52
44
32
93
88
78
122
115
101
120
116
101
119
115
99
118
112
98
75
72
63
44
42
39
97
93
86
107
95
82
45
40
35
107
106
97
124
119
104
140
133
115
33
30
27
36
34
31
69
64
58
33
30
28
60
58
52
103
99
87
113
108
95
144
137
125
151
143
131
68
62
58
46
42
38
106
96
82
85
80
69
87
81
73
83
75
64
118
110
101
49
44
39
80
77
68
128
123
107
118
112
100
26
24
20
95
89
82
95
90
86
30
28
24
56
54
47
87
83
71
110
106
91
136
131
117
126
122
105
127
118
105
39
35
30
65
60
54
74
71
69
27
25
23
61
60
55
89
86
79
93
92
84
119
115
102
116
112
96
107
104
88
128
124
115
88
81
73
125
121
111
142
137
125
142
137
123
124
120
107
148
145
134
145
142
127
141
139
124
146
142
125
150
146
129
143
141
126
147
145
129
147
145
128
151
150
133
130
127
114
111
106
98
87
79
72
79
72
66
105
102
94
89
83
74
21
19
17
24
22
20
30
28
25
43
42
35
60
57
51
68
65
59
67
64
58
79
76
71
87
82
78
88
84
79
89
86
80
96
93
86
99
93
89
98
92
85
98
94
88
104
101
95
100
96
91
96
94
87
98
95
90
102
99
92
96
93
85
95
93
84
94
91
83
88
86
82
80
79
73
87
85
78
82
79
71
95
95
89
84
82
80
113
105
100
78
73
69
89
89
84
96
95
90
86
86
76
98
95
88
100
97
89
101
98
88
92
89
79
94
91
83
92
88
80
97
93
83
96
94
83
100
97
88
97
94
86
96
95
86
96
96
87
89
89
80
93
92
83
90
89
82
89
88
82
88
87
78
86
85
76
86
85
78
85
84
77
88
87
78
89
86
77
81
78
67
89
84
76
83
82
73
87
87
79
90
89
81
90
90
81
97
93
86
100
96
88
105
100
92
99
96
88
99
97
90
101
96
87
92
90
83
88
87
79
82
83
77
73
74
68
63
61
57
96
94
86
95
92
84
92
88
80
95
92
84
96
95
87
72
70
66
76
75
68
104
103
97
63
59
56
102
99
96
90
88
87
105
102
100
85
84
82
82
82
79
87
87
85
87
83
81
77
77
74
73
76
72
70
74
70
77
76
74
103
101
92
99
98
90
93
92
89
93
93
92
96
97
88
94
93
84
104
103
96
95
94
86
117
116
108
143
141
127
134
134
125
132
132
123
120
123
115
87
91
87
81
87
82
31
29
28
82
80
75
84
76
68
36
33
32
105
104
98
79
77
73
36
33
31
94
91
86
59
53
55
61
62
61
93
95
92
39
40
41
49
50
50
125
122
114
84
80
75
95
93
90
90
89
88
58
57
57
65
64
61
162
156
146
98
92
80
80
80
69
97
94
84
83
79
73
74
71
65
55
51
45
81
73
64
63
60
54
65
58
54
93
80
73
62
56
52
58
48
45
64
56
52
93
85
82
47
42
39
74
70
67
76
71
67
66
62
58
64
61
60
44
41
42
41
34
34
144
96
76
114
68
54
44
42
44
53
51
53
59
61
67
84
80
80
52
51
50
52
51
51
54
53
54
47
49
49
45
45
45
39
38
35
49
47
44
75
77
65
78
80
68
85
84
76
84
83
74
88
87
78
92
92
83
90
90
79
94
94
82
96
93
84
105
103
90
93
91
82
100
97
85
103
100
90
96
93
83
99
95
82
75
73
65
58
58
56
133
130
116
82
76
61
51
44
32
91
88
76
124
118
104
124
117
104
118
112
97
120
112
99
72
69
60
43
39
36
92
86
80
107
96
83
45
41
35
113
112
105
125
120
106
142
131
113
36
32
27
36
34
31
68
63
58
36
33
30
63
59
52
103
98
86
116
112
98
142
138
125
146
141
129
68
61
57
48
43
37
104
92
78
87
80
70
85
82
70
89
82
71
123
116
105
50
46
40
81
79
67
132
126
113
118
112
102
25
23
19
109
104
96
88
85
80
30
28
24
66
62
55
98
93
81
112
108
93
137
130
114
119
113
97
125
117
101
42
37
31
72
67
61
75
72
70
29
27
25
61
59
54
84
81
75
93
90
83
112
110
98
113
109
94
107
102
89
129
124
116
81
75
67
126
122
112
129
125
110
148
142
127
137
132
118
141
140
127
135
133
120
127
125
111
129
127
112
145
143
128
144
139
127
142
137
125
139
134
121
143
139
123
111
109
97
105
102
95
83
77
68
65
60
55
103
101
94
91
85
77
20
18
16
23
21
19
28
24
24
41
37
33
40
36
35
56
52
49
57
51
50
63
55
53
65
58
55
61
55
49
67
60
55
83
77
72
74
66
60
83
76
70
73
67
64
68
61
58
70
63
60
54
48
46
62
61
58
61
56
54
61
57
55
53
50
47
62
58
54
59
56
53
39
37
33
76
76
69
99
98
91
87
86
81
85
84
80
109
103
97
80
76
73
84
83
79
90
89
81
79
78
70
98
96
88
94
89
81
87
84
74
91
88
78
98
95
85
101
98
88
100
96
86
94
92
85
97
96
87
97
96
88
95
94
85
95
94
86
90
90
81
91
90
81
91
90
81
84
83
75
86
85
78
87
85
79
88
87
80
88
87
81
86
85
77
87
87
77
87
83
76
82
78
72
85
82
75
89
86
77
91
88
80
96
92
85
96
92
88
105
102
94
106
102
94
108
105
97
105
104
94
98
93
82
92
89
81
89
86
78
80
79
73
74
73
67
66
64
62
95
94
85
90
89
80
89
88
79
81
77
72
91
88
80
72
70
66
87
85
78
84
81
77
103
101
91
90
87
82
81
80
79
96
92
90
83
83
79
83
84
79
78
79
74
78
76
72
76
75
72
79
80
77
76
76
73
95
93
84
115
111
103
88
89
86
77
79
76
85
86
84
89
88
82
97
97
92
94
93
89
87
87
81
111
110
102
141
138
124
105
106
97
88
88
84
82
82
80
67
69
65
65
65
63
31
28
31
81
79
74
87
81
73
35
35
33
101
100
92
77
75
73
37
35
36
92
91
84
61
57
58
61
62
61
91
91
89
42
40
41
51
53
51
130
128
118
82
80
75
92
92
88
85
85
84
61
61
61
61
59
57
162
155
147
98
88
77
75
72
64
96
88
79
65
58
54
40
31
30
45
39
34
94
89
81
53
47
41
58
52
48
92
81
73
56
49
47
74
59
55
80
73
68
59
49
47
48
39
38
81
75
73
75
68
66
72
68
65
71
64
64
46
42
42
39
36
35
54
34
31
45
29
26
47
44
44
55
52
54
57
58
64
112
110
111
72
76
79
72
75
72
75
77
74
72
70
71
69
67
68
39
37
37
51
50
47
82
84
72
75
76
65
83
83
74
82
81
73
86
85
77
87
86
77
90
90
79
95
94
83
84
81
71
105
102
89
94
92
82
109
106
94
101
98
87
95
92
81
102
98
85
76
73
65
53
53
49
127
123
113
77
70
56
51
43
32
94
91
79
123
116
103
124
117
103
121
114
99
121
113
100
67
65
56
44
40
37
91
85
79
98
87
75
45
42
36
113
111
102
119
113
103
143
132
114
36
32
27
37
35
32
67
62
57
37
33
30
59
56
49
101
96
85
115
110
97
144
141
125
146
141
126
67
60
55
50
44
39
108
96
82
89
82
72
89
85
75
87
80
70
123
116
106
53
49
43
82
79
68
132
126
113
119
113
103
25
24
19
118
113
105
90
87
82
30
28
25
68
64
56
106
102
90
116
111
96
132
126
110
124
117
101
127
118
103
44
39
33
69
64
58
74
71
69
28
26
24
62
60
55
81
78
73
98
95
89
109
106
94
112
108
94
107
101
88
127
121
114
81
74
66
124
120
109
137
133
119
144
138
123
134
128
114
134
131
119
140
137
123
142
138
124
129
125
110
141
137
122
150
145
130
148
144
128
147
144
124
146
142
126
112
109
98
107
104
97
86
80
71
52
47
41
115
111
99
89
84
75
20
18
17
23
21
20
29
24
24
38
35
31
45
41
40
61
57
53
59
53
52
68
60
58
64
58
53
59
53
50
79
72
69
74
69
65
72
64
59
95
87
82
78
72
69
68
61
58
89
83
81
69
64
61
76
74
71
76
73
70
84
81
79
67
64
62
70
67
63
65
63
60
57
54
52
79
78
71
120
120
109
96
96
86
81
82
78
108
102
95
76
72
69
77
77
73
83
82
74
81
80
73
95
94
86
86
81
73
100
97
87
111
108
98
104
102
92
108
105
95
107
103
93
96
93
86
98
97
89
99
99
90
93
92
84
96
95
86
94
93
85
90
89
80
89
88
79
88
87
79
86
85
78
89
88
81
89
88
81
88
86
80
83
82
74
83
83
73
95
92
82
96
93
84
87
84
77
98
95
86
94
90
82
98
94
86
102
99
91
105
102
92
103
100
92
105
102
94
103
102
92
102
97
86
87
84
76
88
85
77
85
84
77
78
77
71
64
62
60
89
88
79
92
92
83
88
87
79
87
84
78
84
81
72
92
90
82
66
64
60
79
75
72
103
100
93
82
78
70
68
68
63
81
77
74
77
77
72
81
82
77
79
79
75
81
80
76
90
89
84
81
83
76
79
81
73
104
100
91
97
93
84
90
88
84
79
78
73
92
90
85
105
99
92
102
98
90
93
91
84
93
92
85
115
112
105
146
137
126
88
86
78
86
86
78
75
75
68
87
89
85
80
80
78
33
30
33
75
73
68
86
79
72
35
35
33
103
102
96
80
78
76
41
39
39
94
93
91
57
55
58
55
58
58
91
94
91
42
43
44
52
54
52
129
127
117
74
73
66
92
92
89
91
91
90
64
64
64
63
61
59
160
153
145
98
91
82
98
93
83
100
91
82
65
59
55
39
32
30
51
43
38
44
38
31
62
56
50
54
48
43
86
75
67
67
56
50
63
53
46
58
48
44
59
42
42
53
43
42
101
95
92
80
71
67
84
78
72
81
74
72
44
39
42
29
25
29
42
38
42
57
51
53
65
60
58
53
49
51
54
55
60
115
115
112
77
82
81
80
83
80
72
74
71
64
65
64
56
57
57
38
36
37
49
48
45
85
87
77
89
91
81
92
94
84
96
98
89
91
90
80
83
83
72
92
92
82
92
92
78
91
91
78
106
107
91
90
87
78
101
99
85
99
97
85
99
97
85
97
92
80
76
73
67
53
53
48
127
122
114
75
67
52
52
44
34
96
92
82
120
113
99
122
117
103
120
116
100
120
114
100
68
67
57
38
36
33
82
77
70
109
97
84
43
38
33
110
109
98
117
111
101
144
133
114
39
33
29
38
36
31
65
60
56
42
36
33
60
58
50
94
89
79
113
108
96
140
134
119
145
138
123
63
56
51
52
46
40
109
97
83
91
85
75
83
77
68
89
81
71
104
99
91
53
50
45
78
75
66
131
126
110
117
111
100
24
22
19
106
104
93
85
84
77
33
29
26
68
65
55
105
98
85
117
110
97
135
128
114
121
114
97
120
112
98
42
37
33
69
64
56
72
70
65
28
24
23
63
60
55
92
88
84
102
99
94
114
112
100
112
108
95
111
108
92
129
125
117
82
75
70
125
120
110
136
131
117
137
133
119
129
125
111
129
124
112
105
100
87
89
85
71
108
103
89
113
109
95
131
125
110
142
139
123
137
135
118
143
142
126
116
113
102
109
104
98
83
79
72
61
58
50
110
104
95
90
83
76
20
18
17
22
20
18
30
28
25
43
41
35
49
47
42
65
60
55
73
69
64
79
76
70
66
62
56
71
67
63
72
67
62
81
75
70
74
70
63
72
68
62
77
73
67
70
66
61
65
60
58
80
75
69
65
62
54
70
67
60
77
72
65
72
69
62
60
58
52
59
58
53
58
57
52
70
68
63
68
68
61
70
70
63
86
88
84
108
102
96
74
69
66
66
65
62
83
80
73
81
77
71
94
91
84
80
77
69
96
94
83
103
100
90
106
103
92
96
93
83
104
100
90
94
93
82
96
95
84
95
94
83
95
91
84
95
91
85
89
88
79
87
86
77
87
86
77
84
83
75
87
87
78
87
86
77
89
88
80
88
88
79
86
85
76
90
89
80
95
93
82
101
99
88
105
103
91
101
98
89
103
101
91
88
85
75
94
91
83
99
95
87
105
102
94
107
104
96
101
98
89
97
94
82
97
93
85
94
91
83
92
91
82
90
89
81
63
61
60
80
79
72
91
88
82
101
97
89
81
77
73
99
95
89
101
99
90
95
93
85
68
66
62
68
66
61
84
80
76
75
71
68
58
55
54
67
66
64
72
73
70
66
66
64
64
65
64
60
61
60
65
67
66
69
70
69
75
74
74
66
64
64
82
79
78
73
70
67
77
75
71
71
68
65
103
101
95
69
68
62
80
80
75
108
104
96
151
141
131
100
96
92
86
90
85
80
80
72
97
100
97
89
90
87
34
31
32
69
66
64
86
79
76
35
35
33
133
132
122
86
84
82
42
42
43
101
100
100
69
66
71
61
62
62
91
93
91
45
47
47
58
59
57
130
127
121
73
71
66
97
98
94
91
91
90
65
65
63
60
61
58
153
149
139
96
88
77
97
88
81
93
86
76
66
59
55
41
34
32
53
44
38
55
45
40
59
45
38
66
51
41
68
52
43
76
58
48
71
53
44
58
45
39
63
45
41
58
46
43
102
94
91
82
72
67
78
74
71
76
72
70
45
40
43
25
23
34
29
27
38
38
37
43
39
35
37
53
49
52
49
51
54
116
114
112
75
76
77
75
75
75
73
74
73
70
69
71
55
55
56
38
38
38
49
50
46
87
88
79
89
91
81
98
99
91
101
102
92
90
89
79
92
91
80
82
82
72
84
83
72
83
83
69
110
110
94
89
87
74
98
96
80
89
87
75
105
102
91
102
98
84
81
79
70
56
56
51
125
120
111
75
68
53
52
44
34
93
88
78
122
115
101
122
117
103
120
116
100
118
112
98
69
67
58
40
39
35
88
84
77
106
94
81
40
35
31
111
110
99
113
109
97
148
138
118
38
32
28
36
35
30
66
60
56
43
37
34
60
57
50
102
97
88
113
109
97
138
131
115
144
136
122
61
54
50
52
46
40
108
97
82
92
87
76
89
84
75
110
102
92
118
111
102
55
51
47
76
73
64
135
130
114
117
111
100
26
25
22
105
103
93
86
86
78
32
28
25
68
64
54
108
102
85
121
115
98
137
131
113
118
111
96
121
113
99
38
33
29
68
63
55
74
71
67
27
23
22
60
57
53
86
82
77
96
94
87
111
109
96
113
109
95
109
106
90
129
126
117
82
75
69
122
116
106
126
120
106
125
122
106
125
120
103
128
123
107
114
107
93
89
83
70
101
94
83
125
118
106
117
111
94
131
129
111
139
138
118
141
140
121
110
107
95
107
102
95
83
78
69
45
40
38
118
112
100
85
78
71
19
17
15
23
21
20
36
34
31
49
48
41
59
53
49
71
68
63
76
73
68
80
77
72
84
80
75
78
74
69
81
75
70
82
76
72
82
79
72
80
76
68
83
78
71
88
84
76
79
76
73
76
74
67
85
84
72
92
90
77
107
102
90
102
98
87
89
86
74
82
78
68
94
92
81
98
95
84
97
93
81
107
104
94
82
83
76
105
99
89
74
70
66
75
74
70
75
71
65
75
71
65
90
87
79
76
73
63
91
89
79
92
92
81
94
91
81
82
79
69
96
92
82
95
93
83
95
94
83
91
91
80
94
91
82
93
89
80
89
89
80
90
89
80
90
89
80
89
88
79
90
89
80
94
93
85
91
90
81
89
88
79
89
88
79
101
101
92
99
96
86
104
101
91
103
100
88
97
94
85
107
103
93
105
102
92
95
91
84
95
92
85
103
100
92
101
98
90
100
97
88
101
98
88
91
88
80
94
91
83
90
89
80
91
90
82
75
73
70
90
88
84
89
86
80
95
92
84
98
95
87
99
95
92
91
87
85
77
73
71
59
57
53
58
58
53
57
57
52
54
54
50
62
61
59
52
50
48
59
58
56
86
85
84
84
84
79
84
85
79
92
91
86
90
91
86
92
93
88
97
99
95
84
82
79
99
98
90
93
91
87
93
91
88
91
90
83
81
82
75
85
87
82
102
97
89
149
140
130
91
88
84
75
79
74
83
84
78
93
95
92
86
87
84
36
34
35
74
72
69
86
79
75
34
33
32
135
134
124
90
88
85
41
40
41
109
108
108
69
66
71
57
58
58
93
94
92
47
48
50
62
64
62
131
128
123
71
69
63
94
94
91
92
92
91
64
64
62
60
60
58
154
150
140
95
88
77
92
83
76
94
86
77
67
60
56
46
39
36
56
46
40
67
52
46
68
51
42
73
53
41
72
52
39
75
53
43
72
51
40
63
48
41
65
47
42
62
50
47
96
89
85
77
67
63
83
79
76
89
84
82
50
46
48
25
23
35
31
29
41
43
42
49
42
38
41
58
54
58
47
49
52
116
114
112
76
77
78
78
79
76
74
75
71
71
71
73
58
58
59
39
39
39
52
52
49
88
90
80
93
94
84
81
83
73
90
92
82
94
93
84
95
94
85
83
82
73
90
89
78
92
89
77
90
87
76
92
90
79
93
91
75
88
85
73
89
86
75
85
80
68
76
73
66
56
55
50
123
118
110
72
67
52
51
45
37
90
85
77
127
119
106
121
116
104
117
113
100
117
111
97
71
70
60
41
39
36
86
82
76
110
99
87
42
38
33
106
103
94
110
107
94
149
139
117
37
32
26
29
28
23
65
60
55
38
34
31
61
56
50
100
92
83
115
107
96
146
137
121
146
135
123
58
51
47
52
47
40
110
99
84
91
85
75
92
87
77
101
93
84
125
116
105
61
56
51
72
69
60
136
131
116
117
111
102
27
25
22
96
93
86
91
90
85
30
27
24
66
61
52
108
101
86
108
102
84
136
130
112
124
117
100
122
113
100
40
35
31
75
68
63
75
71
68
26
23
22
57
55
50
92
88
82
93
90
83
116
114
101
111
106
93
102
98
84
129
124
117
81
74
68
123
116
105
123
116
103
124
121
106
128
122
105
117
111
95
95
91
77
66
61
53
75
70
59
92
87
76
77
72
62
139
138
123
135
131
112
135
130
113
112
108
96
103
98
87
81
77
70
63
60
53
115
107
90
85
78
70
19
17
15
24
22
20
34
33
29
52
50
46
67
62
59
69
67
62
64
63
58
70
68
63
70
70
65
66
63
60
68
66
63
70
69
63
80
78
72
82
78
73
77
75
70
77
75
70
79
78
73
73
71
67
70
68
62
68
66
60
79
75
68
79
73
66
74
71
63
69
66
58
66
60
53
86
80
73
109
104
93
101
96
85
80
78
74
96
90
84
70
66
63
87
86
83
91
87
80
82
78
72
90
88
78
80
79
68
86
86
74
82
81
71
90
87
78
84
81
73
91
87
77
89
87
76
97
94
85
94
91
83
92
91
80
89
88
77
92
89
80
92
89
82
93
93
82
90
89
81
93
93
84
95
94
85
94
93
85
91
90
81
93
90
82
102
99
91
105
102
92
104
101
91
106
103
93
104
101
91
108
102
92
112
106
99
99
96
89
99
95
89
95
92
84
105
102
94
102
99
91
94
91
81
90
87
79
93
90
82
92
91
82
93
92
85
75
74
68
88
86
82
91
89
85
86
84
78
94
93
85
88
87
80
80
79
77
78
76
74
58
58
56
55
55
53
67
68
63
60
60
56
59
57
55
64
62
61
61
61
58
83
83
82
61
61
59
56
56
53
71
68
66
69
68
65
65
63
66
74
72
69
67
67
65
70
70
69
91
89
86
126
125
122
99
98
88
79
81
77
67
69
69
88
85
79
146
139
129
122
119
114
131
130
122
107
104
101
90
92
88
90
90
86
40
37
38
79
77
74
86
79
75
34
33
32
125
125
116
88
87
83
37
38
37
100
104
103
70
67
72
60
63
62
89
93
91
44
47
49
64
66
65
130
127
122
75
73
67
89
90
86
94
91
91
60
58
57
59
57
57
154
148
138
97
88
78
90
83
75
93
86
78
68
61
57
51
42
36
62
48
41
80
59
49
63
44
35
68
51
39
73
51
40
77
54
40
78
56
41
75
52
42
70
48
42
65
51
47
99
87
82
84
73
69
87
84
79
90
85
81
49
45
47
26
24
35
33
30
41
46
42
51
45
40
48
59
54
58
47
48
51
119
117
113
71
72
72
74
74
74
71
71
67
67
66
67
56
56
59
39
37
36
54
52
50
89
91
81
92
94
84
92
94
85
100
101
92
81
80
71
83
82
74
85
84
74
77
77
65
77
74
63
92
89
78
83
80
70
94
93
77
77
75
63
82
79
69
78
73
63
59
57
50
56
55
51
122
117
108
72
67
52
51
46
38
88
83
75
124
117
105
117
112
100
113
108
95
116
110
96
69
68
58
41
39
36
87
83
77
108
97
84
43
39
36
103
100
90
116
114
99
148
138
115
35
29
23
29
27
22
67
62
58
34
30
27
59
54
47
101
94
85
115
108
96
140
131
115
147
136
124
58
51
47
52
47
40
114
102
88
95
90
79
98
92
83
91
84
74
124
115
106
63
58
53
70
67
57
135
130
115
114
108
99
27
26
22
86
83
76
98
98
92
28
25
22
64
59
50
104
97
82
107
101
83
134
128
110
117
110
92
119
111
97
36
31
27
65
57
52
76
72
69
26
24
22
54
53
48
99
96
90
91
88
80
118
113
102
114
109
95
116
111
97
133
128
121
81
75
68
108
103
94
109
103
93
112
110
96
105
99
82
111
105
90
91
86
73
64
59
53
70
65
56
75
71
62
85
83
73
132
127
112
129
120
103
117
110
94
81
76
70
103
100
95
108
104
98
66
64
58
114
108
90
82
75
68
19
17
15
23
21
19
43
41
38
52
51
47
59
56
50
72
66
60
75
69
63
69
63
57
75
69
63
76
70
66
74
71
64
100
94
85
101
94
86
92
86
78
114
111
101
85
80
70
93
89
79
111
105
95
88
82
79
57
51
48
77
71
66
74
68
62
72
69
61
65
61
54
68
63
56
73
67
60
90
86
74
91
87
75
76
74
70
98
92
86
61
58
54
60
59
56
73
70
64
75
72
66
65
62
56
54
52
47
44
44
39
85
84
79
73
72
65
71
69
62
83
79
71
86
85
75
75
73
66
92
89
81
87
87
76
98
97
87
93
90
82
94
91
82
91
91
80
94
92
85
96
95
87
95
94
85
95
95
86
96
95
87
97
94
85
106
103
94
101
98
88
108
105
95
111
108
98
102
99
89
100
98
87
110
104
96
97
94
83
108
105
95
102
99
90
93
89
81
100
97
88
102
99
90
95
92
84
104
102
94
83
82
76
76
75
71
74
73
68
81
79
75
81
79
75
80
79
75
81
79
76
74
72
69
67
65
63
69
67
66
58
58
56
63
63
60
66
66
62
69
69
65
64
63
61
66
65
63
79
77
75
72
70
69
89
90
86
80
81
76
102
102
96
107
105
99
96
95
88
103
103
92
104
106
94
87
88
85
67
65
63
90
88
86
111
110
100
70
72
68
74
77
76
96
93
88
145
138
127
119
118
111
118
121
110
106
108
103
101
103
99
99
98
95
42
40
40
85
83
80
89
82
78
39
38
37
115
115
109
87
87
86
35
36
36
106
109
108
70
68
73
63
66
65
85
89
88
45
48
51
63
64
62
126
123
117
78
76
70
93
93
89
96
94
93
59
57
57
59
57
56
157
150
141
93
85
75
92
85
78
100
89
82
74
64
60
60
46
40
84
60
49
115
83
66
71
48
36
73
52
38
79
54
40
81
57
39
84
59
40
123
84
66
81
50
43
69
52
47
102
87
80
88
77
73
89
86
81
94
88
84
50
46
48
28
27
36
35
33
42
49
44
53
46
41
49
59
54
57
49
50
53
119
116
112
67
69
67
75
75
73
72
72
69
69
68
68
60
60
62
41
39
37
56
53
52
86
88
78
80
82
72
81
82
75
83
84
77
89
89
80
87
86
76
81
81
69
88
88
76
89
88
77
91
90
79
80
77
69
86
83
72
68
66
53
61
58
49
64
59
51
58
56
47
57
57
57
92
89
81
73
67
51
52
45
35
88
84
78
121
114
101
118
110
99
113
106
94
113
107
96
68
66
59
43
39
35
85
79
71
110
98
84
42
37
31
104
102
89
133
129
117
140
131
108
33
30
23
32
28
25
74
63
59
39
32
29
57
54
46
104
97
85
111
104
91
137
126
110
148
136
121
56
50
44
50
47
40
115
101
87
100
92
82
87
83
73
98
92
84
119
113
106
60
57
53
65
63
52
131
125
112
111
105
93
28
27
21
84
82
74
104
104
96
29
26
23
64
59
50
100
93
79
107
101
84
131
123
103
119
111
93
114
106
91
36
34
28
83
78
73
81
75
73
26
23
22
52
50
47
95
91
86
88
86
78
116
111
99
124
117
103
104
100
85
130
124
118
64
57
55
52
48
46
45
41
35
96
92
83
96
91
78
71
67
57
74
70
60
64
60
52
69
66
58
57
55
49
115
110
101
105
95
79
119
109
91
87
81
70
79
76
74
92
89
87
90
88
85
96
93
91
91
86
74
80
75
67
16
17
14
21
21
19
41
37
36
54
50
49
51
46
43
69
63
60
53
49
46
63
59
56
49
43
41
42
34
34
103
96
82
96
89
73
92
83
74
98
85
75
78
72
65
54
53
45
70
63
56
68
62
57
55
50
46
38
33
30
38
34
31
49
45
42
63
59
52
65
61
53
72
66
57
67
62
52
68
63
54
68
63
54
75
72
67
97
92
85
61
58
54
48
47
44
49
48
44
70
68
63
94
94
86
61
60
56
35
33
32
89
88
82
77
75
67
76
73
66
92
88
81
87
85
78
89
88
80
84
83
74
86
83
73
97
94
84
94
90
80
94
92
81
98
95
87
100
97
89
99
99
88
104
103
92
101
98
89
97
94
84
112
109
99
106
104
93
118
116
107
105
103
92
112
110
97
110
108
95
105
102
92
106
103
93
111
108
97
101
98
88
93
90
82
97
94
86
94
91
81
92
90
80
92
92
84
68
67
64
72
70
69
49
48
45
56
55
51
86
85
81
75
73
70
84
82
78
79
77
75
78
76
75
67
67
65
65
66
63
64
64
61
68
67
65
76
74
72
70
68
67
71
71
70
66
66
65
62
60
59
77
75
72
77
76
75
70
70
68
74
73
69
73
72
67
71
71
68
76
76
71
78
79
73
72
72
70
70
68
68
76
74
72
91
90
84
76
77
71
75
77
75
96
92
90
143
136
126
122
119
113
122
123
114
117
118
111
100
101
98
98
99
97
43
40
41
94
92
89
91
85
83
40
40
41
108
109
104
91
91
91
36
36
37
104
104
104
70
69
74
67
71
70
88
93
93
44
49
53
62
63
61
119
116
109
81
78
73
98
96
93
94
94
93
62
63
61
60
58
57
152
147
137
95
86
77
96
87
82
101
89
81
76
68
60
65
49
41
103
69
49
168
123
95
80
55
38
76
53
38
80
57
42
86
60
45
91
64
45
163
117
89
93
54
40
70
50
45
108
88
81
90
78
73
90
84
79
86
77
75
49
44
46
28
27
37
36
31
46
52
48
54
47
42
48
64
56
60
55
53
56
119
116
116
72
73
73
72
72
68
72
73
69
69
70
68
65
65
65
43
43
41
59
57
54
85
86
77
75
76
67
75
76
69
71
72
64
96
95
86
86
85
75
89
88
77
88
87
76
80
79
68
86
83
73
74
71
64
73
70
58
73
71
57
82
80
65
91
86
71
75
73
63
57
59
54
101
98
87
78
72
56
53
46
36
90
85
79
125
118
105
115
108
97
111
104
92
113
107
96
70
67
61
42
39
34
84
78
70
106
94
80
40
34
28
94
90
82
117
107
94
124
114
96
37
34
25
39
35
29
95
86
79
51
44
40
54
51
42
97
89
78
107
100
86
139
127
112
148
136
121
53
47
41
50
47
39
118
104
90
102
94
83
84
78
70
96
91
81
109
104
97
56
53
49
65
63
52
124
118
105
107
101
89
30
29
23
82
80
72
108
107
100
30
27
24
60
55
46
83
76
63
95
89
73
133
125
106
142
134
117
111
103
88
34
33
26
82
80
72
78
75
71
22
20
19
52
50
48
84
81
77
89
88
80
109
102
91
105
98
86
95
90
77
134
127
121
55
50
47
37
35
32
40
36
31
73
70
63
86
83
73
105
101
88
112
108
92
105
101
87
92
90
80
107
104
96
116
110
100
116
105
90
104
95
77
75
69
59
64
61
58
68
65
61
108
106
102
99
98
95
97
93
80
87
82
74
16
17
14
19
20
17
28
27
25
32
31
29
40
37
34
47
45
40
51
50
47
52
51
48
58
55
52
61
58
55
59
56
51
67
64
57
78
76
66
78
75
66
61
56
48
63
62
54
66
60
54
67
62
55
64
58
52
63
60
53
66
62
56
68
65
58
69
66
58
65
62
54
70
64
55
72
67
58
79
74
64
72
66
58
71
68
63
93
88
80
58
54
51
46
45
41
54
52
47
52
51
47
49
48
44
45
41
41
49
45
43
64
61
53
59
56
48
56
53
45
62
57
50
64
62
53
66
64
56
86
85
76
105
102
92
102
99
88
95
91
81
97
95
86
99
96
88
100
97
89
98
98
87
101
100
89
102
99
91
104
102
91
107
104
93
126
123
114
114
111
101
109
106
95
112
109
97
116
113
100
117
115
103
115
112
101
105
102
91
100
98
87
109
106
97
91
88
78
100
97
86
95
94
80
56
55
48
51
49
49
51
49
49
42
40
38
52
50
48
53
51
48
63
61
57
73
71
67
70
68
66
71
69
68
61
61
59
63
63
60
70
70
68
80
80
78
69
70
67
68
66
65
82
79
76
113
110
105
114
112
107
90
89
83
80
78
74
69
67
66
80
79
75
71
69
66
72
70
69
79
79
75
81
82
78
59
59
59
52
52
52
59
59
59
69
69
68
66
69
68
63
65
65
90
88
86
152
144
135
120
117
112
128
127
118
115
117
108
93
95
92
96
97
95
46
43
44
82
79
77
92
86
84
41
41
42
107
108
103
98
98
99
38
38
39
102
102
102
63
62
67
67
70
70
88
93
94
46
50
54
66
68
65
121
118
111
84
81
76
98
97
94
93
93
92
61
61
59
62
61
59
153
147
137
97
88
77
94
86
78
100
88
79
81
72
65
68
50
42
110
67
49
175
129
98
89
59
40
78
56
41
83
60
44
91
64
47
95
68
47
173
128
96
101
56
43
71
51
43
109
89
80
86
76
70
87
79
74
86
77
72
50
46
46
29
28
38
37
31
46
49
46
49
47
43
46
65
56
59
62
60
63
112
109
109
72
73
73
74
75
71
70
71
66
68
65
60
64
61
61
43
43
42
57
54
52
73
74
67
64
65
58
78
79
72
82
83
76
96
95
86
88
87
78
86
85
76
88
85
75
86
84
71
88
85
75
79
74
65
84
79
70
77
74
64
80
78
64
82
78
65
67
64
55
56
57
51
154
151
145
77
72
58
52
46
36
87
85
78
123
120
106
116
111
99
111
107
93
114
108
96
66
64
57
39
36
32
73
68
61
88
75
61
43
37
31
95
92
85
93
83
75
89
79
72
36
31
27
37
34
30
71
62
55
55
49
44
59
56
47
94
87
79
107
100
89
130
121
104
143
133
117
52
46
40
49
46
39
117
103
90
100
93
81
83
77
68
96
92
83
107
102
91
59
55
51
68
66
58
124
118
106
104
100
89
30
31
25
81
80
73
110
107
102
38
33
29
77
70
59
94
88
74
103
97
80
87
79
68
88
80
69
104
96
84
34
31
27
63
60
55
73
73
70
20
18
17
50
48
44
82
78
74
97
96
89
113
106
95
102
96
86
95
91
79
129
121
115
54
48
45
38
35
31
42
38
34
28
25
21
40
36
31
84
81
68
97
95
77
96
95
77
100
96
80
94
89
73
98
93
77
99
92
75
79
74
61
71
65
56
70
65
59
112
109
104
137
134
131
130
127
120
103
97
84
78
73
65
17
14
15
20
17
18
33
31
32
51
48
48
65
64
60
71
70
64
78
74
69
82
80
74
81
77
69
80
77
69
86
81
74
80
76
69
76
72
63
82
79
73
82
77
72
82
77
72
83
78
69
81
76
67
81
76
67
82
77
68
77
72
65
82
77
70
76
73
62
67
64
53
69
63
56
69
63
56
70
65
55
76
71
62
64
63
58
103
102
93
62
60
55
65
64
60
67
66
61
60
56
51
58
54
49
50
47
41
67
63
57
72
69
62
69
65
57
77
73
65
76
71
61
79
74
64
89
84
72
106
101
90
104
101
90
103
100
89
95
92
82
100
97
86
101
98
87
102
99
89
107
104
93
104
101
92
104
101
93
107
104
94
97
94
84
91
88
80
96
93
85
104
101
90
110
107
95
110
107
95
115
110
99
109
103
94
98
95
87
120
117
107
95
92
84
90
87
80
91
88
81
95
91
84
70
67
65
119
117
115
131
130
124
110
109
103
129
128
122
129
128
123
104
103
98
79
77
74
88
86
84
87
85
84
69
70
67
30
31
29
71
71
68
77
77
75
72
72
70
69
68
68
77
75
74
73
72
69
82
81
78
84
85
78
93
92
87
86
85
81
85
83
79
104
101
97
106
104
100
80
81
76
53
51
50
71
72
73
81
81
83
75
76
78
68
70
72
65
66
69
59
61
62
88
88
85
150
144
136
116
115
109
126
124
116
117
118
109
92
94
93
93
94
94
47
44
47
90
87
86
99
93
93
44
46
48
108
109
106
99
100
101
37
38
40
100
102
99
66
65
72
63
66
66
91
94
95
48
54
58
67
67
65
123
118
113
85
80
78
99
97
93
97
94
92
56
57
54
65
62
59
165
158
145
99
87
77
96
85
78
100
88
79
81
72
64
69
48
39
110
71
48
181
136
107
96
63
45
82
57
44
87
62
46
94
68
50
100
72
51
176
130
100
106
61
48
74
52
46
109
86
78
88
74
70
89
80
73
87
77
70
53
47
46
32
29
40
41
34
48
49
45
50
48
43
48
63
55
59
64
62
67
116
111
107
78
76
72
83
79
76
71
70
66
74
70
67
67
63
63
42
41
42
58
53
54
70
71
64
58
59
52
66
67
60
62
63
56
76
76
67
70
69
60
87
86
77
84
81
71
85
82
71
101
97
87
91
85
76
95
91
81
81
78
68
76
73
62
79
75
63
64
62
53
51
52
48
124
122
113
71
66
52
51
45
36
85
83
76
122
119
105
118
113
101
115
111
97
112
106
95
66
64
57
42
39
35
81
75
67
92
80
66
47
40
34
113
110
100
127
117
106
141
131
117
39
34
30
31
27
23
63
54
47
35
29
28
49
45
40
85
77
70
95
88
78
128
119
103
136
126
110
49
43
37
47
43
37
116
103
89
94
87
74
81
75
67
95
90
82
102
96
85
56
53
48
68
66
59
122
116
104
104
100
89
29
30
25
84
83
76
101
98
92
29
24
22
56
49
44
76
69
61
89
82
69
108
101
87
100
93
79
116
107
94
35
33
28
83
80
74
78
77
75
21
19
17
48
46
42
84
78
75
89
87
81
110
103
93
110
105
89
106
103
88
128
121
111
54
50
45
47
43
40
39
37
31
33
29
25
42
38
34
41
38
33
45
42
35
49
45
38
54
49
42
54
46
41
52
44
39
53
44
39
54
48
41
50
45
37
48
41
34
55
49
41
49
44
38
45
42
39
126
120
107
71
66
61
17
14
15
19
17
17
29
27
28
39
37
36
51
49
48
60
58
54
61
59
54
67
62
58
71
67
62
71
67
62
79
73
66
77
73
65
79
73
65
86
78
68
90
83
75
83
76
68
77
72
62
75
70
60
81
75
65
76
71
61
72
66
59
75
69
62
69
65
55
69
66
56
74
68
61
73
67
60
69
63
54
74
69
60
58
57
51
86
85
77
56
55
49
73
71
66
76
75
66
76
73
63
84
81
71
68
63
53
83
78
68
83
78
68
80
76
69
78
74
66
81
76
66
84
79
69
92
87
76
97
92
81
108
105
94
100
97
87
102
99
89
104
101
91
100
97
87
101
99
89
106
103
93
111
108
99
107
104
96
112
110
97
106
103
94
85
82
75
62
58
53
109
107
97
109
107
94
103
100
88
116
111
99
111
106
95
96
93
84
98
96
84
124
121
110
92
89
78
106
103
93
86
83
76
86
83
76
90
87
82
65
64
61
54
53
50
79
79
74
76
75
71
59
57
53
62
60
58
67
65
65
61
59
60
44
44
43
54
56
53
64
64
62
69
69
67
65
65
63
57
58
56
68
67
67
61
60
58
70
71
65
71
72
68
90
89
85
88
86
82
92
90
86
79
77
73
93
89
86
63
63
61
75
74
74
75
75
79
74
76
78
79
82
83
80
81
83
65
66
69
70
73
75
92
94
90
154
147
140
115
114
110
128
125
117
119
121
112
94
96
95
97
98
98
48
46
49
94
91
90
103
97
97
45
46
48
106
107
104
95
97
99
37
38
40
111
113
110
66
65
70
54
56
59
89
92
93
47
53
57
68
68
66
121
116
110
80
76
73
96
94
90
91
87
86
58
58
56
66
63
60
158
150
136
99
86
74
96
85
75
99
87
75
89
74
65
77
50
40
113
71
46
182
137
104
97
65
46
85
60
47
89
64
49
99
72
54
105
78
56
179
133
101
106
60
45
87
57
49
110
85
76
91
74
71
96
84
77
89
79
72
52
46
44
32
29
39
43
37
48
51
47
52
49
44
49
65
56
61
67
64
69
116
108
105
88
82
79
84
80
76
71
70
64
69
68
65
66
65
64
40
41
41
54
52
52
51
52
45
55
56
49
55
54
48
59
58
52
67
66
59
71
70
64
82
81
73
91
90
81
92
92
82
102
100
87
103
98
88
89
85
76
78
74
65
75
73
62
89
84
74
64
61
52
53
52
49
99
94
88
63
58
44
46
43
33
87
84
77
117
110
97
111
105
93
110
105
92
112
106
95
68
65
58
44
39
34
90
80
70
100
88
77
57
51
46
104
99
89
131
120
108
144
134
121
40
36
32
27
25
21
58
53
45
28
24
22
46
41
35
85
78
69
94
86
76
139
131
113
140
130
113
48
43
37
48
45
38
116
104
90
89
82
72
80
76
69
93
88
78
100
95
87
58
54
50
64
63
55
120
116
103
105
99
89
29
29
24
91
90
83
98
95
90
25
22
18
55
50
41
90
83
72
100
94
80
133
127
113
134
128
116
126
118
103
35
34
27
79
74
68
82
80
76
21
19
18
48
45
43
85
80
76
92
93
85
119
112
100
113
107
94
98
95
81
123
116
103
132
129
121
148
146
137
146
143
132
117
115
103
138
136
124
149
147
135
155
150
136
157
152
138
159
156
141
155
150
139
154
149
140
152
147
137
151
146
134
143
139
126
153
148
132
119
114
97
98
93
83
61
58
52
124
111
96
71
62
58
15
14
14
17
17
17
26
24
23
41
39
37
52
50
47
57
56
52
64
60
58
69
65
61
76
71
66
74
69
64
75
69
62
74
68
61
82
75
68
79
73
64
76
70
60
82
75
66
82
76
69
78
73
65
84
78
66
82
76
64
75
69
62
76
71
62
78
71
60
69
65
54
75
70
60
74
69
59
74
68
60
76
71
60
57
54
48
90
85
77
58
55
49
81
78
72
100
98
92
102
99
91
97
93
86
71
68
59
95
92
81
107
104
92
104
97
87
106
98
88
98
95
83
101
98
87
107
101
92
111
105
96
104
97
86
111
104
94
101
95
85
107
102
91
114
108
99
109
104
93
105
101
88
111
107
94
109
106
96
107
105
94
109
106
95
100
97
86
95
93
83
103
100
90
109
104
94
113
108
98
108
105
94
111
108
97
105
103
92
96
94
82
105
102
91
105
102
92
96
93
83
98
95
86
92
89
80
98
94
89
71
69
64
51
50
47
61
62
56
32
33
29
51
51
49
86
85
79
80
79
74
81
79
75
61
62
59
62
66
63
71
72
72
71
71
67
78
77
74
73
74
75
72
73
73
66
66
62
72
72
67
87
87
83
90
88
84
87
86
82
91
90
86
99
96
94
94
90
89
75
76
74
69
71
70
75
78
78
73
75
76
76
79
77
91
93
92
80
81
80
75
78
78
92
93
90
151
146
136
115
114
110
128
126
118
117
120
110
91
94
94
92
95
98
47
48
56
93
94
93
102
98
97
43
46
49
102
104
100
92
96
99
37
39
43
110
113
109
66
65
71
51
53
55
89
91
92
44
49
57
67
69
65
121
118
107
77
73
68
97
93
88
94
88
85
62
58
59
69
66
60
157
142
128
104
86
72
103
89
78
98
84
72
98
80
68
86
53
38
187
157
132
204
162
128
99
66
46
87
65
48
96
70
54
102
75
57
110
82
61
183
139
105
159
125
107
98
65
55
113
86
77
90
71
64
94
80
69
94
79
69
53
45
42
35
30
38
47
37
49
54
48
54
52
45
50
69
58
61
64
62
68
120
110
108
79
74
72
75
73
70
70
68
62
70
67
64
64
62
62
38
38
39
47
47
46
42
43
36
48
49
42
64
63
57
73
72
66
92
91
85
72
71
64
72
71
62
92
91
80
92
92
79
93
92
83
82
77
68
75
71
63
88
84
76
84
81
72
80
75
66
62
59
51
50
49
45
105
100
94
62
56
43
42
39
29
88
84
78
115
108
95
110
105
93
109
105
91
109
103
92
66
63
56
46
41
37
80
71
61
91
79
67
55
48
43
98
96
86
124
117
103
137
127
114
38
34
30
26
24
20
48
44
36
27
25
21
39
35
28
86
79
71
98
91
80
135
127
109
141
131
114
46
41
35
49
45
38
113
101
87
89
82
72
82
77
71
83
77
67
91
85
78
58
54
50
62
61
54
121
117
103
106
100
90
29
28
23
95
95
87
94
91
86
24
21
17
58
52
43
93
86
70
104
98
80
131
127
111
132
126
114
127
119
104
36
34
27
64
59
52
79
77
73
22
20
18
47
44
42
84
78
74
92
93
85
111
105
94
112
107
94
105
102
89
128
121
110
66
62
59
68
65
61
66
62
55
62
57
51
57
53
46
61
57
50
66
61
52
66
60
52
71
64
56
79
74
63
80
77
64
83
79
67
64
59
50
61
54
46
85
79
68
78
71
61
89
84
75
72
68
61
133
120
105
71
62
58
16
15
15
17
17
17
26
24
22
35
33
32
44
43
39
49
47
43
57
52
50
58
53
48
61
57
51
67
63
57
75
69
62
75
69
62
70
66
59
68
64
59
68
62
51
65
59
48
70
64
57
71
65
58
67
62
52
66
61
51
72
67
58
69
65
53
68
62
53
61
58
48
74
69
57
71
66
54
70
65
54
72
67
59
49
47
40
82
77
69
57
54
49
89
86
81
81
78
73
102
99
94
68
64
58
67
64
56
85
82
73
90
87
78
91
87
77
96
91
82
85
82
73
94
89
81
103
98
89
105
100
90
109
103
92
108
102
91
101
96
86
102
97
87
99
94
85
96
92
82
104
99
88
104
99
89
96
90
79
105
99
90
110
106
96
109
106
95
103
101
91
101
99
90
98
92
85
99
94
86
94
91
84
97
94
86
93
91
81
87
84
74
93
90
80
89
87
77
87
84
76
91
88
81
84
80
75
91
88
82
66
65
59
60
60
55
48
49
43
57
57
53
72
72
70
83
82
76
68
66
63
65
64
59
61
62
57
55
59
56
67
67
67
70
71
67
74
74
70
74
76
75
60
61
61
62
62
59
64
65
61
75
76
72
81
80
76
83
81
77
91
90
86
92
89
88
85
81
80
74
75
75
71
75
75
76
79
78
81
84
82
76
78
78
82
82
82
71
72
70
73
75
77
87
88
88
151
145
137
106
104
101
120
116
110
110
112
104
93
98
97
97
98
102
48
49
57
96
97
97
107
102
105
47
49
57
102
103
103
90
93
99
37
39
44
106
109
105
67
66
72
50
52
54
88
91
92
44
48
57
63
63
60
125
116
107
77
68
65
98
90
86
93
83
79
65
57
56
72
66
61
153
133
120
105
85
71
102
88
74
99
85
70
97
81
65
86
53
35
139
102
80
198
154
117
99
66
46
92
69
52
101
75
59
108
81
63
115
87
66
181
136
100
145
100
70
106
75
61
118
90
78
91
69
59
95
77
66
98
80
69
55
45
41
36
31
36
48
39
49
55
49
55
53
46
51
70
60
61
62
60
63
122
112
104
88
84
82
90
88
83
87
86
79
95
94
88
86
83
85
42
42
43
51
52
50
44
43
39
59
58
54
65
62
57
90
87
82
90
87
81
75
72
65
97
95
86
80
77
69
52
49
42
80
76
71
81
77
71
57
54
48
62
59
50
78
75
67
77
71
62
63
60
53
50
50
44
104
100
90
63
57
44
39
36
29
87
85
75
115
111
100
113
108
96
111
106
93
112
104
94
73
68
61
49
44
40
100
93
83
102
93
82
52
46
41
105
104
93
118
111
97
133
124
111
35
32
28
25
22
20
42
37
31
30
27
23
49
46
39
89
79
75
103
94
84
134
126
109
133
123
107
44
38
32
49
46
39
112
101
87
85
78
68
74
69
64
83
77
67
91
86
79
62
60
54
58
56
50
119
113
99
104
99
87
30
29
22
99
98
91
91
88
84
22
20
16
63
58
49
99
92
78
108
101
88
132
126
110
123
116
102
124
115
100
37
35
29
64
62
59
76
74
71
21
21
21
47
46
43
86
79
75
96
94
87
114
109
97
107
103
90
102
99
85
128
121
110
59
56
51
71
68
63
74
69
64
69
61
57
67
63
54
80
75
66
110
106
95
125
120
109
112
107
96
112
110
97
111
110
97
100
99
86
80
75
67
68
62
56
67
62
55
60
55
48
83
77
69
61
58
51
117
107
93
73
69
65
17
14
15
18
15
16
22
22
22
26
26
25
51
49
45
89
83
73
95
89
76
111
105
94
98
90
76
92
85
75
95
87
78
101
93
84
95
91
79
100
95
83
99
92
80
97
90
79
91
87
76
92
86
79
131
127
117
101
95
83
97
93
80
115
110
100
95
89
82
60
54
47
68
63
52
76
70
61
72
68
57
68
67
57
53
53
48
80
79
71
60
58
52
67
66
60
77
75
71
87
86
80
79
78
70
82
82
72
96
95
85
93
91
76
98
97
80
104
99
88
110
105
93
110
105
93
108
104
90
108
103
90
113
108
97
112
107
96
107
102
91
108
103
92
113
108
97
118
113
102
108
106
93
107
103
91
117
112
101
112
107
97
105
102
93
109
106
95
103
100
90
106
103
92
111
109
98
126
123
112
122
120
112
128
127
120
88
87
79
109
108
100
121
120
112
87
86
79
99
98
91
90
88
82
88
87
80
62
60
56
60
59
55
49
48
44
44
43
40
113
111
109
99
98
94
59
58
54
56
54
53
73
72
67
112
112
106
53
56
54
54
56
53
60
60
57
82
82
80
59
59
58
58
58
57
54
55
53
72
72
72
68
68
68
66
65
67
72
72
71
69
70
68
73
74
73
68
67
68
58
61
61
65
69
69
56
59
62
67
70
73
56
58
61
62
61
64
49
49
50
59
61
63
77
75
76
151
146
137
119
117
113
137
133
124
119
121
111
99
103
102
98
104
105
48
50
58
92
95
96
97
97
102
45
48
58
100
103
103
82
87
94
36
40
49
105
107
108
69
67
75
50
53
56
88
92
96
39
45
55
62
60
57
123
113
104
78
69
68
99
90
90
95
81
81
66
54
53
75
68
62
151
130
115
109
86
73
100
85
73
99
84
69
99
78
65
88
51
31
129
78
52
208
153
115
100
67
47
95
70
54
102
76
60
111
82
67
122
90
70
178
130
94
141
94
69
106
69
54
119
91
80
95
72
61
98
78
66
93
75
64
56
45
41
37
32
37
48
39
46
59
50
55
59
50
54
74
60
64
69
61
65
117
98
88
77
73
71
82
78
74
73
69
66
68
63
62
58
56
58
39
39
39
47
47
47
40
39
35
48
46
43
58
57
51
57
57
50
51
51
44
55
54
48
52
51
46
54
53
49
53
50
44
56
52
47
44
41
36
50
48
42
58
55
48
53
50
42
65
59
52
60
57
50
46
46
41
106
102
91
61
55
43
39
36
30
87
85
75
111
107
96
104
99
87
101
96
84
108
100
90
70
65
58
49
45
39
77
69
64
94
84
73
54
48
43
104
102
92
119
112
98
132
124
109
34
31
25
25
22
20
39
34
28
32
28
25
50
46
39
82
73
65
104
95
81
133
126
108
131
121
105
44
39
33
48
45
38
116
104
91
86
80
68
77
73
67
88
83
74
91
87
79
64
62
55
58
55
51
117
111
97
104
98
86
31
30
23
108
106
99
86
84
79
22
20
16
64
59
50
104
97
84
99
92
78
125
118
102
119
112
98
123
115
100
38
36
30
81
80
75
74
73
70
21
21
21
47
46
43
79
72
68
92
90
83
113
109
97
102
99
85
99
96
82
130
123
113
65
59
51
77
70
64
64
57
52
64
57
52
72
67
60
56
50
44
67
62
56
83
77
73
76
69
63
79
76
68
78
75
66
64
61
51
66
62
55
64
58
52
59
53
48
57
52
47
81
76
69
66
62
53
115
106
88
74
70
63
17
14
15
19
17
17
27
28
25
38
38
35
51
49
45
98
92
81
101
96
82
102
96
83
112
103
88
106
100
89
89
84
75
93
89
79
102
97
86
91
87
74
93
86
73
93
88
75
93
91
84
76
73
68
135
131
119
117
112
100
116
113
101
111
107
97
77
73
67
52
48
42
58
54
46
55
50
44
50
45
40
49
48
43
43
41
37
138
131
116
96
95
88
65
64
60
72
71
68
75
74
68
95
94
84
97
97
85
85
85
71
84
82
72
75
72
65
106
102
90
102
97
85
97
91
80
93
89
76
104
100
86
109
104
93
105
100
89
105
100
88
111
106
94
109
104
92
105
100
88
97
95
82
108
106
93
114
109
97
109
104
92
110
107
96
101
97
89
97
93
84
97
94
85
101
98
89
108
104
97
92
91
81
90
90
80
91
90
82
98
97
90
102
101
93
95
94
86
93
92
84
94
92
86
87
86
81
68
66
62
64
62
59
33
31
27
60
59
55
62
60
57
75
73
69
49
48
44
38
37
36
129
130
123
106
108
102
53
58
55
54
55
53
60
60
60
70
70
68
75
75
72
75
76
71
76
77
71
78
79
75
75
76
72
89
85
85
86
83
78
88
86
83
82
80
77
89
88
82
82
82
80
73
72
70
78
78
75
74
75
74
72
73
72
73
73
74
66
66
68
76
78
81
76
74
77
135
130
122
117
115
111
140
137
130
124
125
117
99
103
103
95
102
103
50
55
59
90
95
96
96
99
103
43
50
59
103
112
114
87
97
107
34
43
52
96
101
110
70
68
77
54
56
59
91
96
101
39
46
55
61
60
53
126
116
104
77
69
66
101
92
89
96
80
78
68
53
51
78
72
65
155
133
118
109
86
71
97
82
67
103
84
70
104
79
67
91
51
35
149
92
55
231
178
132
108
72
52
98
73
56
103
77
60
112
84
68
124
92
72
220
183
141
134
79
50
109
69
52
121
90
77
101
75
63
103
81
67
95
76
65
58
46
43
39
34
36
52
43
47
62
50
53
65
51
53
79
59
63
78
64
68
116
90
78
79
75
69
85
82
73
80
77
70
78
70
68
62
57
57
35
35
35
38
38
38
43
42
36
43
42
36
63
62
57
67
66
58
64
64
55
59
58
52
52
51
45
47
46
42
51
47
42
52
49
44
46
45
41
52
50
44
60
58
50
68
64
55
70
64
55
55
50
47
46
46
41
107
103
92
60
56
45
36
35
29
90
85
75
114
107
94
111
104
92
106
99
87
107
100
90
67
63
56
51
44
40
86
80
72
87
76
64
55
49
44
107
104
95
117
112
102
125
117
105
34
30
27
24
21
19
37
32
26
35
29
25
50
43
39
70
63
57
106
98
86
136
128
111
131
122
105
45
39
35
47
43
39
114
103
90
88
83
72
75
71
65
84
82
73
92
89
80
70
69
60
54
54
50
111
105
93
103
97
85
31
30
23
110
108
101
79
78
74
21
20
16
54
53
43
91
84
73
102
95
80
120
114
96
114
108
90
117
108
95
36
33
29
72
71
66
74
73
68
21
19
19
51
49
45
79
72
67
93
91
82
109
104
93
101
97
83
93
90
77
128
119
111
64
55
50
79
74
68
74
69
63
74
69
64
73
69
63
67
62
57
71
65
55
89
82
73
91
84
75
91
85
76
91
86
76
78
72
63
79
74
64
70
65
58
54
48
41
90
84
80
67
62
54
57
52
44
114
108
89
73
68
60
16
16
16
17
17
17
23
23
21
32
32
30
57
53
49
90
87
78
102
97
86
90
85
73
96
91
79
111
106
94
89
84
76
80
79
70
84
81
77
74
71
63
71
68
61
65
65
57
83
79
74
123
121
108
78
76
70
75
75
70
103
101
94
89
87
79
79
75
70
46
45
40
34
31
25
56
53
44
68
64
55
68
66
55
50
47
42
69
66
58
57
56
56
53
53
53
71
73
69
86
84
77
95
92
81
98
96
83
90
87
75
85
82
73
95
92
84
103
100
85
86
83
73
102
99
90
95
90
80
103
98
88
106
100
89
105
99
88
104
99
89
102
97
87
104
101
90
101
98
87
105
102
93
101
98
89
108
105
95
102
99
88
98
95
85
101
98
88
99
96
88
99
96
88
100
97
89
108
105
97
97
94
86
95
94
87
81
80
74
97
98
93
101
102
97
85
85
81
95
93
87
86
85
79
88
86
80
74
73
67
71
70
66
63
61
57
60
59
55
48
46
43
49
47
43
41
40
36
79
80
77
100
101
97
66
68
64
65
69
67
68
70
69
58
61
60
66
66
66
75
75
74
75
75
74
72
72
70
77
77
75
86
86
84
91
90
86
87
85
81
85
84
82
84
84
82
79
79
76
79
79
78
82
81
80
76
75
75
74
74
72
92
89
88
82
81
82
85
85
87
98
100
101
88
89
89
142
138
128
102
100
99
96
98
97
88
90
90
87
91
94
93
101
102
50
53
59
88
94
96
96
99
108
45
55
66
106
116
124
85
98
113
34
47
58
88
102
113
69
73
86
59
60
65
99
102
110
49
57
64
57
57
53
128
118
106
82
75
71
103
92
88
95
80
74
69
58
53
81
74
68
154
131
117
110
87
72
97
79
66
106
85
70
105
82
70
90
51
34
161
105
65
243
214
170
122
79
54
101
75
59
103
78
62
116
87
69
128
95
72
229
199
157
134
76
46
114
73
53
126
93
75
109
80
66
121
93
77
103
81
69
60
48
45
39
34
37
61
48
51
76
55
57
92
58
51
98
59
55
92
67
64
120
93
79
82
76
70
80
74
68
80
74
69
73
66
63
66
62
61
57
55
54
62
60
59
44
42
36
53
51
45
51
49
45
58
57
50
69
68
59
65
62
56
60
57
51
45
42
36
48
44
39
55
53
47
47
45
41
56
55
49
60
58
49
68
63
51
91
81
68
61
54
50
49
48
43
103
99
89
62
58
47
39
38
32
88
83
74
112
105
92
111
103
92
107
100
88
107
100
90
63
59
52
48
42
37
87
81
72
99
88
77
54
48
43
113
109
99
112
107
97
122
114
102
35
31
27
24
22
19
33
29
23
34
31
26
44
41
36
61
53
47
93
86
74
119
112
94
127
118
101
43
38
34
44
41
37
111
100
88
83
78
68
70
67
62
85
83
76
80
76
69
66
64
55
53
52
49
107
102
89
99
93
81
27
26
19
111
109
102
79
78
74
19
18
14
52
51
41
81
75
60
97
91
74
120
114
97
116
109
92
116
108
94
33
31
27
63
62
56
73
72
66
22
20
20
54
51
48
79
72
67
90
87
78
107
102
90
103
100
86
96
94
80
127
118
110
65
56
51
77
72
66
74
69
61
69
64
58
58
53
48
55
50
44
71
68
59
74
70
61
89
83
73
96
89
80
92
88
78
77
72
63
77
72
62
73
68
57
63
58
48
99
93
85
74
67
60
61
57
52
103
96
84
79
74
68
15
15
15
16
16
16
19
19
17
25
25
23
46
43
39
61
58
51
70
65
59
73
68
63
73
71
65
54
51
44
92
86
77
61
58
55
55
53
55
53
52
49
52
53
50
75
72
69
127
122
114
86
83
74
78
77
76
93
93
91
90
88
83
53
53
45
91
89
80
117
117
108
36
34
28
69
68
63
103
102
90
104
101
88
115
113
99
101
99
90
64
64
59
63
63
60
63
63
61
76
73
68
96
93
84
93
90
80
95
92
82
85
82
72
92
89
81
93
90
82
90
88
78
120
117
107
91
86
77
94
89
80
94
92
79
104
101
88
104
98
89
101
96
87
101
98
88
105
102
92
101
98
88
101
98
88
102
99
88
101
98
88
99
96
86
99
96
86
96
93
85
94
91
83
100
97
89
109
105
97
100
97
89
93
92
85
90
88
82
92
93
88
100
101
96
91
92
87
93
92
86
81
79
74
86
84
78
69
68
62
66
65
61
67
65
62
84
83
79
52
50
46
56
54
50
66
65
61
77
79
74
63
66
60
60
63
60
65
67
66
74
76
75
71
73
74
65
66
66
59
59
59
74
74
73
72
72
71
81
81
79
80
80
78
84
82
78
84
83
79
82
82
79
83
83
80
79
80
77
83
82
81
83
83
82
86
84
85
84
84
80
75
78
74
81
82
80
88
89
85
99
102
98
80
82
78
137
133
123
98
98
97
117
122
120
104
107
108
82
87
90
97
105
107
49
52
62
91
97
102
96
102
114
49
57
73
104
117
128
81
97
116
33
50
68
85
108
124
72
76
93
58
59
68
84
89
100
44
49
61
53
53
50
122
112
99
85
77
73
104
93
89
93
82
75
68
59
54
82
74
68
150
127
113
111
88
74
105
87
74
108
86
72
102
79
67
87
51
34
159
108
69
244
225
180
131
85
57
103
77
61
102
77
61
118
88
70
130
98
75
233
205
165
133
79
51
115
74
54
127
94
75
112
83
68
120
93
74
99
77
63
61
49
44
41
35
38
62
48
50
81
55
52
103
59
49
125
76
56
121
82
69
127
92
74
84
76
70
77
72
66
71
65
61
73
67
64
67
64
62
49
47
45
59
57
55
54
53
47
51
50
44
59
58
52
65
62
56
63
60
52
66
62
54
68
64
57
59
55
48
73
70
62
82
79
71
50
47
42
47
43
39
65
62
53
87
81
68
97
86
73
64
58
51
46
45
40
117
113
103
63
59
48
40
38
33
88
82
76
105
98
86
108
101
90
110
103
90
109
100
89
65
60
55
47
40
36
84
78
70
95
85
73
52
47
42
108
104
93
108
103
93
126
117
106
37
31
28
25
22
19
35
30
26
38
36
29
40
37
33
59
51
45
91
84
72
135
128
113
122
113
99
39
33
29
46
42
38
111
101
90
80
73
64
63
59
55
85
84
78
67
62
56
61
58
50
54
54
50
105
100
89
95
89
77
26
25
18
111
109
103
74
73
69
18
18
13
51
50
40
84
78
64
88
81
64
121
112
96
113
104
86
112
103
90
33
30
26
63
62
56
70
66
64
24
22
21
56
52
49
80
74
68
87
84
76
107
102
90
106
102
88
100
95
81
128
121
113
64
58
52
103
97
90
96
91
82
78
72
64
87
80
71
77
70
60
72
68
57
91
87
80
103
98
86
97
91
80
95
90
80
86
81
71
82
76
65
75
69
58
65
58
48
94
87
78
77
69
61
56
52
47
133
124
109
81
75
70
17
17
17
19
19
19
22
20
19
26
24
22
31
27
26
41
36
35
58
55
50
38
35
32
76
73
71
43
39
36
45
39
34
71
66
63
82
73
68
80
73
66
106
102
93
99
94
86
69
64
55
75
71
64
51
49
43
44
43
37
61
57
52
36
35
34
77
74
64
86
85
73
58
56
50
98
97
91
117
115
102
108
105
92
119
118
105
111
111
100
70
69
62
63
63
58
76
76
72
59
58
53
85
82
74
104
101
91
83
80
73
100
97
88
96
94
83
93
90
80
97
91
82
99
94
84
94
91
80
91
88
78
95
90
80
95
90
81
100
97
86
104
101
91
102
99
88
100
98
87
105
100
89
107
102
93
105
100
90
105
99
90
98
95
87
97
94
86
95
91
83
95
91
83
95
91
83
105
102
94
96
92
84
94
91
83
94
93
86
89
87
81
95
94
88
83
81
77
80
78
74
81
79
76
87
85
80
75
74
67
79
76
70
94
91
86
55
52
48
60
59
55
85
84
79
96
97
93
63
64
59
64
64
62
62
62
62
60
60
60
58
58
56
70
70
68
78
81
80
68
71
70
63
64
63
69
69
69
71
71
71
72
72
72
74
74
72
75
76
74
75
76
76
73
74
72
77
76
76
80
79
80
78
79
78
87
88
85
89
90
90
104
105
105
114
116
116
111
113
112
99
100
104
71
72
79
125
127
124
113
113
114
123
128
121
113
115
114
83
86
92
97
104
107
52
55
67
93
101
106
96
108
124
52
63
85
106
122
136
77
101
124
34
50
78
86
108
134
77
82
106
64
68
80
94
99
114
43
51
71
54
52
51
123
108
96
86
78
73
106
95
91
95
83
79
70
59
54
82
72
66
151
127
112
110
88
75
102
84
73
102
83
68
100
76
64
90
52
39
155
106
72
245
223
178
131
87
57
103
76
62
104
77
63
117
87
69
133
99
74
234
204
166
127
75
49
114
72
54
119
87
70
109
83
70
109
86
69
94
72
61
63
51
46
43
36
36
70
53
53
89
59
53
126
77
60
167
115
81
136
88
72
134
94
76
81
69
64
78
71
67
75
69
67
73
67
64
69
62
61
48
46
44
57
55
53
58
57
51
58
57
51
64
63
57
68
65
59
68
65
57
67
62
54
72
67
60
73
67
61
69
66
56
80
77
67
59
56
47
73
68
60
84
80
69
84
76
63
84
73
61
62
56
50
46
45
41
119
115
105
61
57
46
40
38
33
91
85
79
110
102
91
110
102
91
112
105
93
108
99
88
68
63
57
46
40
36
84
78
69
94
84
71
52
47
42
110
105
93
107
102
94
121
113
102
36
30
27
26
23
20
35
30
26
38
35
29
42
38
34
68
60
54
89
82
70
126
118
104
123
113
100
37
30
27
45
42
38
100
89
78
84
77
69
57
55
52
83
81
76
75
69
64
56
52
46
56
54
51
107
100
91
94
88
76
28
27
20
109
107
100
73
72
68
17
17
13
47
45
35
77
71
57
97
90
73
128
119
102
121
112
95
118
109
96
35
33
28
61
60
54
70
65
63
25
23
21
57
53
50
75
69
63
87
84
75
101
97
85
100
95
82
92
87
74
123
116
108
60
54
47
78
73
65
85
79
71
68
63
55
68
61
53
63
57
50
99
95
86
106
102
90
106
103
93
109
105
96
95
91
82
71
66
58
67
63
55
62
57
51
56
52
46
62
59
52
69
61
54
53
49
45
128
119
103
74
68
63
16
16
16
14
14
14
17
15
13
34
31
30
33
31
30
34
33
31
40
37
33
41
37
32
48
43
39
56
52
49
56
50
46
48
42
39
44
39
32
60
53
45
67
61
52
72
67
57
70
65
56
68
63
54
66
60
51
64
58
48
72
66
61
48
47
46
43
39
37
58
54
47
65
64
57
72
71
64
80
77
69
75
72
63
69
68
60
77
76
69
80
80
73
61
61
56
71
71
67
77
76
70
50
48
42
82
80
73
89
87
80
99
97
88
94
91
81
91
88
78
97
92
82
93
88
78
92
89
79
92
89
79
95
90
80
98
92
83
94
91
81
100
96
87
102
99
89
100
97
86
105
100
90
101
96
87
105
100
91
100
94
85
97
94
86
97
94
86
96
93
85
96
93
85
90
87
79
99
95
87
95
91
83
100
97
89
91
90
84
98
97
91
100
99
93
88
86
82
83
82
78
79
78
74
78
77
72
93
90
83
112
110
100
60
56
53
66
63
60
97
95
91
107
106
102
61
62
57
63
63
59
61
62
59
62
62
62
66
66
66
62
62
60
59
60
57
65
67
66
75
77
76
71
74
73
69
72
71
67
67
67
69
69
69
68
68
66
69
69
68
72
74
75
70
72
71
72
73
76
79
80
83
72
76
76
72
75
79
75
77
83
76
80
86
79
84
90
72
80
85
69
77
86
79
86
93
111
115
112
124
125
125
124
128
123
95
98
97
88
87
95
118
120
124
84
87
95
88
98
105
94
109
135
64
83
118
103
126
143
79
110
136
32
55
95
94
118
146
82
93
122
66
76
98
95
104
124
48
60
83
62
58
58
130
115
103
97
86
82
105
92
89
93
84
80
75
67
61
78
68
63
150
127
111
112
92
76
115
93
80
115
96
80
103
79
68
90
53
40
159
111
77
246
221
175
132
85
57
102
75
61
104
76
63
113
85
67
125
92
68
228
193
149
119
69
46
106
67
49
126
98
80
103
79
66
102
81
69
98
78
67
67
53
49
42
34
34
73
56
55
91
60
55
91
52
42
121
73
56
125
82
71
133
99
79
81
69
64
75
69
65
72
66
63
70
63
61
72
66
63
38
35
34
45
43
41
53
54
47
53
54
47
61
60
54
60
58
52
65
64
55
72
69
61
68
65
57
72
66
60
71
68
58
74
68
60
73
67
61
90
85
74
80
75
63
77
72
59
75
65
56
60
53
48
43
42
38
109
105
95
60
56
46
38
37
31
93
86
78
109
102
89
107
100
87
105
97
88
105
97
87
63
57
51
47
41
35
83
76
66
90
79
67
50
44
39
108
101
91
107
104
96
125
117
106
36
31
27
26
22
20
41
37
30
42
36
34
42
38
36
77
72
63
88
84
69
128
120
106
125
115
102
38
31
28
50
46
42
117
109
92
102
96
83
81
81
71
93
91
77
94
89
80
63
59
53
73
72
65
103
96
86
92
87
75
28
27
20
107
105
99
75
74
70
18
16
13
63
57
48
90
83
70
106
99
82
129
120
103
120
111
94
115
106
91
33
31
28
68
64
59
68
65
60
25
23
21
59
56
51
77
69
64
88
84
76
107
102
90
108
103
89
92
89
75
121
115
106
63
57
50
87
82
72
89
84
75
68
67
55
76
73
62
64
58
48
66
61
51
72
66
56
64
59
51
66
61
53
68
63
55
75
70
58
73
69
62
61
57
50
54
52
44
62
59
53
73
65
57
55
51
45
127
122
99
64
63
54
15
15
15
15
15
15
17
15
15
32
30
28
34
32
31
44
42
40
60
54
47
66
60
49
71
63
53
71
63
54
69
63
53
64
58
49
55
50
41
65
61
52
55
52
44
70
67
59
73
70
61
70
65
57
81
76
65
75
69
59
68
63
59
59
58
52
47
45
39
55
53
47
59
57
51
67
65
58
66
63
55
70
66
59
71
70
61
67
65
57
70
68
61
77
74
69
52
51
46
70
69
65
81
81
74
53
53
49
85
85
79
92
92
81
95
92
82
92
89
79
89
86
76
91
88
78
87
84
74
93
90
79
92
87
79
93
88
80
91
88
77
92
89
79
106
100
91
102
97
88
103
100
90
99
96
85
106
101
89
105
100
88
98
95
85
98
95
85
95
92
84
96
93
85
92
89
81
97
94
86
92
89
81
95
92
84
90
88
82
101
100
94
81
80
74
89
88
82
78
77
71
76
73
68
100
96
91
95
92
88
71
68
63
73
71
63
92
91
86
102
101
97
62
60
56
64
62
61
63
63
60
64
64
62
60
61
60
62
63
63
61
64
61
59
62
59
58
61
58
73
76
73
68
71
70
74
77
76
70
72
71
63
66
65
57
59
61
54
56
58
57
61
63
58
62
62
59
62
66
64
67
71
56
62
64
61
68
71
66
71
77
66
71
77
65
70
78
57
65
73
50
60
74
66
74
81
130
131
126
100
98
97
116
117
115
100
100
95
97
97
98
130
133
134
90
93
107
88
98
109
96
115
148
77
101
135
106
129
146
90
125
153
49
100
145
93
129
165
92
111
144
112
135
155
100
122
145
52
68
95
75
73
74
138
126
110
95
86
81
105
97
95
93
83
83
76
67
66
70
62
58
148
125
110
111
90
77
113
93
79
114
95
80
105
81
70
91
53
40
159
116
83
247
219
174
127
81
56
99
72
60
100
73
62
108
80
65
113
80
62
218
182
140
113
65
41
99
63
46
117
91
73
100
78
66
106
88
74
98
80
67
68
55
50
42
33
34
68
53
51
82
55
50
83
47
45
107
62
56
111
73
61
132
100
82
81
72
64
73
67
62
74
68
63
70
65
60
70
66
61
33
28
29
42
38
39
52
53
46
55
56
49
57
56
49
71
70
64
68
67
59
71
67
59
74
71
63
60
55
49
72
69
59
73
67
59
71
65
59
101
94
84
96
90
77
81
75
63
84
74
65
50
43
37
42
41
37
98
95
86
58
54
45
37
35
30
87
81
73
109
102
89
111
104
92
106
99
89
106
97
88
62
57
50
48
42
36
83
76
66
88
77
65
46
40
35
113
106
97
112
109
102
130
122
111
38
33
30
25
22
19
48
41
36
45
39
37
43
40
37
76
71
62
88
84
69
136
128
114
123
113
100
33
27
24
46
43
38
94
87
69
82
78
65
103
101
84
110
104
83
117
112
95
77
74
63
78
77
67
95
89
76
87
81
69
28
27
21
101
99
92
72
71
68
18
15
12
57
50
42
91
84
71
100
94
77
126
117
101
115
107
89
118
109
94
32
29
27
59
55
50
65
62
58
25
23
21
58
56
50
78
71
63
86
82
74
107
102
91
99
94
81
92
87
74
120
113
103
66
59
52
96
91
82
127
117
110
104
99
95
56
53
45
67
64
56
55
53
44
51
46
38
56
52
45
59
54
48
56
51
45
85
79
68
92
85
74
87
80
69
76
68
55
71
63
57
69
61
53
52
48
42
117
112
92
61
60
55
19
19
19
22
22
22
31
29
29
58
57
54
74
73
70
87
86
83
103
100
96
110
107
101
119
116
109
124
122
115
130
128
122
139
137
130
129
128
120
126
124
115
109
107
100
113
110
103
127
124
117
118
114
107
113
109
100
115
111
102
111
109
98
106
101
92
108
100
92
128
121
113
130
127
118
144
141
132
151
148
136
148
145
132
151
147
134
134
130
118
137
134
124
125
123
116
93
92
87
38
39
35
66
67
63
79
80
74
52
53
46
90
91
81
101
98
90
100
97
88
89
86
75
90
87
77
92
89
79
93
90
80
93
87
80
94
89
81
94
91
81
97
94
84
104
99
89
102
97
87
101
98
88
95
92
83
99
94
82
106
101
89
102
99
89
99
96
86
93
90
82
91
87
79
92
89
81
95
92
84
92
88
80
96
93
85
88
87
81
85
84
78
88
86
80
87
86
79
88
87
80
106
102
98
101
99
94
74
71
67
74
70
64
89
87
79
95
94
89
61
59
55
63
61
59
67
65
62
69
69
65
68
69
66
68
69
68
64
65
63
62
64
62
61
63
61
59
61
59
74
77
74
74
77
75
65
68
67
65
68
67
53
55
55
53
54
57
52
53
55
51
54
56
48
52
55
51
54
58
49
53
57
48
54
57
57
64
66
64
72
74
56
64
68
63
69
74
55
63
68
45
53
67
66
72
78
134
134
130
107
107
106
62
66
70
81
84
82
108
112
109
109
116
119
59
70
83
77
95
104
81
112
141
74
104
135
86
111
136
87
123
159
106
154
177
96
142
174
88
111
147
91
113
140
84
106
135
49
65
96
80
78
77
134
122
107
91
82
77
108
100
98
100
90
90
74
65
64
66
58
54
148
126
110
105
88
74
110
94
80
115
96
80
104
79
68
92
54
40
159
117
85
246
216
170
120
77
53
93
69
57
97
74
62
103
77
61
108
78
59
217
183
142
108
62
37
96
61
46
114
90
75
98
76
65
106
88
74
102
83
70
66
53
48
37
30
31
63
51
49
76
52
51
78
45
46
100
62
58
102
71
60
125
100
80
78
68
61
73
66
60
71
65
60
72
63
59
70
61
58
48
44
42
54
50
48
61
60
54
67
66
60
74
73
67
61
59
53
73
70
62
66
63
55
66
63
55
80
77
70
87
82
73
92
88
78
76
73
63
111
103
91
103
96
85
82
74
64
83
72
63
61
54
46
41
39
36
84
82
73
51
48
39
36
32
27
80
76
69
113
105
93
105
99
90
102
97
87
105
98
88
59
54
47
51
46
39
79
71
62
86
75
63
50
44
38
111
106
98
113
109
101
127
120
108
37
33
28
28
25
20
47
40
37
44
39
36
41
39
35
80
73
63
95
88
74
134
126
112
122
112
99
28
24
20
44
43
39
86
79
71
66
61
56
70
70
59
72
68
58
63
60
53
45
41
40
51
50
42
92
86
73
88
82
72
28
26
21
98
96
89
68
67
63
19
17
16
53
49
41
88
81
68
102
96
78
126
120
100
116
105
86
115
106
89
32
30
25
62
61
55
64
62
60
23
21
20
57
53
47
77
71
62
84
81
74
114
109
99
97
92
79
94
88
76
117
110
101
69
63
55
64
59
55
103
98
95
37
33
31
68
63
59
59
55
47
55
51
40
52
47
37
54
54
44
50
49
41
65
59
53
96
89
83
89
82
74
65
62
52
60
54
48
72
65
60
71
60
53
54
46
42
88
83
76
63
61
56
21
21
21
20
19
19
30
27
28
60
58
55
79
79
67
65
65
56
78
75
69
71
69
63
77
76
68
78
78
69
88
82
77
75
72
64
70
69
60
105
101
91
80
77
70
74
70
64
83
80
73
93
89
84
87
82
74
101
97
89
90
85
76
90
84
77
89
83
74
103
97
82
102
94
77
94
89
74
103
97
82
97
91
77
90
86
80
101
100
94
105
104
97
113
113
109
90
91
87
86
86
84
38
38
36
60
61
56
78
79
73
68
67
60
90
89
82
90
86
79
90
87
78
91
88
78
86
83
75
90
87
79
92
88
80
95
92
84
86
83
73
103
100
91
103
98
89
110
104
95
103
98
88
101
95
86
98
93
84
101
96
86
101
96
84
104
99
87
93
88
81
89
84
76
92
87
77
89
84
74
92
87
79
98
93
86
93
90
82
93
90
83
94
90
84
92
89
81
115
111
106
105
103
100
83
82
77
65
63
57
99
96
89
113
111
104
60
58
52
63
62
55
71
70
63
107
106
99
124
123
116
107
106
102
125
125
119
85
85
80
96
97
94
105
106
102
71
70
70
83
82
82
72
74
71
78
80
78
83
82
81
64
65
64
66
67
67
71
71
74
69
69
72
76
79
80
76
77
78
80
80
82
88
89
92
89
91
94
87
91
92
96
100
99
92
94
97
78
82
85
102
103
106
123
125
124
125
123
123
84
82
83
14
11
15
70
68
72
86
94
92
85
93
99
52
56
75
77
91
104
82
111
139
49
78
117
79
100
124
91
119
157
97
137
165
88
128
162
76
100
135
63
80
115
66
83
116
42
56
84
84
81
81
135
123
113
92
84
80
107
99
98
95
89
90
67
62
61
64
55
53
148
126
110
100
84
71
106
91
75
113
94
78
101
76
64
91
53
40
159
118
87
244
212
165
120
75
54
91
67
58
94
70
61
101
75
61
107
77
60
216
183
143
109
63
40
96
62
46
116
92
77
100
76
64
105
87
75
101
82
71
67
55
47
34
27
27
55
43
46
69
47
48
70
45
42
92
63
56
91
66
57
117
95
82
77
66
59
74
65
59
73
64
58
70
61
58
70
62
59
58
52
51
68
63
59
70
69
63
67
66
59
73
72
65
63
61
55
76
73
65
76
72
65
63
59
52
76
73
64
86
81
72
84
78
68
73
70
60
96
89
77
77
67
58
86
78
68
83
74
62
73
67
57
47
45
42
62
60
53
51
48
41
39
35
30
83
79
73
111
104
92
107
101
92
101
96
87
101
93
84
56
51
44
59
54
47
80
72
62
89
78
66
50
44
38
111
107
99
116
111
104
130
124
112
37
33
28
27
24
19
46
40
36
44
40
37
41
39
35
82
75
65
93
86
73
120
112
98
107
98
84
25
22
18
31
30
26
68
62
55
46
42
37
37
36
32
49
44
41
54
50
45
50
46
45
51
49
43
86
80
67
85
79
69
28
26
22
97
94
87
67
66
62
19
17
14
54
50
42
83
76
62
95
89
73
126
120
100
115
105
86
109
101
84
30
28
23
57
56
50
64
62
60
24
22
21
62
59
53
79
74
63
78
76
68
97
92
82
103
98
86
92
86
75
109
104
94
69
65
53
95
91
81
70
67
62
76
72
67
93
89
80
51
48
43
40
39
34
77
75
69
62
63
54
83
83
75
78
72
66
96
90
83
77
71
63
75
72
63
65
59
54
60
54
49
60
52
44
40
36
30
95
90
80
54
52
49
17
17
17
20
20
20
34
32
32
50
49
46
63
62
55
66
64
59
84
80
77
75
71
67
78
76
71
84
83
75
90
90
81
62
57
53
74
69
63
93
91
86
83
81
73
71
68
61
75
72
65
90
86
81
84
80
75
90
86
81
78
73
64
89
84
75
88
83
73
102
96
82
98
88
73
99
93
76
99
92
77
91
86
71
66
62
56
104
103
97
101
100
94
105
105
100
111
111
107
84
85
81
85
85
83
44
44
41
70
71
66
74
72
68
67
64
61
82
79
75
97
95
88
86
84
75
87
84
76
90
86
78
89
86
78
94
90
82
86
83
73
100
97
87
99
94
82
114
109
97
109
104
94
107
102
92
101
96
86
103
98
88
101
96
84
100
95
84
93
89
81
90
85
77
90
85
75
85
80
70
93
88
81
89
84
76
90
86
79
85
82
73
87
84
76
112
110
106
92
89
84
91
89
86
49
47
43
96
95
90
119
116
109
63
60
51
68
65
56
87
85
77
92
88
81
109
106
99
87
83
79
106
103
93
94
92
81
58
57
56
77
79
75
71
73
68
95
95
93
85
83
82
64
66
62
73
75
72
96
95
94
78
76
76
91
88
86
78
78
76
72
73
70
68
71
69
74
77
76
74
77
75
74
76
75
85
89
88
84
90
89
86
92
94
87
87
90
88
92
98
81
87
94
94
100
104
127
127
126
108
107
108
25
25
25
85
83
87
92
98
96
86
92
100
47
49
70
74
86
99
80
101
126
44
59
91
77
94
112
81
107
137
49
78
117
78
103
135
69
88
118
67
79
100
68
83
109
43
53
81
78
75
75
129
118
108
86
81
76
104
99
97
98
92
91
66
62
62
61
53
51
144
122
107
99
83
70
101
87
71
108
89
74
98
73
61
89
54
41
152
114
87
244
209
161
125
78
55
90
67
55
94
71
60
100
74
61
105
76
59
216
182
142
112
66
43
97
63
47
115
91
76
101
77
65
106
87
75
102
83
72
66
54
46
33
27
27
52
43
44
66
48
48
63
43
39
79
57
48
81
59
49
108
86
73
76
65
58
74
64
58
71
61
55
68
60
55
66
58
53
41
34
33
61
54
51
74
74
65
69
68
60
74
74
65
68
67
58
75
72
64
72
69
61
72
68
61
75
70
61
95
88
80
85
79
69
69
65
56
88
82
69
79
70
59
88
80
69
75
69
56
76
72
61
64
56
46
157
142
122
119
104
89
55
50
40
89
82
76
113
105
95
108
103
93
101
95
86
105
97
86
58
52
47
66
59
50
89
81
69
92
82
70
51
44
39
117
111
103
111
107
103
131
124
113
38
34
29
26
23
19
45
39
35
43
40
35
41
37
32
78
71
60
89
82
69
124
116
104
116
106
92
30
25
23
37
33
31
98
90
79
64
59
52
77
75
70
78
72
68
77
69
66
65
59
58
59
56
52
98
92
81
87
81
71
26
25
19
89
88
77
69
68
64
19
17
15
53
49
41
84
77
62
94
88
72
123
115
94
123
114
96
112
102
90
34
32
29
58
58
53
63
60
57
24
22
20
50
46
42
69
64
59
60
57
51
96
92
82
89
84
74
92
87
76
106
101
90
67
62
51
105
101
89
140
136
121
121
117
102
115
111
99
48
46
40
29
30
27
120
119
105
106
104
91
82
79
69
80
74
67
99
94
82
107
102
90
104
100
89
85
80
72
63
58
54
65
58
54
54
48
43
90
88
79
59
55
52
20
19
19
35
35
33
66
64
63
77
76
70
88
86
78
112
110
102
120
117
109
125
122
113
124
122
113
132
128
119
138
136
125
134
132
120
127
125
116
127
124
116
117
114
109
131
128
122
150
147
139
145
142
133
142
139
131
136
134
125
136
133
125
129
127
117
126
122
112
94
90
80
108
101
90
117
110
99
107
102
90
90
86
76
74
72
62
88
87
78
110
109
103
102
101
94
105
105
98
113
113
109
83
84
81
101
99
98
46
44
42
65
63
60
72
72
68
69
69
64
81
81
74
92
92
83
88
85
75
90
87
77
88
85
77
94
91
83
98
95
84
98
95
85
98
92
84
110
105
97
99
96
84
102
100
87
100
95
85
102
97
88
95
92
81
98
95
84
94
90
77
92
87
78
88
82
72
86
80
70
88
82
77
92
86
79
86
82
75
84
82
73
123
122
117
94
93
89
84
82
76
87
84
78
78
76
71
119
118
113
68
65
58
77
74
67
90
87
79
95
92
83
119
116
108
103
100
92
104
101
94
109
107
95
89
85
80
90
90
89
87
90
86
88
91
86
95
97
94
78
80
78
89
89
87
105
105
104
98
98
96
104
104
101
101
102
99
89
92
96
94
97
97
94
100
99
105
109
111
110
113
118
116
119
123
120
123
128
107
117
119
95
104
111
74
80
86
89
97
102
99
103
107
101
104
107
120
124
120
131
133
130
107
110
109
107
110
108
101
104
103
85
87
92
45
46
62
74
81
95
70
81
107
36
48
74
80
95
105
61
80
107
41
58
80
76
90
112
68
74
98
63
69
82
67
78
98
42
49
71
68
67
65
127
118
107
84
76
73
101
96
96
95
92
90
61
59
59
59
52
49
141
122
107
100
83
71
97
82
70
100
83
73
93
69
60
91
55
40
149
108
83
245
209
162
130
81
57
90
66
56
96
71
61
98
72
59
107
77
59
210
166
129
116
69
47
96
64
49
115
93
79
99
78
66
104
87
73
96
80
68
61
51
43
32
26
25
50
39
40
62
47
46
61
44
41
76
54
49
73
56
49
102
83
72
78
65
59
76
66
58
72
59
52
69
58
52
67
57
51
40
35
36
50
46
46
68
66
58
74
72
64
65
64
56
66
65
57
85
82
74
78
75
67
87
85
77
80
78
68
68
66
57
83
80
70
67
62
53
91
84
72
90
83
72
78
70
59
82
75
63
62
58
49
58
52
43
115
103
88
85
67
51
49
45
34
84
81
74
114
110
99
109
104
94
102
96
87
101
95
83
53
47
41
63
56
47
74
64
53
104
90
79
49
41
37
119
113
100
99
96
89
99
92
82
43
37
33
28
25
20
42
36
32
39
36
31
39
35
30
79
71
61
92
85
72
121
113
99
130
120
103
38
33
29
36
32
30
91
82
72
64
59
52
77
76
71
82
76
72
91
83
79
72
67
66
61
58
54
97
91
80
91
85
75
22
21
16
92
90
79
64
63
59
21
19
17
51
47
40
77
70
56
88
81
65
121
112
97
79
71
59
94
85
72
40
39
33
64
64
59
65
62
59
23
21
19
60
57
51
89
87
74
72
68
63
90
84
73
107
103
87
85
81
69
102
97
86
68
62
51
96
92
80
109
106
90
105
102
87
103
97
84
40
39
32
31
30
28
60
55
51
70
68
60
70
68
58
72
67
59
109
104
92
96
91
80
96
88
79
86
81
72
76
71
66
68
62
55
59
55
45
101
98
89
62
56
54
19
19
18
29
29
26
57
56
51
66
65
56
67
65
57
73
71
63
88
85
73
102
97
84
110
105
91
106
102
88
109
104
90
110
107
94
81
78
67
105
102
94
96
90
86
77
73
69
97
93
82
68
67
55
75
72
62
78
75
65
72
69
59
77
74
64
65
60
52
117
112
99
104
97
86
87
80
69
87
82
72
93
88
80
86
82
72
79
78
70
83
82
75
108
107
101
104
103
97
110
110
103
109
110
105
94
92
90
94
92
91
52
50
49
72
70
69
74
75
71
64
65
59
75
76
69
101
98
90
88
85
75
87
84
75
95
92
83
93
90
80
96
92
83
99
93
86
106
100
93
99
97
85
105
102
90
103
98
89
101
95
86
102
99
91
97
94
84
95
91
78
91
85
76
86
81
71
89
84
75
94
88
83
85
80
72
91
88
80
82
80
75
78
78
74
84
82
79
68
67
60
89
86
80
101
98
93
77
73
69
78
74
68
77
74
67
110
107
99
119
116
109
126
121
116
89
84
77
103
98
91
93
89
79
98
95
91
71
72
70
58
61
58
66
69
66
64
64
64
82
83
83
61
63
65
64
66
68
79
81
83
64
64
66
76
79
81
62
69
77
66
71
82
61
68
78
67
73
82
66
72
82
69
74
85
69
75
84
62
71
82
65
74
85
66
72
77
56
64
68
50
53
69
50
52
60
116
118
113
122
124
118
111
112
106
98
99
94
102
103
101
84
86
92
42
44
56
67
74
83
71
78
96
35
43
64
94
103
105
76
89
100
47
55
64
101
102
103
77
71
76
71
73
74
83
85
92
43
48
63
64
65
62
124
118
107
81
73
71
97
92
91
90
87
85
59
57
57
57
50
46
140
121
106
98
80
69
90
76
64
98
81
70
92
69
59
92
55
42
153
114
85
245
217
172
131
82
58
88
65
55
91
69
58
97
71
59
110
81
62
225
193
160
122
74
49
97
65
50
119
98
83
96
76
64
102
85
71
96
80
69
61
52
43
31
23
24
51
36
37
58
44
43
58
41
38
74
53
48
72
55
48
97
77
67
73
60
54
71
58
51
69
53
47
64
50
44
64
51
45
42
36
34
44
39
37
55
51
48
50
46
43
70
67
63
62
59
53
67
63
57
69
65
58
69
66
58
66
63
56
71
67
60
61
57
49
73
68
61
107
102
92
90
83
72
81
73
63
78
71
58
52
47
38
61
57
48
113
109
97
86
83
75
52
48
41
66
63
57
106
103
92
110
106
97
107
102
93
101
95
83
51
47
41
55
48
39
72
62
51
110
95
83
42
34
30
131
123
109
97
93
84
99
92
86
52
46
42
26
25
19
38
35
30
42
37
33
35
33
29
67
61
53
78
69
59
117
109
95
122
112
96
43
37
33
35
32
28
83
74
66
68
62
58
66
63
57
78
74
66
95
89
82
72
69
66
63
60
53
99
91
79
91
85
75
23
22
16
97
94
86
63
62
60
21
19
17
55
51
44
78
71
57
82
75
60
114
107
94
60
52
43
102
92
78
46
44
37
62
61
53
63
61
58
21
19
17
43
41
36
67
64
58
77
76
71
76
73
69
90
87
82
96
97
90
104
98
87
69
61
52
99
93
80
106
101
87
97
91
77
109
102
89
44
42
35
72
68
63
85
81
71
74
72
62
82
80
70
89
86
75
101
94
85
101
93
85
100
92
83
80
76
67
75
74
67
70
62
58
52
50
41
109
107
93
66
61
55
23
21
21
29
27
26
55
51
44
63
61
51
63
59
52
77
73
67
101
97
86
102
97
84
107
100
85
105
99
83
110
105
94
114
109
96
92
88
79
116
109
99
100
94
85
89
86
81
98
94
85
78
77
67
90
87
78
86
83
75
80
75
64
94
89
78
70
64
59
94
90
78
103
98
86
91
86
77
69
61
53
73
66
60
77
70
63
77
75
66
88
87
79
87
87
78
102
103
94
106
106
100
102
100
94
100
98
93
91
87
84
108
106
103
55
53
50
52
52
48
80
81
76
76
75
71
97
94
88
103
98
89
105
99
90
103
98
89
103
98
90
103
97
89
114
107
98
126
121
110
116
112
99
127
124
111
138
134
124
108
104
95
129
126
118
105
101
90
98
93
82
89
83
73
112
105
99
76
70
64
81
76
73
79
76
68
69
67
60
34
31
30
54
52
51
61
59
56
95
96
89
109
108
102
72
71
65
70
66
62
75
72
67
155
151
145
93
90
80
106
103
95
78
74
70
79
76
70
97
92
85
88
84
76
70
69
69
52
55
51
55
55
56
65
64
69
67
67
68
73
74
71
67
70
69
63
67
67
81
86
86
66
72
72
71
80
79
65
74
74
74
82
85
67
75
78
73
80
84
72
81
83
67
77
80
70
81
85
61
70
78
50
59
67
71
78
83
56
65
71
68
74
80
56
61
68
129
131
127
93
93
87
103
106
99
94
95
93
95
95
95
82
85
89
39
42
57
77
80
83
90
90
95
37
41
53
91
97
98
76
87
97
39
46
56
95
92
94
77
71
75
83
83
82
96
96
98
42
46
56
60
62
60
121
115
108
76
74
69
93
92
90
88
85
83
57
55
55
55
48
46
137
118
104
96
80
68
90
78
69
94
78
68
88
66
57
89
56
42
155
118
88
245
220
179
132
83
60
86
64
56
89
67
58
97
70
58
112
82
64
234
214
182
127
79
56
96
65
51
117
94
83
97
76
66
103
86
73
96
78
66
63
50
44
32
25
26
51
37
41
57
42
42
58
39
36
71
50
46
69
52
47
100
81
70
72
59
51
74
58
51
68
52
45
70
54
48
66
50
45
45
37
36
33
30
28
115
117
107
114
114
105
122
120
111
108
105
97
109
106
98
108
105
96
104
100
88
120
116
105
118
115
104
112
108
97
60
55
48
75
70
59
86
80
69
99
91
81
81
73
60
48
43
33
55
50
42
136
133
122
108
101
94
47
39
34
68
65
60
106
102
92
77
70
61
102
94
85
107
101
89
57
53
47
59
53
45
86
74
64
120
104
92
38
30
28
129
120
107
124
120
110
125
117
108
47
42
37
26
25
20
43
39
35
46
41
38
33
31
27
66
60
51
88
79
68
124
116
102
124
114
98
48
41
38
35
32
28
87
78
71
67
62
57
74
69
64
74
71
62
96
90
84
75
72
69
64
60
53
101
93
80
91
85
75
22
21
15
92
90
81
63
62
60
20
18
16
56
52
45
89
82
67
85
78
63
118
112
96
122
116
103
130
122
107
47
42
36
58
57
50
61
59
56
19
17
16
41
40
35
73
72
65
70
69
62
99
97
84
101
99
88
83
85
74
106
99
91
71
62
55
93
88
75
91
87
75
92
88
76
80
74
63
88
84
73
73
67
60
74
67
58
80
73
64
69
63
54
63
57
48
92
85
77
101
94
85
99
91
83
86
80
72
61
58
51
70
62
58
77
75
66
109
107
93
66
61
55
24
21
22
28
25
25
52
49
42
66
64
55
74
70
64
87
83
77
100
94
83
102
96
85
104
97
87
108
100
90
106
101
88
106
101
91
91
86
79
102
95
85
102
94
86
89
86
81
86
80
75
65
64
58
78
75
67
84
81
73
102
98
85
109
104
93
80
74
68
99
94
84
98
94
82
92
85
74
94
87
75
72
64
54
82
74
67
90
86
79
108
105
97
118
116
109
134
132
125
116
113
105
104
102
96
102
101
94
98
95
88
91
90
83
102
101
96
62
63
58
44
44
41
76
74
71
70
67
64
129
124
117
150
145
136
146
141
131
147
143
131
143
139
125
176
171
154
162
157
140
145
140
128
145
139
128
155
150
141
125
121
112
132
127
117
122
118
110
117
114
109
90
89
83
99
97
90
91
89
82
93
90
85
84
80
76
84
81
78
65
64
63
82
82
76
90
89
85
77
78
73
100
99
94
76
75
69
72
69
63
115
111
106
130
127
124
85
83
76
80
78
70
81
79
72
77
75
72
83
78
72
70
67
60
54
56
55
64
67
63
55
55
55
71
71
68
103
103
96
81
82
78
69
71
70
76
79
77
91
95
96
76
82
83
68
72
73
72
76
77
73
76
80
63
68
71
67
69
72
70
72
77
75
79
83
74
78
83
72
78
83
79
84
88
64
71
76
55
65
69
52
60
67
57
62
72
121
121
117
113
113
107
93
94
89
79
81
81
68
68
69
65
68
72
36
39
51
75
78
78
90
89
90
35
40
48
86
90
90
76
86
95
37
43
53
106
104
105
66
61
65
78
78
77
84
84
87
41
45
55
60
62
60
122
117
110
78
77
72
93
92
90
88
85
83
56
54
54
59
53
50
142
124
111
97
81
69
94
82
74
96
81
71
86
65
56
86
56
42
154
116
86
246
222
178
136
86
60
86
64
55
86
65
56
97
69
58
112
82
64
233
214
179
128
80
54
97
66
52
117
94
83
95
74
64
102
84
72
95
76
65
63
50
45
29
24
24
47
35
39
53
39
39
60
39
37
68
46
43
67
50
46
96
77
66
87
68
56
89
65
56
79
55
47
82
59
52
74
53
46
55
38
36
50
36
33
70
67
59
77
75
66
76
73
63
76
71
62
81
78
67
82
77
66
84
79
66
88
83
70
84
78
65
101
95
83
85
78
68
97
91
75
106
99
87
85
78
68
69
63
54
51
45
38
66
61
54
49
44
35
41
35
28
57
51
42
88
84
73
117
112
98
97
84
72
90
77
62
103
96
84
65
60
55
58
52
44
80
69
55
113
98
85
36
30
27
129
120
108
128
123
110
131
123
109
44
39
35
27
25
22
44
37
33
47
42
40
31
28
24
68
61
52
92
85
71
120
115
96
120
112
96
49
44
40
37
33
30
80
71
62
64
59
52
65
61
58
61
57
51
92
89
84
71
71
68
62
61
53
98
92
79
89
83
73
20
18
13
90
87
78
64
62
59
19
17
15
52
47
40
85
78
64
92
85
70
117
109
92
127
120
101
138
131
114
57
52
43
63
62
57
64
62
59
17
14
15
40
38
32
72
69
62
67
64
58
83
82
76
94
93
84
85
88
76
107
101
93
72
63
57
88
84
76
93
88
78
89
84
74
82
78
69
54
51
41
95
92
80
67
62
53
64
58
52
89
83
73
84
76
66
68
60
54
95
89
78
90
83
76
74
67
62
56
49
43
69
63
60
46
44
42
109
104
93
70
63
56
20
20
20
27
27
27
46
45
42
56
54
49
74
70
64
89
85
76
103
97
84
113
106
93
103
97
86
100
95
83
106
98
87
105
98
87
108
100
89
115
108
96
116
111
99
102
95
90
108
100
91
96
95
83
109
104
94
105
100
90
101
98
89
106
103
93
100
95
86
104
97
86
112
104
93
104
97
87
104
99
88
104
99
90
100
95
85
93
89
79
94
91
81
102
97
87
97
92
83
89
85
78
107
103
96
108
107
100
92
91
84
100
95
89
124
119
113
106
104
97
70
69
67
43
41
46
61
57
59
79
78
74
93
92
88
73
71
68
85
83
75
134
134
120
118
113
105
81
77
73
89
85
78
94
91
81
75
75
72
69
74
74
77
79
78
66
68
67
71
72
70
60
61
58
66
66
64
67
68
66
71
71
67
66
66
64
73
74
71
56
55
52
34
32
33
37
37
33
39
39
35
44
45
40
49
49
44
32
32
27
27
27
22
64
63
61
62
62
57
60
60
54
65
64
60
66
65
62
61
57
54
82
81
79
69
71
69
66
69
66
52
55
52
66
68
65
71
73
71
78
79
78
126
127
126
83
86
85
76
79
79
76
79
80
77
80
81
80
84
85
82
86
87
77
80
81
84
87
90
78
82
85
75
79
84
71
76
81
65
71
73
71
77
79
69
74
77
95
100
102
80
85
89
77
82
86
121
119
115
103
103
97
93
91
85
79
80
80
74
76
78
64
66
68
33
34
43
62
63
63
81
80
83
34
39
47
87
90
90
78
84
90
37
39
47
94
92
92
61
56
60
73
75
75
80
81
86
42
45
51
68
71
69
115
111
105
87
81
80
91
89
89
89
85
88
58
56
56
56
52
50
137
122
108
101
84
74
93
82
75
95
81
73
88
68
59
86
53
42
157
115
86
247
224
176
136
84
57
85
63
54
85
63
55
96
70
60
111
82
65
233
210
171
126
78
53
99
66
52
117
93
83
94
73
64
104
87
74
101
84
71
66
54
48
31
24
25
56
38
38
67
44
42
68
42
41
74
50
46
72
55
49
96
75
66
101
74
59
116
81
65
99
65
49
88
58
49
80
55
48
64
41
35
61
38
32
73
71
58
69
67
55
78
78
68
67
67
57
66
64
54
68
65
56
76
70
64
75
69
63
75
70
64
59
54
48
39
32
30
71
67
58
76
70
60
54
49
39
61
58
50
50
47
40
69
63
57
55
48
41
54
47
38
55
48
39
113
107
90
111
104
88
95
83
68
78
65
55
101
93
82
65
60
54
72
66
59
80
69
56
113
100
86
35
31
27
139
134
121
142
134
112
123
114
99
40
35
30
26
23
21
43
36
32
52
46
44
30
28
24
64
57
48
82
75
61
118
113
93
122
115
98
58
53
49
36
34
30
84
75
68
67
62
57
59
56
53
58
54
48
88
84
79
66
65
63
58
56
49
95
89
76
89
83
73
18
17
11
87
84
75
66
64
62
16
14
13
50
46
39
84
78
64
86
79
65
127
118
101
121
114
96
140
134
117
75
71
63
62
60
56
59
57
54
14
12
12
37
36
30
68
65
58
72
69
63
104
103
93
91
90
78
82
84
74
106
99
93
70
61
55
86
82
75
89
84
73
76
71
59
77
73
64
56
52
44
68
65
58
41
38
38
38
37
36
40
40
35
97
89
78
67
58
51
97
92
81
88
84
77
70
64
59
57
50
44
69
63
60
44
42
41
106
100
90
71
64
57
20
20
20
25
25
25
39
37
35
54
53
48
74
70
63
88
83
73
99
91
78
102
94
81
98
92
80
93
87
75
101
93
83
106
98
88
95
87
77
100
92
82
98
92
81
91
85
80
107
99
93
93
90
80
97
91
83
81
75
65
105
102
92
93
90
79
101
96
86
112
105
94
112
106
95
104
98
88
107
101
92
108
104
95
94
89
80
86
81
72
86
80
71
87
82
73
79
75
65
96
93
85
98
95
88
105
102
95
88
85
80
93
87
81
118
113
110
88
85
79
104
102
97
69
68
68
56
55
56
89
84
82
109
101
90
110
102
90
117
105
88
154
141
115
142
127
104
124
108
91
130
116
103
133
110
96
116
101
92
101
103
101
93
96
91
103
105
101
100
101
95
90
90
84
87
87
82
78
78
72
84
81
76
83
81
77
93
93
88
67
68
63
60
57
54
77
76
68
87
86
84
93
94
90
88
89
85
75
76
72
76
76
74
69
69
68
55
55
53
61
61
59
63
64
60
59
59
56
76
73
70
58
57
56
54
57
54
61
63
62
58
61
58
64
67
64
73
73
73
66
68
67
78
80
79
68
71
70
70
73
74
67
71
72
66
71
71
66
70
70
62
66
67
55
59
60
58
62
61
53
57
57
49
53
55
47
52
53
45
51
51
43
49
49
39
46
47
55
60
63
53
58
68
50
54
64
129
125
122
99
98
93
98
93
89
82
83
83
74
76
77
63
65
67
33
34
42
68
69
69
82
81
82
31
36
40
87
89
89
78
85
90
35
37
44
89
87
86
60
55
59
69
72
71
78
81
82
41
44
47
76
79
77
116
113
107
82
76
76
91
89
90
86
82
85
55
53
54
57
53
51
140
126
112
97
83
73
88
81
74
91
81
72
86
70
60
84
52
40
152
112
81
249
228
181
138
88
59
83
61
53
85
63
55
95
69
59
111
82
65
230
208
166
121
74
50
97
66
52
115
93
82
92
71
63
102
85
72
96
82
68
60
51
44
31
26
26
65
45
44
62
41
37
71
44
40
78
54
45
74
58
52
90
68
59
132
86
63
169
116
88
123
71
47
125
78
55
88
55
49
77
46
39
73
42
35
69
66
56
75
71
62
93
90
80
84
79
69
84
80
70
87
83
73
102
95
87
99
94
82
111
106
95
92
88
81
58
51
50
73
68
59
78
74
62
74
69
57
67
63
53
63
57
49
70
64
53
73
66
50
83
76
60
106
100
86
146
141
119
108
101
87
87
77
63
91
81
68
109
100
87
54
48
44
68
61
53
76
67
53
113
101
85
34
30
25
140
130
115
160
150
128
119
110
97
31
28
23
25
22
19
42
35
31
48
44
41
28
28
23
65
56
46
79
73
61
115
110
94
117
110
96
52
47
44
39
37
34
78
70
63
67
60
56
62
60
57
82
76
71
95
89
80
68
65
63
57
55
49
96
90
78
88
82
72
20
19
14
78
75
67
68
66
64
15
13
13
46
42
36
80
73
59
86
80
64
123
116
100
122
116
99
136
130
113
80
77
70
90
89
84
68
67
62
14
12
11
37
36
31
64
61
56
70
67
62
109
106
98
81
80
73
83
82
74
105
98
92
68
60
53
96
90
83
110
103
92
90
83
72
68
63
56
54
48
42
51
48
45
51
47
47
47
46
42
77
74
64
103
96
85
90
81
74
85
79
69
86
82
75
69
62
58
59
50
46
69
63
60
45
42
41
107
101
89
73
67
59
17
17
17
22
21
19
52
52
48
74
74
65
85
79
70
94
89
75
95
87
75
102
94
80
99
90
78
109
100
88
107
98
84
113
104
90
106
97
84
108
99
90
115
106
98
88
86
80
114
108
99
93
88
79
105
101
90
111
105
94
110
104
92
111
104
92
106
99
88
117
111
99
106
101
89
105
98
87
99
92
84
96
90
83
86
82
75
79
76
68
101
98
91
95
92
84
79
77
67
80
77
70
92
87
84
86
81
76
96
91
90
64
60
60
36
34
34
25
22
22
81
78
76
84
81
78
77
76
75
75
72
69
125
117
108
118
110
99
143
131
112
161
145
122
160
142
118
160
142
120
153
134
114
158
137
117
147
127
112
107
106
102
109
111
107
98
100
95
105
103
98
98
99
92
93
94
88
101
103
97
97
96
93
81
80
78
78
77
76
61
61
60
41
40
36
83
81
68
67
64
60
91
90
87
69
68
65
78
76
75
80
81
78
58
58
58
61
59
59
72
71
68
66
64
62
66
64
62
79
76
74
60
58
57
55
56
53
57
57
55
60
60
58
60
60
58
66
66
66
65
65
65
54
56
55
67
69
69
68
70
73
71
73
72
70
70
69
67
69
67
71
73
72
61
64
64
61
62
61
59
62
63
54
58
59
50
55
55
47
52
52
41
46
47
44
48
51
56
59
64
50
54
60
41
44
50
131
127
123
94
92
87
79
78
75
70
71
72
73
73
73
68
67
72
34
33
40
63
63
65
75
74
79
31
33
39
83
86
86
76
82
88
33
36
42
85
85
86
58
53
59
70
71
73
83
83
84
43
44
47
73
75
73
118
114
108
78
75
73
91
92
93
88
86
87
55
54
56
57
52
50
141
128
112
96
84
75
88
81
76
89
80
74
83
69
63
80
53
39
146
107
76
251
232
192
136
88
60
81
61
53
83
63
56
91
69
59
109
79
65
229
207
166
115
69
49
91
64
52
108
89
79
88
72
64
104
89
77
95
81
70
60
51
47
29
25
24
67
47
45
58
37
33
79
53
43
93
64
57
74
58
53
97
71
60
134
80
55
157
90
56
144
82
51
136
83
52
91
58
49
67
40
33
66
42
35
67
63
56
68
65
57
85
83
72
80
78
66
74
69
58
77
72
61
84
80
67
84
80
71
82
79
68
70
67
60
78
73
66
88
83
73
90
85
76
76
72
61
69
65
52
76
69
57
92
86
70
97
89
70
114
107
88
150
142
122
108
99
86
105
95
83
103
94
79
105
96
81
101
92
79
41
36
32
48
40
34
70
61
47
107
97
78
55
52
45
111
104
92
106
99
89
102
98
90
25
24
21
24
22
19
40
34
29
49
45
41
26
26
20
67
58
48
77
71
59
113
107
91
113
106
91
48
44
40
32
32
28
63
57
50
78
71
68
70
69
64
80
75
68
91
86
76
86
80
76
71
68
62
105
99
87
97
91
81
22
21
16
78
75
67
63
62
59
16
13
14
42
38
32
80
73
59
84
77
62
115
109
92
112
106
91
118
113
98
54
52
45
15
13
12
17
15
14
12
10
9
35
33
29
52
48
45
62
59
54
91
88
78
91
89
80
96
93
85
107
99
94
69
60
54
103
97
88
102
95
84
92
85
74
65
61
52
52
47
40
64
61
55
74
71
64
103
99
90
97
91
80
98
92
80
103
95
88
91
85
74
85
81
74
71
64
58
61
53
45
69
63
60
49
46
45
100
95
83
70
66
57
20
20
19
22
21
19
46
44
42
64
63
57
84
78
70
87
82
70
96
91
80
101
97
82
95
89
77
108
102
90
114
107
94
109
103
90
109
103
90
104
98
88
112
107
96
103
97
91
140
136
127
143
139
130
136
132
122
124
120
109
135
128
116
127
121
109
127
121
110
114
109
98
111
107
97
116
112
103
118
114
107
139
137
129
112
109
99
93
90
80
98
96
82
91
88
73
100
96
81
106
102
87
104
98
85
78
72
66
83
79
73
103
99
94
84
82
75
111
108
102
74
71
66
89
85
83
84
80
78
77
73
72
88
84
86
90
85
86
108
104
98
118
111
101
119
112
106
120
113
107
124
117
113
117
109
105
113
103
98
98
96
90
97
97
93
96
96
93
98
95
91
103
103
97
95
92
89
93
88
85
96
92
87
93
89
85
94
91
90
65
64
65
28
30
27
68
67
62
67
64
63
73
71
69
85
84
83
72
71
68
75
75
70
87
89
84
71
69
65
90
89
82
87
86
80
86
84
81
71
70
66
81
80
78
68
67
64
55
55
54
77
76
75
60
58
57
50
48
48
74
74
74
57
57
57
63
65
65
67
69
67
70
72
69
71
71
70
73
74
72
71
72
71
64
67
66
62
64
63
55
59
60
51
55
56
51
56
56
48
52
53
55
59
60
42
46
49
93
96
101
94
97
102
95
97
102
128
124
118
86
85
79
91
96
95
72
76
73
76
76
73
66
66
67
33
32
39
63
63
64
75
73
78
29
31
37
84
86
86
75
80
86
33
36
41
92
91
93
60
55
61
70
70
72
85
85
86
40
42
45
69
71
69
117
113
107
78
76
74
88
89
90
86
85
85
55
55
57
55
53
50
137
127
110
94
84
75
86
80
75
88
81
75
81
71
64
70
48
40
139
100
70
248
232
191
130
85
57
77
58
51
80
61
54
90
67
58
106
78
62
227
206
165
108
66
45
87
62
53
104
88
80
87
72
64
103
87
76
96
82
71
58
49
46
28
24
23
57
43
39
84
70
61
122
105
88
102
82
73
73
58
54
115
78
64
152
80
51
174
102
65
149
84
49
127
76
50
85
54
45
71
46
39
72
44
38
181
180
174
183
182
176
182
183
175
174
174
167
181
180
173
183
182
175
185
185
177
180
179
171
180
179
171
186
184
175
196
194
184
198
196
187
190
188
179
185
184
172
186
184
172
182
179
167
174
170
159
158
152
140
146
139
123
134
126
110
89
79
70
97
88
74
103
94
81
96
87
74
93
85
73
27
24
19
43
39
34
77
67
61
96
87
75
60
56
50
43
38
33
45
39
33
36
33
28
19
19
17
22
21
19
54
50
44
92
87
84
32
29
25
72
66
56
82
74
65
136
129
113
128
121
105
51
47
42
38
37
33
69
63
56
98
92
86
102
101
87
109
106
93
102
98
87
113
108
99
85
80
74
92
87
74
78
71
62
24
23
18
80
77
73
80
78
76
16
13
13
53
50
40
80
74
60
75
68
57
123
115
101
63
58
46
48
44
35
16
15
11
15
13
11
14
12
11
15
13
12
31
30
26
53
49
47
57
53
50
95
92
85
100
97
86
98
96
87
107
102
94
69
63
55
120
114
104
112
105
91
100
93
80
91
87
75
50
45
38
73
71
61
72
69
58
73
67
61
84
80
68
129
123
112
99
92
83
97
90
77
79
76
67
68
61
57
62
54
47
64
60
56
50
50
48
96
92
82
65
60
53
17
18
15
25
26
23
50
48
46
60
59
53
75
69
62
93
87
80
97
91
81
105
99
85
112
102
91
106
99
88
116
109
95
115
110
98
109
104
92
112
106
99
107
101
94
99
92
85
108
100
91
122
119
106
117
112
100
103
97
84
120
113
97
119
113
97
132
124
109
137
129
116
120
116
101
129
123
111
117
113
101
112
108
97
112
109
96
105
100
89
115
110
98
120
115
97
136
134
112
142
138
123
132
126
113
103
96
88
77
73
66
99
96
89
113
110
101
107
104
95
93
89
82
98
95
91
87
82
79
93
88
88
69
65
65
89
87
89
98
97
91
96
94
88
103
100
96
102
99
92
108
103
98
107
101
96
105
100
93
114
110
101
121
116
108
118
113
105
113
107
99
106
100
93
104
99
92
98
94
84
99
95
89
88
84
80
85
82
78
75
73
71
51
50
47
63
61
60
73
72
71
66
65
65
72
73
71
67
67
65
71
70
67
56
57
59
81
80
77
87
86
79
86
82
77
88
85
79
89
88
81
91
90
84
74
73
68
51
52
51
70
68
69
52
52
49
69
69
68
64
66
65
60
62
62
61
64
63
68
68
67
63
64
63
68
70
69
70
73
72
68
68
69
64
64
65
62
63
63
56
60
59
54
56
58
53
55
57
52
57
55
49
52
50
49
52
50
47
50
52
68
70
74
74
76
78
132
128
121
88
89
87
87
88
86
95
95
90
71
70
67
65
64
65
31
30
36
65
64
63
74
71
73
28
31
35
85
85
83
76
78
82
34
35
40
85
84
85
59
56
62
69
73
73
87
87
88
40
42
45
67
68
67
118
114
108
78
74
72
87
89
88
85
85
86
55
53
54
57
56
55
133
122
111
94
86
78
87
81
77
87
80
76
76
69
63
62
46
39
130
90
66
248
227
187
124
82
58
73
55
51
76
59
54
86
65
56
102
76
59
224
205
162
104
64
47
86
61
54
107
93
86
84
68
63
100
87
77
94
82
72
58
51
47
25
21
22
50
40
38
58
48
46
69
54
50
61
47
42
71
60
56
117
84
68
186
116
69
193
124
76
158
97
62
96
59
41
79
53
45
67
42
34
77
51
44
106
106
92
107
107
94
111
110
98
108
106
95
107
103
93
105
102
90
107
106
90
105
104
88
106
103
89
100
97
86
97
94
84
98
94
85
89
86
78
88
85
73
86
83
71
87
84
72
98
92
83
102
95
86
93
86
76
103
95
86
82
73
64
101
92
78
100
91
78
94
85
72
98
89
78
25
22
17
40
36
32
67
60
54
87
77
66
54
47
39
149
140
115
54
51
38
41
38
33
18
18
16
21
20
16
26
22
19
82
78
76
29
26
22
76
71
62
82
77
67
95
90
81
50
46
39
65
62
58
39
37
34
64
59
52
69
64
58
60
58
51
46
44
37
45
43
36
46
45
37
56
53
46
80
75
63
66
60
52
33
32
27
57
53
51
64
62
61
15
12
12
58
54
45
82
76
58
74
68
53
115
110
92
78
70
55
45
41
32
17
16
13
13
11
10
14
12
11
18
16
15
35
34
28
61
58
50
68
65
60
82
79
72
98
95
85
105
102
93
110
105
96
66
60
52
101
95
86
105
98
85
104
97
85
101
93
81
43
41
34
63
61
50
94
90
79
119
115
103
134
127
114
109
102
93
83
76
67
98
92
75
87
84
71
60
54
50
59
52
44
61
57
53
46
47
45
92
87
78
68
63
55
18
18
16
31
30
28
59
55
53
84
84
77
98
93
81
106
101
88
101
97
87
98
95
81
115
105
95
120
113
102
119
111
100
109
105
95
108
103
91
112
107
97
112
106
98
93
87
79
102
94
86
91
87
79
103
100
88
130
125
112
117
110
95
120
114
98
129
122
106
131
123
110
118
113
99
91
87
76
90
87
75
101
100
88
84
82
70
105
100
88
102
97
91
105
100
87
141
138
122
91
86
77
114
108
101
115
109
97
97
93
85
101
98
90
84
79
73
104
98
92
105
99
93
107
101
92
109
103
95
101
95
90
125
121
116
134
134
128
141
136
131
144
137
133
140
132
126
139
132
123
144
138
128
146
141
131
140
134
123
150
144
132
154
147
135
156
150
138
152
147
131
146
142
126
115
110
99
114
110
101
112
109
103
106
103
97
108
105
98
101
99
91
106
105
97
111
110
103
100
99
94
58
58
56
65
67
65
56
57
54
101
100
93
81
81
80
75
74
70
88
87
80
86
82
77
85
82
76
85
83
77
80
79
73
71
69
64
58
59
58
59
57
57
55
54
50
74
74
73
56
57
57
59
59
59
57
57
57
62
63
61
67
67
66
65
67
66
67
70
69
64
64
63
67
67
66
61
62
62
53
57
56
50
52
53
50
52
53
49
53
52
78
81
80
71
70
68
100
98
92
92
91
85
69
65
67
128
123
117
92
92
91
87
88
82
65
65
64
65
63
64
62
61
65
28
27
33
61
60
59
73
69
70
28
31
35
83
84
81
74
77
80
34
35
39
90
89
89
62
59
63
67
71
71
85
86
86
41
42
45
64
66
65
120
117
111
77
73
71
88
90
90
85
85
86
54
52
54
55
54
53
138
127
116
93
85
77
86
81
77
85
81
76
71
68
62
57
44
40
119
82
60
242
219
176
113
74
54
72
54
53
74
56
55
81
61
54
96
71
59
220
201
157
97
63
45
80
64
54
101
90
83
79
65
59
96
85
74
92
80
72
59
52
49
22
19
19
54
44
41
74
58
56
70
49
45
51
40
36
51
43
41
72
61
55
85
64
52
84
58
50
64
45
39
69
51
45
73
51
44
68
45
36
74
48
41
89
86
76
99
97
86
100
98
85
102
99
86
101
99
85
97
94
81
99
94
82
98
94
82
97
94
81
97
94
82
87
82
71
110
105
94
98
95
85
85
82
73
92
89
79
96
94
84
79
76
65
96
92
81
101
98
88
89
83
75
85
77
70
85
77
65
100
89
78
95
88
75
96
90
78
56
54
51
29
24
23
62
54
48
104
96
78
112
105
89
141
134
114
37
36
28
27
25
21
20
18
14
20
18
17
23
21
19
30
28
27
25
24
18
65
62
52
78
76
62
124
123
104
115
113
100
57
55
51
32
31
28
35
33
29
33
31
27
40
39
32
42
41
35
43
41
37
40
39
35
28
24
21
47
44
37
54
49
43
40
38
35
40
37
36
36
35
34
11
11
10
36
33
27
74
69
58
76
71
56
103
96
81
77
70
56
39
33
28
17
14
13
15
12
13
15
12
13
41
37
35
60
57
49
78
75
66
90
87
82
146
144
131
104
102
88
106
105
93
110
104
94
66
59
51
101
97
86
112
104
96
106
99
90
98
90
81
37
32
28
32
30
25
58
52
46
76
68
55
76
71
56
67
60
47
97
90
78
101
92
79
87
80
71
59
52
48
61
54
48
65
62
59
29
29
29
93
85
77
68
61
52
18
18
17
29
28
25
63
59
57
44
42
39
81
79
70
98
93
80
100
95
85
89
84
70
117
106
94
113
105
96
111
105
97
115
110
100
116
111
99
110
105
93
111
108
96
96
93
85
109
101
95
84
80
72
95
91
78
116
112
98
122
118
102
126
122
106
124
119
104
127
122
107
114
109
96
113
108
94
103
98
87
105
100
90
89
85
73
105
100
88
98
93
82
109
104
92
115
111
99
105
100
90
118
113
103
107
102
92
96
90
83
93
88
79
109
104
96
102
96
89
108
103
93
106
101
90
101
96
86
105
99
92
106
101
92
119
114
102
114
109
98
108
104
93
112
106
95
103
96
90
115
111
104
117
111
104
105
99
91
106
100
92
116
110
102
116
110
101
117
111
102
105
99
91
99
96
90
121
115
105
103
99
91
97
94
86
89
86
78
82
79
71
83
80
73
82
78
71
69
66
61
46
46
45
43
47
49
56
55
54
74
73
67
66
66
64
62
61
58
79
78
74
82
80
77
80
78
74
84
82
78
81
79
75
95
91
86
69
68
66
70
69
67
59
57
55
58
57
55
58
59
56
55
55
53
60
60
58
62
65
62
60
61
61
64
64
63
61
62
61
60
61
59
58
58
57
60
59
60
57
57
58
48
51
50
47
49
49
49
52
51
74
76
75
66
66
67
78
77
77
74
73
68
66
64
63
122
117
111
95
93
92
87
88
84
65
66
64
72
69
68
68
65
67
30
27
30
58
56
55
71
68
67
27
30
33
83
83
80
72
75
78
32
34
37
87
86
88
61
57
60
67
70
69
86
87
86
41
42
46
61
62
61
110
109
103
80
76
75
87
90
90
80
82
82
50
50
52
49
47
47
140
132
119
91
86
81
86
82
79
84
80
77
70
66
63
52
40
37
105
70
53
231
202
163
95
65
51
69
53
54
70
54
54
77
58
53
85
63
52
209
187
147
87
57
46
75
63
56
100
92
85
77
62
60
88
77
70
89
78
70
58
50
48
24
23
22
83
78
74
91
87
83
93
88
86
64
58
55
42
35
33
59
50
48
66
58
52
62
53
50
52
45
41
61
51
50
70
50
44
63
42
36
71
53
50
86
83
73
88
85
75
97
95
82
98
95
82
95
93
79
96
93
79
97
92
80
96
91
79
93
90
78
100
98
85
84
80
69
102
97
86
83
80
72
74
71
64
88
85
76
80
77
68
89
86
76
76
75
65
84
82
74
89
84
77
84
78
71
77
69
60
94
87
78
115
113
103
120
120
110
120
118
111
68
65
62
55
49
42
96
89
73
96
88
73
67
63
54
55
52
47
21
20
16
21
19
15
19
17
16
23
21
19
26
24
22
39
38
32
65
62
50
70
68
53
79
77
63
66
64
55
26
24
22
30
28
26
29
27
23
30
28
24
36
35
29
36
35
29
36
34
30
34
32
29
22
21
21
23
21
19
28
24
22
19
15
14
16
13
13
15
13
12
17
16
14
29
25
20
64
58
48
83
78
64
95
88
75
67
60
46
33
27
23
17
14
13
17
14
15
15
12
12
53
49
42
71
69
58
112
111
106
147
145
136
110
107
97
80
77
68
96
95
83
114
108
98
64
56
49
101
97
86
107
99
90
101
94
85
105
98
89
33
29
26
36
33
29
66
61
47
78
70
55
63
57
47
62
58
48
97
92
81
103
94
82
88
82
73
54
47
44
53
46
42
76
72
65
104
97
87
101
94
81
66
58
50
17
17
17
31
31
27
60
56
48
80
78
69
96
94
84
110
105
92
132
127
114
89
83
73
113
105
93
106
102
92
108
103
92
110
104
96
111
106
94
109
105
92
106
103
91
91
87
79
108
100
94
91
87
78
111
107
90
123
119
103
126
122
107
115
110
96
125
120
106
125
120
107
97
92
80
94
90
78
92
87
77
90
86
76
96
92
80
101
98
87
113
108
98
106
102
92
108
103
92
109
103
94
111
106
97
111
106
96
103
98
87
100
95
86
95
89
76
91
85
73
99
92
81
99
92
84
94
89
81
91
86
78
106
101
92
109
104
92
105
100
89
103
98
88
109
103
93
89
83
77
107
102
92
106
101
91
104
99
90
106
101
93
107
101
94
105
99
93
106
100
93
91
85
78
97
91
82
103
100
91
78
75
67
78
75
67
75
72
64
74
71
63
69
66
58
73
70
62
68
64
60
56
57
56
50
53
55
71
71
68
96
95
87
95
94
89
79
77
74
87
84
81
82
81
77
80
78
74
79
77
74
85
81
78
89
85
80
77
77
72
74
73
69
59
59
57
67
68
65
58
59
56
66
65
64
61
60
58
64
66
63
62
63
64
64
63
60
60
61
57
62
63
60
56
57
53
55
54
53
52
52
51
49
52
51
53
56
55
53
55
54
64
65
64
63
63
65
75
75
75
72
71
64
66
65
60
128
124
115
91
89
85
98
96
90
83
81
77
66
64
60
66
63
63
28
25
27
57
55
54
71
68
67
27
29
32
82
82
79
68
70
74
33
34
38
89
88
90
63
58
61
66
69
68
83
84
83
41
42
46
60
61
60
105
104
98
74
71
70
85
87
87
84
86
85
49
49
51
48
46
45
145
137
124
89
84
79
83
79
76
87
83
80
68
64
62
45
38
37
76
54
45
178
139
114
77
53
49
66
50
51
67
51
52
73
54
52
79
57
50
173
139
109
76
47
44
68
60
56
96
91
86
74
62
62
77
68
64
79
68
62
55
48
46
83
80
76
90
88
88
92
90
87
96
92
90
91
84
84
54
48
48
48
40
38
58
50
45
54
47
43
51
47
42
54
48
45
67
50
43
63
41
36
60
46
41
92
89
79
94
91
81
96
93
82
96
93
82
91
90
79
98
97
84
96
92
82
95
93
80
100
99
86
96
94
82
83
81
71
109
106
94
79
78
71
64
63
57
82
81
73
96
93
84
83
79
70
69
66
59
82
79
72
48
46
39
87
84
76
65
58
52
100
96
88
119
115
107
95
94
88
142
139
132
113
110
103
81
78
71
52
48
40
48
44
37
49
45
41
72
70
59
25
23
21
22
20
18
25
24
21
26
25
22
34
31
27
45
41
35
58
55
44
63
60
49
59
58
47
38
37
31
33
29
27
32
28
26
29
28
25
30
29
26
30
28
24
29
27
23
28
27
25
28
27
25
29
26
25
35
31
30
31
29
26
26
24
21
30
25
23
32
28
25
29
28
23
31
31
25
39
33
30
53
47
43
51
45
39
61
55
49
25
22
19
19
17
15
22
20
19
39
37
31
69
63
57
141
140
132
159
159
153
115
116
109
103
103
96
83
85
76
78
77
68
119
112
103
65
57
50
101
95
85
108
103
91
103
98
86
106
99
88
30
27
23
53
50
42
75
67
57
81
75
63
67
62
53
64
59
50
98
93
81
103
98
86
93
88
78
105
100
92
90
85
77
74
70
61
76
70
64
96
88
78
71
64
55
19
18
18
33
31
28
55
52
45
73
68
58
100
95
82
94
87
75
88
82
71
84
78
68
97
92
80
101
97
85
109
104
94
108
102
93
104
99
87
106
101
90
103
97
88
94
88
80
115
108
97
108
101
90
111
104
93
114
107
95
116
111
97
117
112
98
118
111
100
119
112
101
107
101
91
115
112
99
124
119
108
112
108
96
114
112
97
104
102
87
102
98
87
110
105
95
112
107
97
109
104
95
99
93
86
104
98
91
92
89
80
96
91
85
101
96
84
84
81
71
88
85
76
95
91
81
97
92
85
97
91
84
104
99
90
111
105
95
101
93
85
104
96
87
105
97
89
85
80
75
105
100
90
104
99
89
100
94
87
95
90
83
99
93
87
100
94
88
97
91
84
85
79
72
67
63
58
66
62
57
67
61
56
61
55
50
65
59
52
66
60
53
62
58
51
72
68
62
76
74
68
69
69
65
55
55
55
91
89
86
90
91
84
80
81
75
91
86
81
96
91
86
85
83
79
79
78
74
82
80
76
83
81
77
76
75
69
83
81
77
73
71
68
78
75
73
88
85
82
66
68
64
59
59
59
68
68
64
71
69
67
64
62
60
60
58
54
66
64
60
69
67
65
55
54
51
50
51
46
48
49
45
50
50
49
49
49
48
50
50
49
62
63
61
65
66
64
78
79
77
65
65
63
59
60
56
127
121
111
96
92
87
88
87
82
72
72
70
61
60
55
69
67
63
28
25
27
59
56
56
70
65
63
27
27
30
82
83
79
67
70
72
31
32
36
88
87
87
61
56
58
66
64
64
75
74
75
35
36
39
65
65
64
104
100
94
74
72
69
85
86
85
82
84
83
48
48
50
46
44
43
149
143
130
88
84
79
84
80
77
83
78
76
64
59
60
40
35
35
57
46
43
108
77
76
60
47
47
60
49
50
64
49
51
68
50
48
73
54
48
121
85
76
66
46
46
62
57
56
90
83
82
69
59
56
78
68
65
74
69
64
47
45
42
40
37
38
100
96
98
91
88
85
92
87
90
101
96
98
91
85
87
68
61
64
41
34
33
47
41
36
49
43
38
49
42
39
54
39
36
55
39
32
59
48
38
79
77
67
71
68
59
74
71
63
75
72
65
75
72
66
82
81
71
78
76
66
74
72
65
75
74
66
70
67
59
73
71
62
112
107
97
33
31
27
63
62
57
81
80
72
81
78
70
93
90
82
89
86
78
67
63
56
62
59
52
88
85
77
49
43
38
95
92
84
97
93
84
90
87
81
115
112
105
104
101
92
98
95
85
94
90
79
54
49
46
42
36
35
36
32
29
26
24
22
27
25
23
26
25
20
31
29
24
37
33
29
43
39
32
49
45
35
53
50
40
54
53
42
57
55
49
62
58
51
58
54
46
47
42
36
43
38
32
44
41
36
46
43
38
47
42
37
47
42
37
47
40
35
55
49
43
57
51
47
41
38
32
43
39
35
48
44
40
51
46
43
53
48
46
56
51
49
50
45
43
45
41
38
36
32
30
35
31
29
42
38
37
53
49
46
54
50
41
142
137
129
177
174
163
124
125
117
94
94
87
98
97
93
99
98
92
89
88
80
116
109
101
65
57
50
99
93
83
111
106
94
104
99
87
103
95
85
28
24
21
54
50
42
78
71
60
88
82
71
73
68
58
62
57
48
101
97
84
107
102
90
97
92
82
83
77
69
77
70
63
70
65
58
60
56
50
98
91
79
68
61
55
19
19
19
33
32
29
59
57
50
73
68
58
85
80
68
105
101
90
116
111
102
85
79
71
105
100
88
108
103
91
104
98
89
106
101
91
106
101
91
107
102
91
105
99
90
97
91
82
114
107
96
101
94
83
108
100
89
114
107
96
115
110
96
112
107
93
114
107
96
113
107
96
109
105
92
124
118
102
114
110
99
97
93
83
99
96
86
102
99
87
106
104
92
99
94
84
114
109
100
100
94
85
99
94
83
94
89
79
102
98
90
100
96
88
84
79
68
71
70
62
82
80
73
80
76
71
86
82
77
76
72
67
90
86
79
96
92
84
92
89
81
91
88
79
93
87
79
83
78
73
98
93
84
101
96
87
93
87
80
90
84
77
102
96
89
92
86
80
86
80
73
76
70
63
47
43
38
45
41
35
54
48
43
49
43
38
49
43
37
57
51
44
48
44
42
48
45
41
52
50
46
52
50
46
55
53
53
62
61
57
58
58
55
47
47
45
62
57
53
89
84
80
69
68
63
55
54
49
75
73
70
75
73
70
71
71
66
69
68
64
68
66
63
83
80
79
55
50
51
64
64
65
62
62
62
66
66
61
71
70
65
69
68
62
70
68
64
67
66
62
63
62
57
65
62
57
57
57
52
43
44
40
46
46
44
51
51
49
53
54
51
65
66
62
65
66
64
73
74
71
66
66
64
60
59
57
121
115
105
95
91
86
100
99
93
79
77
75
60
58
55
65
63
60
27
24
26
57
55
53
73
68
63
27
27
27
83
84
79
69
72
73
30
31
35
89
88
87
62
56
59
69
67
66
75
74
75
33
34
37
64
64
63
103
99
93
74
72
69
81
83
82
78
80
79
47
46
49
43
41
40
143
137
127
87
86
84
80
79
78
84
82
79
64
62
62
37
35
37
51
44
44
72
51
51
53
43
47
56
45
47
59
44
47
62
46
47
65
49
47
86
61
60
56
45
43
62
59
58
88
84
82
67
60
56
74
66
63
69
65
61
43
42
39
66
62
64
80
76
77
94
88
88
86
79
84
88
82
87
81
76
80
79
74
81
64
60
65
33
27
24
34
27
23
39
31
28
47
40
35
51
42
37
52
43
37
95
92
84
85
82
74
89
88
79
91
90
81
93
92
82
93
92
82
100
97
87
101
98
88
100
98
88
97
94
85
70
65
58
106
101
92
20
19
15
50
49
43
77
76
69
60
58
50
79
76
68
95
92
84
86
83
75
98
95
87
82
79
71
61
57
51
94
90
87
92
88
81
99
96
87
108
105
96
104
101
90
96
91
81
98
92
80
105
97
88
90
84
81
122
119
112
141
138
130
146
143
134
157
154
144
126
122
113
130
124
111
135
128
115
143
134
118
154
145
129
159
154
136
163
157
141
159
153
139
156
151
135
153
145
126
154
145
128
153
147
129
152
146
129
149
139
122
153
143
126
143
134
117
147
138
120
148
137
121
136
125
110
145
136
122
146
136
122
151
140
124
149
139
124
148
138
125
145
135
122
145
133
122
144
135
123
143
137
127
142
136
124
138
132
120
132
125
116
183
180
165
146
144
132
116
115
105
117
116
105
118
113
105
100
97
91
77
75
69
112
105
95
64
58
51
102
97
87
97
92
82
101
96
86
102
94
84
26
23
19
56
53
46
78
72
61
88
81
69
74
70
59
61
55
48
98
93
82
106
99
89
94
90
81
72
65
58
71
65
57
91
85
79
91
88
83
88
81
67
66
61
53
20
18
19
33
31
28
52
49
42
80
76
66
85
80
72
68
64
56
82
76
67
95
90
79
98
93
84
105
100
90
104
99
89
105
100
90
107
102
91
107
102
93
102
96
89
94
87
80
110
102
91
104
96
85
103
96
85
109
102
91
106
102
87
109
104
92
105
100
88
103
98
88
106
102
89
120
115
100
92
90
81
78
72
62
71
62
52
64
60
54
116
112
99
113
109
95
112
107
96
105
100
90
106
101
90
104
99
88
89
86
77
94
91
80
82
79
70
67
63
58
64
60
55
51
50
44
60
57
52
43
42
36
45
43
37
54
53
47
45
44
38
51
49
41
54
50
44
74
69
64
102
97
88
103
98
89
105
99
92
100
95
87
97
91
84
92
87
80
87
82
75
81
76
69
58
51
47
46
40
35
50
47
43
54
52
48
58
54
49
56
52
46
58
52
47
57
55
49
57
55
51
52
50
46
57
55
52
56
55
51
52
50
46
42
40
37
40
36
35
70
67
62
64
63
58
50
49
45
47
46
45
51
47
46
58
54
52
58
53
53
61
59
54
70
69
66
80
79
74
71
70
65
75
74
69
75
74
69
77
74
67
71
68
61
74
73
66
72
71
64
63
62
56
60
59
53
58
56
54
50
48
46
44
44
41
46
47
43
57
57
54
49
50
48
66
65
65
72
70
68
65
63
59
76
74
70
110
105
95
75
72
68
80
79
74
62
60
59
60
57
54
64
61
58
26
24
26
57
54
53
78
73
71
27
27
27
84
84
77
64
66
65
29
28
31
88
86
84
60
56
57
64
64
61
68
68
68
31
32
36
59
60
58
103
99
93
74
72
70
85
86
86
82
84
83
45
45
47
42
39
40
141
136
128
88
86
83
82
80
78
86
82
79
60
59
58
33
34
36
45
40
40
61
49
50
49
44
48
51
42
46
52
42
47
54
42
47
55
44
46
57
50
48
51
44
45
59
57
56
80
77
76
66
60
62
66
61
62
62
57
61
33
28
31
59
58
59
60
58
63
68
68
72
65
63
69
77
73
77
72
67
72
73
68
74
66
62
68
56
51
51
56
49
47
77
71
66
67
64
59
105
100
96
98
93
89
79
76
68
76
73
65
78
77
69
85
84
75
86
86
76
85
85
75
94
92
81
92
89
79
89
86
76
113
110
101
77
74
67
112
105
96
27
23
20
63
61
56
82
81
74
68
65
58
79
76
69
72
69
61
91
88
80
92
88
80
62
59
51
78
75
67
97
94
87
112
110
97
103
101
86
98
95
81
103
100
87
108
104
92
104
99
88
98
92
80
93
85
75
121
119
103
134
132
112
138
129
111
152
143
125
113
110
98
148
144
126
157
154
136
160
155
136
156
152
133
153
151
132
148
147
127
151
145
124
148
141
123
142
133
115
135
127
108
128
120
106
117
110
95
115
108
92
126
119
102
132
124
107
136
128
111
135
125
108
140
130
113
139
132
112
134
126
107
124
114
99
123
112
97
123
115
99
126
118
103
126
117
102
140
133
117
147
139
125
145
136
127
152
143
134
166
158
147
150
147
132
120
117
105
110
110
96
104
103
90
106
101
92
88
85
80
70
68
61
112
105
96
66
59
51
95
90
81
91
85
79
91
85
79
91
83
74
26
22
19
58
55
48
76
70
59
84
78
65
79
76
64
64
59
51
105
100
89
109
101
93
91
87
78
73
66
59
78
70
63
80
73
66
95
92
86
104
96
82
71
65
56
22
20
20
36
34
32
52
49
42
75
71
60
96
91
78
73
69
61
83
78
66
94
88
75
95
90
78
101
96
87
109
104
94
97
91
82
109
104
94
107
102
92
99
93
86
93
86
80
114
107
95
102
95
83
108
101
90
109
102
91
107
102
88
106
101
89
106
100
88
106
100
89
83
79
65
87
82
71
89
83
77
79
67
58
29
22
17
112
102
94
77
73
65
109
104
93
101
96
86
105
100
91
99
94
83
103
99
87
95
92
80
77
74
65
86
83
76
75
71
68
56
53
50
55
52
48
54
54
50
50
51
46
57
58
52
62
61
56
64
62
58
73
71
64
75
73
69
79
76
72
98
93
84
106
101
92
102
97
89
99
94
87
94
89
81
88
82
75
87
81
74
79
73
66
59
51
47
53
46
42
49
46
42
54
52
48
53
50
44
52
48
43
57
51
46
54
52
46
57
55
51
59
57
53
58
56
52
56
54
50
51
49
45
43
41
37
62
58
57
66
63
60
50
47
44
51
48
44
46
43
38
69
66
61
61
57
51
70
66
62
64
61
58
75
71
67
85
84
76
76
75
66
77
76
68
79
78
70
77
73
66
75
71
64
73
72
65
70
68
62
67
66
59
63
62
56
65
62
58
62
60
56
53
53
50
51
52
47
67
67
58
53
55
53
61
60
60
79
77
73
70
69
65
61
59
56
109
103
93
75
71
67
67
64
59
58
55
53
61
58
55
74
70
67
27
24
26
57
54
53
78
73
71
26
27
27
88
87
81
67
69
69
27
27
30
88
86
83
57
53
54
71
72
69
77
77
76
32
33
37
58
59
56
104
100
94
79
78
75
85
86
86
78
81
80
44
43
46
40
37
38
140
134
128
84
82
80
81
79
77
85
82
78
59
57
57
34
35
37
43
39
39
55
47
46
47
42
47
51
41
46
51
41
46
50
42
46
51
44
45
55
54
53
42
41
43
62
59
58
74
70
69
65
60
58
75
70
68
70
65
66
36
32
32
37
36
38
49
48
54
54
54
60
70
70
75
72
70
73
67
62
66
62
58
61
56
53
55
44
43
40
34
33
32
40
37
34
64
59
52
66
58
54
65
57
52
78
76
68
75
74
65
71
70
61
78
77
69
86
83
76
82
79
71
81
78
69
84
81
71
83
80
72
77
74
66
63
61
53
109
103
92
98
94
89
65
64
59
72
70
65
75
72
66
86
82
77
74
71
65
79
76
68
77
74
66
58
55
48
77
74
66
97
94
86
85
82
73
101
99
82
99
96
84
78
74
67
72
65
54
83
73
55
106
100
86
85
82
69
98
95
82
116
112
97
123
118
103
121
118
103
119
117
102
116
116
98
115
115
97
108
106
91
110
108
93
102
101
85
92
90
74
90
87
72
88
85
71
93
90
76
96
93
79
93
89
79
94
91
80
91
88
76
96
93
80
103
97
84
104
98
85
108
100
89
110
102
91
108
102
89
107
101
88
111
104
92
111
104
93
110
105
95
112
107
97
111
106
96
105
100
90
105
101
88
103
99
86
112
107
95
169
164
150
122
119
107
93
90
79
79
74
66
92
90
82
101
98
89
86
83
75
86
85
78
106
98
89
67
60
51
88
84
75
98
92
85
84
79
72
83
76
70
24
21
20
58
51
46
78
70
60
88
83
71
78
73
64
65
59
52
104
99
88
109
102
92
91
86
79
72
64
58
71
63
57
83
77
65
59
54
48
97
86
74
68
60
53
21
21
19
37
36
31
60
57
50
76
71
60
96
89
77
78
73
62
104
98
85
91
84
72
112
106
94
118
113
103
112
106
97
98
93
83
107
102
91
106
101
92
98
92
84
86
82
74
107
100
89
101
94
83
101
94
82
103
96
86
100
96
82
108
102
88
102
95
82
106
99
87
79
74
59
85
78
65
78
71
66
40
29
27
17
11
7
115
105
89
48
42
35
108
103
91
86
81
71
91
86
77
87
82
72
86
81
71
85
80
69
75
70
63
82
79
70
77
75
66
67
65
60
90
87
80
50
47
43
65
63
59
62
59
55
45
44
38
66
66
61
74
73
68
70
68
64
75
71
67
95
89
84
95
90
81
95
90
82
97
91
84
88
83
74
87
82
73
84
79
72
74
68
62
60
52
49
59
52
47
50
43
38
60
53
48
61
55
50
45
43
37
55
48
44
58
55
50
64
62
57
74
67
61
75
69
64
65
62
59
58
56
52
48
46
42
57
53
48
60
53
50
27
24
23
79
78
77
66
62
57
70
63
58
64
60
55
65
61
57
61
57
55
80
77
69
77
75
68
72
71
64
78
75
67
79
76
68
80
77
69
80
77
69
72
69
63
69
65
60
65
64
58
63
62
56
66
62
57
54
54
50
59
60
54
59
60
54
73
73
67
52
55
53
65
64
64
76
73
70
73
71
68
48
50
48
112
107
96
75
72
67
55
53
52
68
68
65
65
64
58
69
68
64
28
26
27
53
50
49
74
69
67
26
26
27
90
89
83
63
64
62
25
25
26
81
78
78
58
53
55
60
58
56
69
69
67
32
34
36
57
57
54
101
97
90
78
76
73
84
85
85
80
83
82
45
45
47
37
36
37
139
135
127
93
89
88
74
74
72
77
75
70
61
58
57
38
39
41
42
38
39
57
49
52
46
43
47
49
41
46
49
41
46
49
41
46
49
42
46
56
54
54
42
42
45
65
63
62
71
67
67
64
60
57
72
68
65
72
71
69
46
46
44
46
43
45
62
60
64
66
66
66
57
59
61
52
53
56
54
54
56
44
43
45
73
72
67
97
95
88
32
30
30
49
47
45
56
54
51
54
50
47
57
52
50
67
62
55
64
59
51
57
55
48
66
65
57
64
61
53
70
67
59
67
64
54
68
66
55
68
65
57
67
65
57
65
63
53
80
74
64
91
85
77
75
75
65
92
90
79
85
82
71
86
82
72
83
80
70
77
73
65
78
75
67
70
67
60
80
77
70
75
72
64
79
76
67
70
65
55
44
42
37
95
88
74
121
106
80
100
90
65
90
86
72
30
29
24
13
12
9
14
12
11
18
17
15
31
28
26
31
28
26
36
31
28
44
39
36
40
36
34
37
33
31
41
36
35
34
30
28
34
31
28
39
36
33
41
39
35
39
37
33
37
34
33
38
34
33
33
30
27
28
25
22
33
30
27
34
31
28
35
32
29
37
33
31
38
33
31
36
32
29
35
32
29
35
31
28
34
31
29
31
28
27
30
27
26
31
28
27
29
28
26
21
20
18
63
62
58
134
133
120
77
75
69
108
105
102
101
96
85
36
34
28
79
76
71
84
81
73
79
81
74
105
94
86
71
63
55
94
92
84
89
83
76
78
72
65
81
74
70
23
21
19
61
54
48
79
72
61
89
84
72
74
69
59
64
58
51
109
105
94
110
103
93
91
87
79
77
69
63
72
65
59
79
70
60
77
64
55
97
86
68
74
65
57
21
21
19
37
35
30
56
52
46
73
68
57
96
89
78
94
87
76
99
92
80
102
95
85
105
98
88
98
93
84
105
100
91
96
91
80
99
94
84
109
103
94
96
89
81
82
78
71
99
91
80
98
90
79
111
104
93
98
91
79
99
93
80
101
96
82
104
95
82
108
100
87
90
84
70
97
90
78
98
92
82
69
64
57
41
36
29
74
68
54
87
81
75
102
96
83
96
91
81
93
88
78
82
77
67
84
79
70
73
67
59
74
69
58
87
84
75
84
81
72
56
53
46
88
82
75
71
63
56
70
63
57
71
67
60
63
60
53
69
66
61
69
67
62
73
70
64
90
87
80
93
87
82
95
89
81
93
88
80
91
85
78
88
82
73
86
81
71
79
73
66
75
69
63
62
56
52
56
51
45
48
44
40
56
52
48
52
46
42
47
44
39
56
50
45
65
62
57
64
61
56
74
67
62
73
67
60
67
64
60
58
56
52
56
54
50
63
59
54
56
51
47
51
48
42
65
63
58
45
41
40
81
68
60
54
50
45
62
58
54
60
54
53
85
80
73
70
69
62
73
71
65
77
73
65
75
72
64
79
76
68
77
73
65
75
71
66
68
64
59
71
69
63
69
68
62
80
77
68
72
72
65
64
65
58
58
59
52
63
63
57
47
50
48
69
68
68
87
84
81
65
63
60
41
42
41
112
106
97
57
54
48
61
60
56
69
70
64
60
58
53
65
64
59
28
26
27
41
38
37
64
58
57
27
27
28
75
76
71
59
57
56
28
28
29
85
83
82
53
47
49
52
51
49
68
68
65
31
33
34
42
44
41
92
88
79
72
71
67
72
74
73
75
77
77
44
44
46
34
33
33
135
131
124
81
78
76
79
77
74
69
68
64
59
58
57
40
41
44
52
50
50
62
59
60
44
41
45
47
40
45
48
40
45
47
42
46
46
43
46
54
53
53
41
44
46
63
60
60
75
72
71
67
63
64
37
33
34
52
54
53
38
40
39
41
40
42
100
99
99
48
47
48
59
61
63
40
43
46
44
43
46
71
70
69
97
96
92
80
77
74
109
107
108
16
13
15
13
10
12
14
9
12
13
8
11
82
78
67
85
81
73
76
73
65
72
69
62
78
77
66
78
77
66
79
75
65
81
76
66
88
83
73
87
82
72
78
72
62
86
78
64
79
73
66
72
69
62
82
78
68
78
73
63
92
84
76
82
75
67
77
74
68
74
69
64
68
64
59
84
80
70
92
88
78
70
68
59
68
63
55
12
8
8
116
104
87
93
81
68
63
63
54
78
79
67
31
31
28
21
19
18
52
48
46
64
60
58
74
68
67
83
77
76
81
75
73
78
73
70
87
82
78
76
71
68
84
78
76
83
77
77
69
65
63
64
59
57
68
62
60
65
59
57
65
60
56
59
56
51
60
57
53
61
57
55
56
51
47
57
52
48
63
58
55
71
65
63
67
61
60
66
60
58
79
75
71
85
80
76
86
80
77
83
77
76
87
83
81
97
93
90
98
94
90
87
82
78
109
107
103
121
118
111
25
26
23
80
75
69
102
93
85
51
46
42
30
29
26
75
74
67
75
76
71
100
92
82
72
66
58
98
94
88
94
90
85
74
71
65
73
66
62
22
20
17
58
53
47
72
67
56
84
79
67
76
70
61
69
63
58
106
101
91
109
105
91
104
100
88
79
72
64
74
67
60
84
72
62
69
59
49
94
82
67
65
56
50
20
18
16
35
33
28
57
51
45
75
70
59
89
82
72
84
76
68
84
76
70
88
81
73
91
86
76
94
89
77
105
98
86
103
96
84
99
94
82
89
84
77
84
77
71
78
73
66
85
79
68
101
94
82
105
97
85
90
83
74
95
87
76
88
80
69
98
88
78
87
81
69
83
77
64
91
86
76
85
81
70
139
134
124
123
119
107
103
98
87
100
93
83
100
93
80
95
89
78
95
90
81
77
72
62
83
78
68
73
68
59
68
63
54
71
66
60
83
79
70
82
79
71
82
77
68
82
75
66
75
67
58
79
70
61
66
59
50
56
51
42
70
64
57
66
61
54
72
66
59
79
73
65
76
71
61
88
82
74
91
85
77
84
76
67
83
76
65
78
73
64
69
63
58
68
60
54
76
68
62
49
43
38
50
45
40
52
48
43
47
44
38
56
52
48
67
63
60
66
60
56
68
62
57
67
63
58
70
66
61
64
60
56
53
49
44
55
51
47
70
65
62
71
65
60
57
50
44
77
71
65
80
74
67
70
62
53
83
75
65
76
70
64
76
72
64
69
66
58
76
73
65
77
71
64
80
74
67
79
75
68
76
74
66
77
73
66
68
64
56
71
68
62
71
68
62
74
69
64
68
66
61
63
61
57
64
62
58
64
63
57
46
47
45
68
67
66
69
67
64
67
63
61
46
45
44
108
102
96
67
63
57
74
72
67
85
84
78
69
67
62
71
70
65
32
29
30
81
79
74
90
82
78
28
27
26
127
126
121
71
70
68
29
28
28
91
89
87
56
49
49
56
56
54
85
85
82
32
31
34
80
82
78
102
96
89
77
74
70
77
78
76
68
70
71
42
41
43
31
30
30
110
107
101
76
75
71
49
48
48
73
73
71
60
58
57
39
38
42
52
50
50
57
55
55
43
40
41
45
40
44
46
41
45
46
41
45
44
42
45
53
49
51
43
45
48
61
56
55
73
73
73
61
60
61
67
67
68
58
58
59
37
37
37
34
34
35
77
77
77
27
25
24
59
61
66
36
37
46
29
29
35
101
97
95
13
12
14
11
9
11
114
113
118
20
17
21
21
18
21
58
56
55
51
49
48
66
62
52
74
70
62
70
67
58
72
69
60
82
77
67
77
72
63
85
76
68
88
79
71
84
79
70
83
78
69
79
73
62
88
80
66
89
80
71
90
84
74
91
86
73
81
76
63
88
80
68
88
80
69
88
83
75
73
71
63
68
63
57
76
72
62
99
95
82
93
91
77
98
92
80
42
38
35
81
75
65
120
113
97
65
62
53
99
93
83
41
38
35
26
24
23
67
63
60
90
86
83
101
96
90
93
87
82
108
102
97
101
94
88
101
94
85
87
81
72
97
90
85
105
99
95
91
86
80
69
63
57
71
64
59
78
72
67
77
72
67
71
68
63
70
67
61
75
70
64
79
71
67
78
70
66
81
73
68
80
74
68
87
80
74
82
76
71
77
71
66
84
77
73
79
73
67
77
72
65
79
73
67
67
64
58
74
72
66
102
98
95
69
66
63
106
104
95
74
70
63
85
75
64
98
89
82
25
22
20
48
46
43
84
81
74
75
74
67
96
89
76
71
65
58
82
79
73
89
86
82
90
86
82
71
65
62
20
19
15
55
50
44
77
72
61
86
82
70
70
65
56
79
74
64
105
100
88
98
93
83
86
82
73
79
73
66
71
65
58
82
70
58
73
64
54
105
94
75
68
60
51
18
16
15
32
30
25
57
51
45
70
65
55
88
81
72
76
69
60
97
92
82
91
86
76
100
95
84
98
92
82
94
87
74
96
89
77
86
82
70
99
93
85
78
71
68
65
59
55
92
86
76
94
86
76
96
88
78
91
84
71
94
87
76
87
80
69
93
83
73
88
82
71
92
85
75
92
88
75
95
91
79
100
95
84
102
97
85
95
89
76
100
93
81
88
81
73
115
111
102
85
80
70
75
70
61
82
77
68
76
72
62
75
71
63
81
76
67
81
75
69
79
74
65
83
78
68
76
69
60
76
68
60
72
62
56
67
60
53
67
62
55
65
60
52
68
62
55
69
63
56
75
70
61
69
64
54
76
71
59
82
77
65
86
79
68
79
72
63
76
70
63
71
65
60
74
66
60
78
70
64
55
49
44
52
46
42
56
52
46
61
57
52
65
61
54
64
60
54
70
64
59
65
59
55
69
65
60
65
62
56
66
63
55
60
56
50
67
63
57
62
58
52
67
60
55
72
65
60
94
89
80
87
78
73
78
72
69
75
70
63
70
66
63
65
65
60
70
68
60
69
65
58
73
68
61
75
70
63
76
71
64
75
73
65
72
70
62
67
64
56
66
63
57
72
68
63
72
68
63
67
65
59
62
60
56
56
55
51
69
67
62
43
44
40
70
70
67
57
56
56
90
87
81
106
106
99
105
98
93
99
96
89
100
95
89
79
76
70
67
66
61
67
65
60
33
30
31
86
84
77
91
83
73
25
25
23
121
120
115
78
77
75
29
27
27
89
87
84
57
50
50
61
61
59
81
79
76
30
30
32
79
81
77
106
98
91
76
74
68
77
79
77
81
83
84
47
47
48
29
28
28
115
113
109
82
79
75
63
61
62
76
76
75
56
56
54
42
41
46
47
47
47
56
54
55
41
39
40
43
40
43
43
41
44
43
41
44
40
41
43
49
48
50
39
43
46
61
55
54
84
84
84
62
62
62
63
62
64
56
56
58
43
43
44
32
32
32
68
68
68
95
93
95
111
112
115
37
38
43
28
29
37
96
91
86
73
72
70
74
73
72
117
114
117
18
15
19
26
23
26
70
69
65
70
68
63
66
61
55
66
61
55
65
62
55
72
68
61
80
74
65
83
78
69
85
79
68
86
80
70
86
81
72
88
83
73
83
73
64
79
69
59
87
79
72
84
77
66
89
82
71
93
85
74
94
86
73
90
84
75
83
79
71
72
69
61
109
102
95
75
71
63
79
76
66
95
93
78
101
97
83
96
91
83
48
44
38
35
30
28
86
78
72
102
92
79
48
43
38
30
29
26
56
55
50
74
73
70
69
69
64
71
71
66
80
80
74
85
85
80
80
80
75
78
78
74
84
84
79
86
84
79
76
75
67
78
77
69
67
65
57
65
62
56
68
64
60
65
61
57
65
60
54
62
56
51
70
65
62
64
60
58
67
64
62
66
63
60
70
67
62
77
73
69
67
63
60
71
67
64
74
72
65
73
71
65
76
74
71
69
66
63
75
72
67
107
103
99
124
119
111
134
128
117
103
98
92
68
64
60
40
37
33
69
66
63
90
87
82
87
84
78
78
78
72
99
92
79
80
74
65
101
94
90
74
72
70
98
95
94
82
76
70
19
17
16
56
51
45
72
67
56
84
79
67
69
64
54
81
76
64
103
99
87
99
94
85
79
74
71
80
74
66
74
67
59
86
73
62
65
60
51
113
102
86
67
59
51
18
15
16
30
28
25
50
46
41
63
58
49
80
74
66
96
90
80
103
96
87
87
78
69
94
86
77
101
94
85
90
86
73
88
82
71
86
79
74
84
77
72
87
81
74
103
98
90
109
103
91
99
92
81
98
91
79
95
88
75
99
89
80
85
77
71
88
81
70
91
83
76
91
86
77
88
83
72
89
84
71
89
85
71
87
82
70
75
71
60
87
85
75
114
111
105
69
65
59
74
69
61
69
64
54
65
60
53
71
68
59
78
75
67
60
56
49
74
69
60
69
64
55
82
77
65
78
70
61
76
67
59
72
64
57
68
61
54
64
58
51
61
57
50
60
57
50
65
62
54
73
68
58
70
65
55
82
74
64
82
74
64
82
75
68
78
71
64
77
71
65
72
66
60
65
59
53
77
71
65
69
63
57
69
63
57
69
66
59
69
66
59
75
70
62
66
64
59
61
59
56
63
61
57
70
66
62
62
58
54
65
63
59
63
61
57
63
58
53
69
63
58
58
55
50
68
66
61
60
58
57
56
55
57
75
70
63
72
70
61
73
69
61
70
67
59
71
70
63
66
65
58
69
67
58
74
72
63
78
73
65
76
72
64
74
71
64
66
64
56
66
64
58
68
66
60
64
62
58
64
62
58
51
49
45
57
56
52
51
50
46
43
42
38
66
66
62
51
52
53
64
64
65
70
71
65
110
105
95
92
88
81
97
94
82
82
79
67
75
73
70
65
64
58
32
30
29
81
78
74
89
81
73
26
24
24
109
110
102
71
71
65
28
28
25
92
88
83
60
53
53
65
66
63
80
79
76
27
32
35
72
75
72
103
97
90
73
71
64
84
85
85
81
84
83
47
47
49
33
32
31
123
120
115
89
86
79
71
70
68
64
62
64
42
40
42
39
38
40
52
52
52
59
59
57
39
39
41
44
44
46
42
42
44
43
45
49
42
43
47
40
42
44
38
40
42
61
58
57
70
72
71
34
33
32
32
32
41
50
50
51
44
44
44
22
22
24
51
50
53
58
58
58
52
52
52
45
43
46
45
45
53
46
46
48
60
60
61
74
74
75
53
53
53
32
30
31
43
42
42
40
40
39
45
45
44
68
63
55
68
62
54
71
68
59
68
65
56
73
68
59
75
69
61
80
75
64
81
76
65
78
73
62
81
76
63
82
72
63
83
73
63
82
75
64
91
84
70
92
86
71
90
83
69
86
81
68
74
72
63
52
51
43
106
101
86
134
128
111
86
83
73
77
74
66
94
91
80
91
86
76
94
89
76
100
94
80
104
95
85
100
91
79
96
87
74
57
53
43
97
97
87
172
172
159
181
182
169
173
175
161
162
164
149
165
168
153
166
168
154
168
170
156
162
164
152
162
164
153
167
168
158
157
157
147
166
163
153
168
166
156
166
164
152
165
163
150
162
158
147
167
162
152
170
164
156
164
161
151
166
163
155
166
165
157
161
161
151
157
155
144
158
156
146
161
158
148
155
152
142
153
151
139
151
148
135
160
156
145
160
154
142
160
154
138
173
167
150
173
168
150
131
126
111
89
85
79
86
83
76
92
91
83
89
86
79
90
88
82
89
86
80
88
87
81
100
93
80
73
66
57
93
87
83
87
87
86
84
85
84
91
85
79
23
21
20
52
48
42
73
68
57
81
76
64
66
61
52
74
69
57
108
104
92
113
108
92
114
110
99
83
77
70
75
69
61
83
71
60
63
57
48
111
98
79
69
63
54
17
14
15
24
22
19
41
36
33
55
50
42
61
56
48
59
54
49
74
68
62
54
46
42
55
49
46
57
51
47
56
51
46
58
54
47
61
57
53
68
64
60
58
52
49
66
60
57
73
67
57
80
73
62
78
71
62
85
77
68
86
76
67
78
71
64
74
66
58
101
94
81
92
85
73
96
89
77
93
86
74
99
92
81
77
69
62
81
76
70
107
104
98
71
68
60
69
66
58
70
65
60
88
83
76
83
79
73
58
56
46
58
55
50
84
79
74
77
72
64
74
68
61
80
75
64
82
77
68
77
72
64
76
71
64
67
64
56
68
65
58
66
64
56
63
61
53
61
58
51
69
64
55
66
61
52
67
62
55
74
69
62
72
68
61
68
63
57
61
57
54
56
53
50
52
48
45
52
48
45
56
52
49
52
49
46
52
47
44
49
44
41
53
46
44
51
49
43
50
49
44
49
48
43
54
50
50
53
49
48
53
52
48
50
48
44
58
55
49
59
57
51
51
48
43
51
47
42
71
69
64
87
85
81
55
51
48
48
47
43
45
44
40
43
40
37
42
41
38
41
39
36
41
39
35
41
39
35
48
45
41
52
49
46
52
50
46
48
46
43
51
48
45
50
48
45
46
44
41
46
44
41
40
39
35
55
53
50
59
57
54
47
46
41
45
44
40
49
51
51
50
50
51
55
56
51
120
115
105
97
94
88
102
99
89
101
98
89
77
75
72
66
65
61
33
31
30
73
70
66
92
85
76
25
24
23
114
116
106
72
72
66
28
27
24
88
84
80
57
50
50
67
67
64
86
85
81
28
33
36
67
70
66
107
101
93
75
73
67
83
84
84
78
80
80
48
47
49
34
34
33
122
118
114
80
76
70
77
77
73
89
88
86
51
49
49
35
35
35
51
51
51
56
56
55
41
40
43
45
45
47
43
42
45
40
41
45
39
41
45
39
41
42
39
41
42
60
58
57
74
75
75
51
50
51
64
66
69
69
69
70
44
44
43
21
21
23
35
35
37
49
49
49
51
51
51
56
58
55
61
61
60
56
54
56
60
58
61
56
55
58
44
43
45
92
91
88
119
118
114
123
123
119
132
133
128
69
64
56
72
66
58
67
62
53
76
71
63
78
71
64
69
65
55
74
67
57
80
72
62
79
71
61
80
73
62
79
72
60
76
69
56
85
78
66
84
77
65
88
81
69
89
82
70
78
73
63
88
84
72
91
87
78
132
128
112
116
111
94
80
78
67
66
62
55
89
86
80
91
88
81
93
89
77
98
93
78
100
91
78
98
91
77
92
85
73
51
48
41
86
83
75
101
99
87
104
101
89
104
99
86
107
103
89
114
110
96
109
105
91
111
107
93
113
109
95
119
114
100
112
108
93
116
115
99
128
128
111
128
127
109
129
127
109
125
121
105
127
123
108
122
119
107
114
112
100
107
104
91
107
105
92
116
114
101
95
93
80
101
99
85
110
108
95
111
108
99
111
108
99
115
113
100
122
119
106
124
116
106
120
118
103
120
118
104
117
115
102
103
102
95
81
79
75
83
83
76
90
90
83
92
91
84
90
88
81
108
108
100
73
71
64
93
89
76
94
88
76
73
67
59
88
83
75
129
121
114
89
77
69
103
89
83
28
25
23
63
58
52
70
65
53
80
76
63
70
64
55
82
77
67
111
106
93
106
99
86
102
100
88
69
65
59
64
59
52
76
64
55
58
54
46
112
100
85
73
65
57
17
14
15
21
19
18
42
40
37
55
53
46
74
69
62
79
72
67
108
103
98
88
83
78
101
98
92
103
99
92
106
103
94
112
109
98
113
107
97
110
104
95
109
104
94
110
104
95
116
109
97
112
104
93
115
108
96
106
99
88
110
103
93
114
107
95
105
97
85
108
99
85
85
78
64
107
100
85
94
85
73
95
86
74
78
71
63
92
90
87
80
79
73
56
52
46
101
98
89
92
87
80
79
76
69
80
77
74
104
100
90
90
85
77
92
87
79
77
70
65
69
64
60
102
97
88
102
98
89
91
86
78
92
87
79
94
88
80
92
87
78
93
88
78
92
87
77
95
89
81
99
93
84
100
94
85
96
92
84
81
76
71
70
65
63
86
81
76
91
85
80
91
85
79
102
100
91
65
61
55
91
86
78
87
85
76
92
88
83
93
90
83
95
90
82
95
90
83
105
102
94
83
80
73
87
83
78
94
90
85
91
88
81
100
97
90
90
87
82
74
71
66
86
83
76
81
78
72
90
88
81
87
82
79
82
76
70
83
79
72
89
85
78
95
91
84
89
86
78
88
85
77
69
65
61
86
82
78
73
72
68
75
74
70
74
70
65
82
78
73
85
84
81
84
83
80
90
87
84
92
89
86
93
93
89
87
87
83
77
73
70
79
76
73
73
70
69
71
71
69
65
64
60
74
73
68
131
127
118
71
67
64
30
29
27
66
64
62
69
67
66
65
63
60
30
26
26
71
67
63
88
81
73
25
24
23
106
110
101
76
74
69
30
25
23
85
79
75
53
47
47
75
74
72
90
88
86
31
32
35
60
62
56
102
97
89
75
72
66
80
83
83
78
81
79
47
47
45
39
38
38
120
116
112
73
67
61
82
79
76
69
67
67
52
51
51
36
36
36
43
43
43
47
47
48
35
35
36
39
39
40
45
45
46
39
38
41
38
38
40
49
49
51
41
41
41
44
43
41
61
60
56
66
64
64
65
67
71
60
60
61
42
42
42
33
31
33
59
59
59
60
61
61
52
54
52
52
54
52
53
51
51
55
50
51
56
51
53
47
47
47
27
27
27
32
30
29
41
39
38
45
41
40
50
46
45
51
48
43
49
46
41
52
49
44
55
52
47
56
51
48
49
47
41
52
47
41
54
50
43
56
51
45
54
50
43
51
47
38
51
47
38
61
56
48
66
62
53
66
62
53
69
65
56
64
59
54
78
73
65
80
75
65
86
81
69
76
72
61
56
55
48
64
60
54
73
70
65
110
107
101
89
87
76
101
96
84
98
91
79
87
83
71
41
37
31
18
13
11
20
16
14
25
21
19
26
23
20
28
25
19
28
25
19
28
25
20
29
26
20
30
27
21
30
27
21
30
28
22
30
27
22
29
27
22
28
27
22
31
30
25
34
33
29
32
29
25
32
29
25
32
31
27
27
26
22
24
23
20
22
21
18
24
24
20
19
19
15
22
20
17
22
20
17
20
18
16
19
18
16
20
19
16
20
19
16
21
18
17
22
19
15
21
19
16
21
20
16
23
21
16
22
21
17
63
60
54
90
86
78
106
101
92
123
119
110
55
54
47
85
83
76
91
87
73
94
87
75
74
68
59
87
82
74
103
92
88
97
83
70
107
91
82
27
23
23
65
60
54
76
71
59
78
73
61
73
68
59
74
68
60
115
109
96
110
103
91
90
88
76
63
59
54
65
60
54
79
67
59
54
49
42
105
94
80
64
56
49
17
14
15
21
19
18
36
34
32
53
51
45
77
71
64
76
70
62
95
90
82
93
87
80
92
89
81
102
100
91
100
98
89
99
97
87
105
100
92
104
97
87
96
93
83
94
91
81
92
88
77
92
88
77
101
97
86
100
96
84
93
89
77
101
97
84
94
90
78
104
100
85
107
102
84
103
96
79
101
91
78
96
85
75
93
89
82
83
81
77
70
70
65
73
70
63
88
85
77
75
70
64
62
58
55
63
60
53
74
71
57
68
62
54
64
57
50
75
68
62
63
58
51
74
69
58
81
75
65
82
76
66
82
75
66
79
72
63
87
80
71
87
80
71
78
72
62
73
66
58
81
75
66
84
77
68
83
78
68
65
60
55
50
45
42
67
62
57
47
42
39
53
49
46
73
70
65
61
58
52
67
62
54
70
68
59
73
67
60
76
70
64
81
76
66
78
72
65
81
78
71
72
68
61
67
63
58
74
70
64
69
66
59
68
65
57
68
64
59
62
58
53
73
70
62
68
65
57
73
72
66
51
50
44
62
61
57
64
60
57
69
65
58
70
66
59
66
63
56
67
64
56
58
54
50
68
64
60
66
65
61
71
69
65
80
76
70
78
74
69
76
74
71
73
71
68
73
69
65
71
67
64
67
67
62
58
58
54
60
60
55
57
56
52
70
66
62
55
54
48
58
56
48
54
52
45
132
129
116
81
78
73
109
110
103
102
103
97
71
69
66
64
62
60
31
27
27
70
66
62
86
79
71
25
23
23
103
108
99
76
74
69
33
31
28
100
92
89
56
50
49
61
60
58
85
82
80
31
32
34
61
63
57
98
93
85
69
66
60
82
86
85
77
79
77
46
47
45
44
43
44
121
116
113
78
70
65
58
57
55
53
51
51
32
29
30
31
31
31
32
32
32
34
31
31
35
32
32
35
35
34
47
47
46
38
38
38
36
36
36
37
37
39
45
45
45
47
47
45
52
51
47
60
59
55
56
58
58
63
63
63
39
39
39
50
48
50
62
60
61
78
75
76
44
41
39
64
60
54
54
50
52
51
49
50
46
44
45
20
19
19
19
19
19
30
29
27
37
34
33
43
39
38
51
47
46
3
3
3
3
3
3
3
3
3
5
5
5
5
5
6
6
6
7
7
5
7
9
7
6
10
7
7
12
9
8
11
10
8
12
11
11
12
11
11
12
11
8
14
11
11
14
11
9
16
14
10
16
13
10
14
11
10
19
15
14
44
42
35
79
77
67
70
67
58
90
87
80
100
97
89
91
87
77
88
86
73
69
68
56
29
26
19
19
15
9
26
22
19
41
38
31
47
46
38
54
53
45
69
68
58
79
78
65
78
75
63
78
76
63
71
68
58
64
61
53
64
61
52
60
57
49
56
51
43
59
54
47
64
58
50
68
66
55
66
63
52
67
64
54
72
71
61
73
71
61
65
62
53
72
69
60
56
53
47
52
50
42
56
54
43
69
68
54
69
66
55
71
68
57
66
63
52
62
58
49
61
58
47
60
57
46
58
53
40
48
45
31
50
47
33
47
44
33
36
32
24
60
56
50
81
78
69
80
77
69
85
82
76
69
68
62
79
79
73
93
85
73
73
63
55
90
86
77
90
81
73
98
85
73
112
95
86
31
25
24
65
60
52
77
72
59
80
75
64
87
82
72
89
84
75
113
107
96
109
102
90
90
87
78
67
61
56
67
60
54
77
63
54
61
56
47
102
93
77
64
58
50
16
13
14
15
13
10
20
19
15
39
37
34
55
50
48
50
45
42
57
54
49
59
56
50
61
58
52
65
61
57
61
58
54
58
54
50
60
56
52
60
56
52
63
57
55
66
60
57
74
69
65
77
71
63
78
70
61
82
74
66
82
75
67
72
65
59
57
54
46
43
39
31
54
48
40
55
50
42
60
55
46
109
106
99
95
93
87
92
91
85
80
79
72
78
77
71
79
77
70
60
58
52
59
57
53
51
49
44
63
61
55
58
55
51
51
49
45
48
45
40
56
52
48
61
57
52
61
56
51
61
56
51
67
61
53
65
62
53
66
63
55
65
62
54
63
60
54
63
60
53
66
62
58
63
59
55
67
64
59
61
57
53
56
53
48
55
51
47
49
46
41
47
43
39
48
46
42
54
52
48
47
45
41
48
47
43
49
45
42
47
43
40
48
46
43
46
44
40
45
43
41
48
46
44
48
47
43
53
52
48
48
47
44
48
47
43
53
52
46
51
49
44
62
61
55
49
48
42
45
45
41
32
33
28
39
39
37
35
34
32
44
40
37
45
42
39
39
39
35
45
45
41
50
47
46
49
47
45
55
56
51
52
52
48
63
60
57
62
59
56
60
59
56
56
55
52
55
52
48
54
51
51
52
52
50
44
44
43
45
46
44
44
44
43
45
45
41
46
46
42
55
53
50
49
47
44
128
125
112
63
60
55
87
89
81
68
68
64
73
71
68
66
65
59
29
27
26
59
57
53
78
69
64
27
22
23
104
106
99
75
75
70
31
30
28
92
88
80
57
52
49
66
65
61
82
79
74
27
29
32
64
66
61
99
94
84
68
65
60
83
83
83
75
77
74
45
45
45
47
46
46
118
114
108
80
74
68
56
53
52
80
76
73
30
29
29
36
36
35
31
29
27
31
31
28
33
33
31
35
35
35
43
43
43
41
38
41
37
35
38
34
33
37
38
35
37
64
63
60
50
47
44
50
47
45
64
66
67
61
61
63
37
36
38
30
30
30
64
63
61
55
53
52
53
50
49
59
56
56
51
48
49
45
45
45
19
19
19
8
8
8
10
10
10
16
14
12
20
18
16
25
23
22
26
24
22
20
20
19
23
23
22
23
23
22
24
24
22
24
24
22
25
26
23
23
21
19
35
34
29
38
36
30
42
40
34
40
37
32
56
53
48
60
57
50
55
52
42
51
45
40
27
25
23
24
24
20
84
83
72
74
72
63
27
22
21
80
78
68
83
79
66
81
77
67
76
71
62
84
81
71
90
86
76
63
61
51
22
21
11
24
20
14
27
23
18
48
45
39
80
78
69
175
176
166
190
192
180
154
157
140
175
178
156
172
174
150
171
172
148
168
169
148
155
154
134
134
133
115
148
145
127
124
119
108
140
133
123
114
108
104
101
99
91
134
131
121
108
104
94
116
115
104
131
126
116
120
116
104
127
122
112
138
132
118
161
156
135
144
141
124
148
146
129
160
157
138
159
155
136
161
158
135
170
167
142
171
168
146
171
168
146
116
115
97
83
80
62
94
92
71
75
73
55
60
57
44
47
43
35
62
59
51
85
82
73
80
77
69
66
63
58
58
57
51
91
85
72
73
64
52
96
90
84
89
80
71
103
90
77
117
100
91
35
30
27
76
72
64
89
85
71
95
91
76
106
102
89
98
94
82
118
112
100
122
115
100
114
112
100
78
72
66
77
70
64
79
66
55
81
75
68
107
96
80
63
57
49
14
12
13
17
15
13
25
23
19
64
63
59
62
59
55
81
77
73
104
101
95
96
93
87
108
104
99
98
95
88
92
89
82
94
89
81
98
89
79
103
92
82
99
87
77
104
91
81
100
89
78
105
94
78
104
91
75
108
93
78
111
97
82
96
81
68
97
83
69
80
70
58
64
56
50
82
79
74
108
105
98
91
87
80
88
87
81
94
93
87
96
94
87
82
80
74
68
67
62
61
60
54
54
53
48
17
15
14
15
13
13
17
14
14
18
16
16
19
17
17
17
17
16
16
16
15
19
16
17
20
18
18
21
18
16
20
18
16
19
18
16
18
18
16
17
16
16
17
16
16
18
17
16
18
17
16
18
17
17
18
17
16
16
15
15
17
16
15
15
15
14
17
16
15
17
14
15
15
12
13
16
13
14
16
13
14
15
14
15
18
16
17
19
17
17
19
17
17
19
17
16
19
17
16
20
18
15
20
18
15
20
18
19
20
18
19
19
17
15
19
17
15
25
23
22
18
16
14
16
16
16
14
14
14
13
13
10
13
13
10
13
12
12
13
12
12
12
12
12
14
14
14
15
13
12
16
14
12
20
19
19
12
11
12
12
12
13
12
11
13
10
12
13
12
14
15
13
13
16
13
12
19
12
11
16
12
11
15
11
11
15
11
11
14
11
10
12
10
10
11
9
7
9
13
11
12
136
131
121
64
62
59
97
97
90
74
75
70
74
72
69
74
73
67
30
28
27
59
57
52
85
76
68
29
24
21
93
95
88
71
71
66
32
30
28
91
88
80
58
53
50
67
66
62
87
83
79
29
30
32
64
66
61
91
86
75
65
61
57
80
79
79
73
76
73
46
46
46
50
50
50
120
116
110
80
73
68
55
52
51
61
58
55
29
28
29
30
29
28
31
29
27
30
31
28
34
34
32
40
37
35
45
42
40
37
36
35
37
34
35
33
32
35
35
32
34
44
42
39
65
62
59
51
48
47
63
65
67
64
64
66
34
33
35
29
29
30
41
43
40
46
48
45
56
59
56
49
51
51
39
41
41
15
15
14
8
8
8
13
13
13
14
14
14
19
17
16
21
20
18
23
20
20
24
21
20
62
60
56
63
61
57
65
64
58
72
70
65
68
67
60
66
65
59
65
64
57
57
56
47
57
56
46
56
56
46
53
51
41
75
74
65
74
70
62
61
56
48
70
61
55
44
40
38
72
71
61
107
103
88
128
123
113
88
82
77
80
78
70
85
81
69
70
65
56
83
78
69
91
88
75
72
71
62
22
18
12
28
25
19
29
26
20
40
36
30
106
101
92
160
161
159
232
234
230
170
174
165
185
189
176
180
186
164
178
183
160
180
181
159
189
191
168
200
200
180
159
158
139
172
168
146
161
156
142
200
195
175
160
155
143
157
154
136
169
167
150
159
154
136
166
162
141
176
171
149
152
151
130
166
160
147
166
160
137
165
163
140
156
157
145
159
162
145
173
176
155
186
189
167
170
171
149
191
192
169
184
183
159
166
166
143
98
96
83
86
84
68
60
59
50
53
52
44
40
37
33
61
54
46
46
42
35
73
70
61
104
100
87
95
91
78
93
91
80
85
78
69
75
65
55
97
91
85
88
80
72
101
87
77
116
101
90
40
33
31
76
71
64
93
87
77
100
95
83
106
101
89
102
96
86
116
111
97
119
112
96
110
106
94
79
72
67
75
69
63
79
65
54
71
67
61
98
87
77
58
51
45
16
14
12
14
12
12
23
21
20
36
34
32
40
37
34
55
51
48
65
61
58
67
63
59
76
74
67
70
68
61
77
73
70
64
60
56
59
56
50
57
54
49
68
67
61
69
68
62
69
66
62
65
61
58
66
63
58
65
63
57
72
69
62
70
66
59
69
64
58
54
48
44
104
98
94
103
100
97
83
82
75
91
90
83
96
95
88
104
100
95
104
101
94
77
74
68
53
52
50
63
62
57
15
13
11
18
16
15
28
26
26
36
34
34
39
38
34
39
37
34
44
40
36
41
37
37
42
41
37
40
39
35
40
37
34
38
35
32
37
37
32
37
37
32
35
32
30
35
32
30
34
33
29
34
33
30
35
33
30
33
32
29
32
30
27
32
30
27
29
27
24
34
32
30
32
29
29
24
22
22
28
27
26
27
27
26
26
29
24
28
30
25
28
27
25
30
29
27
27
28
26
27
27
26
29
27
26
34
32
29
32
31
30
34
33
31
30
28
24
26
25
21
37
36
32
26
24
21
31
29
28
63
62
57
48
45
41
21
17
16
18
18
16
17
18
15
20
18
16
19
17
16
21
19
18
26
24
22
26
24
23
50
49
48
28
28
30
31
31
33
29
32
35
30
33
34
32
34
37
33
35
38
32
35
37
29
32
35
35
39
43
30
31
33
33
33
33
16
16
17
16
16
17
22
22
23
134
129
120
66
64
61
97
95
87
73
77
70
71
70
65
66
64
60
31
28
28
57
54
50
76
70
60
27
23
19
88
90
85
74
71
65
33
30
27
91
87
78
59
54
52
62
60
58
77
72
70
32
31
33
63
64
60
95
91
79
70
66
60
80
79
77
72
74
71
45
45
45
54
55
53
117
113
105
82
76
72
69
66
61
54
49
45
20
21
22
28
28
28
30
29
29
34
32
31
36
33
32
55
50
49
68
62
59
51
49
47
37
35
33
34
32
31
34
32
30
35
34
30
41
36
34
61
59
56
70
71
73
70
68
69
35
33
34
18
18
18
41
42
39
56
55
55
58
58
58
39
39
39
11
11
11
13
11
10
45
43
41
49
46
43
40
37
34
28
26
25
34
31
30
32
27
26
36
30
30
21
21
24
24
25
27
21
22
23
24
24
24
26
25
25
26
25
23
29
27
26
38
36
32
33
32
28
46
42
39
55
51
42
70
65
58
55
52
45
53
48
41
67
59
54
52
47
45
42
41
35
54
48
43
66
60
52
51
45
40
86
85
77
94
89
77
90
82
74
85
77
68
84
80
71
30
29
23
23
23
17
52
50
45
69
67
62
69
66
59
111
106
97
186
186
184
205
206
200
155
158
162
210
212
212
188
192
181
206
210
192
214
214
196
215
216
198
229
228
212
152
148
130
154
150
128
128
125
111
176
175
152
166
162
144
182
180
156
202
202
179
205
199
176
207
204
179
218
214
192
199
197
180
160
154
145
173
166
147
179
177
165
189
190
184
177
176
168
214
216
201
220
223
207
218
219
202
217
217
201
199
198
182
153
151
133
96
93
82
67
64
57
30
28
23
102
102
91
59
59
55
98
95
86
103
100
91
60
57
52
63
57
50
63
57
50
58
55
46
85
82
71
74
65
55
105
99
92
103
97
88
101
91
80
117
103
92
45
38
35
81
75
68
105
100
89
104
99
87
106
102
90
106
101
87
119
115
97
117
110
95
110
106
94
74
68
62
70
64
58
77
65
55
67
63
58
80
74
66
59
52
49
14
12
11
15
13
12
26
24
22
36
34
33
76
73
70
53
49
46
75
71
68
76
73
68
84
80
73
80
77
69
93
90
82
81
78
72
82
79
70
84
82
69
84
82
71
87
86
75
80
76
68
83
80
71
79
74
65
78
73
64
82
78
69
78
71
63
82
74
67
66
57
52
71
64
59
66
64
59
81
81
74
95
94
88
102
100
94
99
96
90
75
72
68
61
58
54
69
68
64
14
11
10
20
18
17
45
43
41
52
50
48
55
54
50
60
58
51
60
58
50
65
59
49
63
56
50
62
57
49
66
61
52
65
59
50
65
59
51
55
53
45
54
52
45
54
50
45
52
48
43
53
49
45
53
49
45
53
51
46
52
51
45
55
53
48
54
52
47
43
40
35
46
44
39
45
43
37
43
41
35
49
45
40
46
42
37
42
40
34
42
40
35
44
41
38
45
43
40
44
44
41
47
47
43
47
45
42
52
50
44
57
53
48
55
51
47
44
43
39
33
32
28
45
43
39
39
37
33
37
35
31
15
13
13
34
30
26
62
58
52
27
27
25
26
27
24
33
31
29
32
30
28
43
41
40
43
41
39
32
30
28
43
41
40
37
37
36
40
40
39
42
42
42
40
39
41
41
43
44
41
43
44
40
44
44
40
44
44
42
45
44
43
46
44
66
68
65
53
54
50
55
55
53
50
50
48
134
127
119
72
71
68
94
94
86
74
75
68
74
73
67
74
73
69
36
33
33
66
63
59
89
83
73
31
27
23
90
90
85
77
73
68
36
32
30
89
83
75
60
56
54
57
57
55
77
73
71
31
30
31
55
56
51
96
92
81
71
68
61
77
76
74
69
70
68
45
46
45
57
57
55
116
112
104
82
75
70
59
56
51
56
51
48
22
22
23
29
29
29
30
29
30
35
33
31
36
34
32
55
50
49
71
64
61
46
43
42
35
33
31
36
33
32
36
33
32
38
34
31
41
34
32
67
61
58
71
69
69
68
66
67
35
33
34
19
19
23
26
26
27
25
25
25
30
30
30
26
26
26
20
20
19
34
32
31
48
46
44
70
64
60
73
66
63
36
33
32
39
36
35
35
27
23
40
32
29
35
35
36
35
35
36
30
32
30
33
36
32
48
49
45
62
63
58
59
57
54
51
49
42
48
46
39
61
59
51
51
47
40
70
66
59
75
71
64
52
48
43
63
58
51
58
55
48
44
42
37
49
46
41
46
43
36
30
31
24
77
74
67
95
87
77
95
88
77
92
85
74
87
83
73
35
34
30
26
25
21
67
66
59
74
71
61
81
78
69
124
122
108
134
133
115
175
179
163
245
248
247
249
249
254
241
241
240
248
248
242
247
247
240
249
248
241
219
221
213
172
168
149
152
148
127
115
111
107
166
165
148
198
197
180
244
244
226
242
241
221
241
240
215
241
239
218
198
195
181
220
216
200
153
147
140
133
128
113
183
183
174
232
233
226
229
229
223
249
249
246
252
252
249
251
250
247
251
250
247
251
250
244
199
199
186
90
89
83
27
25
24
22
21
17
26
24
20
18
18
16
52
48
43
51
46
41
63
61
55
80
78
69
85
83
71
85
83
71
89
85
76
76
67
58
115
108
101
104
97
88
104
96
83
118
106
92
45
40
35
82
77
67
99
94
80
105
101
86
112
108
93
108
101
89
121
114
99
118
111
97
108
104
94
71
65
60
64
58
53
92
83
73
56
54
50
113
103
95
73
66
61
12
12
12
13
14
10
26
24
23
48
46
44
55
54
49
66
65
59
72
71
65
74
73
67
82
79
71
80
77
69
79
75
68
84
80
73
85
80
72
88
83
72
87
82
75
86
82
72
79
73
65
83
77
69
82
76
68
82
76
68
86
78
69
81
74
66
101
94
84
64
56
47
61
56
50
40
37
31
84
82
76
89
88
81
93
91
85
60
59
54
51
50
47
79
77
73
16
14
14
18
15
16
44
41
41
64
62
59
69
65
61
72
69
58
77
72
62
80
75
65
80
75
66
84
79
69
85
80
68
82
77
65
85
77
68
80
76
66
79
74
64
63
57
50
68
65
55
68
65
55
64
59
51
68
63
56
64
59
54
66
62
56
61
58
49
68
65
56
65
60
52
65
59
51
55
48
41
52
45
39
66
61
51
62
56
47
60
54
47
59
54
46
59
57
49
61
58
51
59
56
51
60
59
52
64
60
55
70
67
61
71
68
61
72
68
61
62
60
54
40
38
35
58
54
50
56
52
47
41
36
33
63
56
48
113
103
87
67
64
57
35
33
29
30
28
24
40
39
35
47
45
41
58
54
50
38
36
35
20
20
20
34
33
34
37
37
38
38
38
38
37
34
35
36
32
33
37
36
35
36
37
36
34
32
33
35
33
33
35
32
32
35
34
33
41
40
39
51
51
50
62
62
60
46
47
42
133
126
116
74
73
68
92
92
82
73
72
67
61
60
53
61
60
55
44
42
42
50
47
44
73
67
60
34
30
26
64
61
56
70
67
63
46
43
38
71
66
60
60
56
52
55
53
49
76
72
67
30
29
27
42
42
38
71
67
57
68
65
59
76
76
73
69
70
68
47
48
47
58
56
55
119
113
105
86
76
70
59
55
52
65
59
56
23
23
24
33
28
28
35
31
31
35
30
30
38
33
32
63
60
55
72
66
60
41
36
35
38
36
35
39
34
32
41
36
34
39
32
29
36
32
31
65
57
56
68
67
68
66
65
68
32
32
34
18
18
22
28
27
29
39
37
38
38
36
37
31
30
31
23
23
23
39
37
37
26
24
24
35
32
31
47
44
43
35
34
34
28
28
25
34
28
26
35
29
26
39
39
39
41
41
41
38
36
35
41
40
37
47
48
43
54
55
48
73
72
66
63
61
56
44
41
37
87
86
72
77
74
65
80
77
68
72
70
62
58
54
48
62
59
50
55
54
45
37
37
33
154
156
145
114
108
95
50
45
37
71
68
62
105
97
86
92
85
73
90
83
72
85
81
71
37
36
32
26
25
22
72
71
63
64
61
51
75
73
63
78
76
67
84
82
70
128
131
122
233
234
236
227
227
226
164
166
155
171
170
154
171
170
149
177
174
158
156
155
146
119
115
102
78
73
62
91
88
85
63
60
55
178
175
161
175
175
161
175
176
163
144
145
127
142
142
125
136
134
124
196
189
176
96
91
84
115
108
101
88
89
85
156
159
157
148
152
148
177
179
168
188
190
177
191
192
176
195
197
181
181
182
168
140
139
126
50
49
43
22
20
19
22
20
17
26
24
21
20
19
18
50
45
41
57
50
45
58
57
49
86
85
73
82
79
70
79
76
67
90
85
77
75
65
59
120
114
103
113
107
97
108
100
87
119
107
93
44
40
35
89
84
74
105
101
86
110
105
92
108
104
90
110
104
93
118
111
97
117
110
94
108
105
92
74
68
63
70
64
59
81
73
62
59
56
51
114
105
91
71
64
56
13
13
13
13
13
10
15
13
11
18
17
15
20
19
17
29
27
26
51
49
47
49
47
46
46
43
42
50
46
46
52
48
45
56
52
49
58
55
52
54
50
49
52
48
46
50
47
42
54
51
48
53
51
47
56
53
48
54
52
47
54
49
45
52
48
44
42
38
32
46
42
37
26
23
22
17
15
12
48
47
43
88
86
80
58
57
52
39
38
34
84
83
78
21
19
18
24
22
23
30
28
29
60
58
55
71
70
62
78
75
64
83
80
69
80
75
64
91
86
75
92
87
76
94
89
78
94
89
76
93
88
75
93
86
76
86
82
71
87
82
71
83
78
69
79
76
65
87
84
72
79
74
64
80
75
65
83
79
70
78
75
66
71
68
58
70
67
57
70
65
53
75
69
58
72
63
52
70
61
50
78
72
61
80
75
63
80
75
64
77
72
63
78
73
62
74
69
58
78
73
64
76
72
64
74
71
62
80
76
67
78
75
65
81
78
67
77
74
64
67
63
57
68
65
58
61
58
51
72
67
61
100
94
79
74
70
59
27
28
26
36
35
31
40
38
34
44
43
39
50
49
45
75
71
66
36
35
34
34
34
31
52
53
49
49
50
47
49
49
46
54
54
51
52
52
48
57
58
54
56
55
51
51
50
46
51
50
47
54
53
51
51
49
48
50
50
48
54
54
52
68
68
65
70
71
68
121
112
102
75
72
68
97
97
89
79
78
74
37
35
33
36
34
33
23
21
20
40
38
35
58
51
47
34
30
27
37
35
31
36
33
32
32
31
28
50
46
42
36
32
30
46
46
43
71
67
63
27
27
25
39
38
36
79
75
66
67
64
58
76
75
73
70
71
68
47
47
47
57
54
53
126
119
112
88
77
70
51
47
44
59
53
51
24
24
24
33
27
26
36
31
30
36
33
29
41
37
33
42
38
33
74
67
61
40
34
30
45
38
35
41
31
30
37
27
26
46
34
32
42
34
34
64
55
55
68
67
69
63
64
63
30
30
29
18
18
20
27
26
30
39
36
37
33
31
31
34
33
33
26
26
26
35
33
34
37
35
36
41
39
38
35
33
32
49
45
43
31
27
28
39
36
33
40
38
34
46
46
44
47
47
45
40
40
39
56
56
52
60
61
55
69
70
63
70
69
61
70
69
62
70
67
60
84
82
68
75
72
64
74
71
63
54
52
48
55
53
47
57
51
48
59
55
51
36
41
38
130
130
121
89
78
67
45
39
32
82
80
75
103
97
86
96
88
77
89
82
71
90
84
74
42
38
35
25
23
18
69
68
59
60
57
49
71
67
61
92
90
79
94
93
82
117
119
104
222
224
214
147
148
137
118
118
104
138
129
114
131
122
107
133
128
111
102
100
88
58
53
47
56
52
48
64
63
61
48
45
43
81
75
67
74
70
64
54
51
47
53
49
45
74
71
68
60
58
55
47
45
40
64
63
55
107
99
95
23
23
22
75
77
78
94
98
98
111
109
100
113
110
98
112
110
99
113
111
99
106
101
90
85
80
71
31
28
25
25
23
21
24
21
22
29
27
27
23
23
22
59
57
50
66
58
52
56
55
49
60
56
56
104
100
92
77
71
58
93
85
77
73
64
59
126
120
109
131
125
112
107
100
88
116
105
91
45
41
36
77
74
64
92
90
80
102
99
90
86
83
74
101
99
84
119
112
96
114
107
93
105
101
91
73
67
62
72
66
62
79
69
59
58
57
52
111
102
86
69
61
53
14
11
12
15
13
10
18
16
14
27
25
23
40
40
37
59
59
55
70
68
64
74
73
69
81
80
75
82
81
75
81
80
74
84
83
77
81
80
72
83
81
74
86
83
78
81
78
73
70
71
64
76
76
70
86
82
73
85
81
70
85
79
71
91
85
76
78
73
66
51
45
39
28
25
22
44
41
37
28
25
22
48
47
41
40
38
35
58
57
53
21
20
16
28
26
23
34
32
33
40
38
35
54
54
46
70
67
58
70
67
55
81
76
65
80
73
65
99
92
78
96
92
79
98
93
81
102
95
84
98
90
79
97
90
81
91
87
77
89
86
76
85
82
71
88
83
71
96
91
79
83
80
70
85
82
72
81
79
69
88
86
76
83
78
66
80
75
63
76
69
58
77
70
59
74
65
55
81
72
62
90
83
70
92
86
72
91
87
75
90
86
74
90
85
74
88
83
72
86
81
69
85
80
68
85
80
68
88
84
72
85
82
72
88
85
74
91
90
75
101
99
84
83
81
68
85
83
72
67
64
58
53
49
44
24
23
19
29
27
23
39
38
31
49
47
41
61
60
54
66
65
59
71
68
63
37
35
34
31
29
28
59
58
57
58
57
55
43
41
40
41
41
39
42
42
40
43
43
42
40
40
39
36
36
35
46
47
45
57
56
55
54
52
52
58
57
55
106
105
103
61
59
58
111
109
108
115
106
97
70
66
62
55
54
49
67
65
63
69
68
66
53
49
48
22
20
19
72
71
67
77
73
69
26
24
23
117
114
102
67
65
60
42
40
37
79
71
64
51
44
44
64
64
61
80
73
69
32
30
28
70
70
67
100
95
86
68
65
59
74
73
71
70
70
66
49
48
46
55
52
50
131
125
115
88
77
69
53
50
48
60
54
52
36
33
33
62
55
50
43
37
37
33
26
24
37
34
30
42
34
32
69
61
57
41
34
32
36
29
27
29
21
20
54
38
36
78
64
61
53
43
39
58
48
48
67
65
65
64
61
60
30
29
28
19
19
21
26
26
28
33
33
35
29
28
27
37
34
35
29
28
29
36
34
33
31
31
28
38
37
35
35
34
32
33
29
28
32
28
27
34
32
31
38
36
34
44
45
42
43
43
41
35
35
34
54
55
51
66
67
60
61
62
55
82
81
73
72
71
62
82
79
70
98
94
84
71
66
58
76
71
63
61
60
52
64
63
57
54
48
42
56
53
47
40
46
42
150
150
141
87
77
65
39
33
27
82
81
76
102
96
85
94
87
76
91
84
73
89
83
72
42
37
33
29
27
22
72
71
62
64
61
54
76
72
65
87
84
75
93
90
81
112
109
99
107
106
93
84
83
72
91
90
79
102
96
85
101
95
84
98
93
82
76
74
65
46
42
37
67
63
59
60
59
56
50
47
46
90
82
75
82
77
73
71
66
62
67
62
56
82
78
69
55
52
48
51
51
46
72
68
61
93
83
80
42
43
43
100
101
103
68
72
72
90
87
79
94
92
79
94
91
81
91
88
78
87
82
71
67
62
53
39
37
33
24
22
20
23
20
21
31
28
29
23
23
23
54
51
44
62
54
47
59
57
51
73
70
62
92
89
79
83
80
66
88
83
74
69
61
56
119
113
101
120
115
101
104
97
85
113
102
88
36
32
27
46
42
38
74
71
66
95
90
86
67
65
59
46
46
42
91
87
80
113
106
94
100
95
87
73
67
62
71
65
61
76
68
57
58
57
51
107
98
81
73
65
57
14
11
12
15
13
11
27
25
23
34
32
30
42
39
34
54
51
45
63
62
58
84
82
78
85
84
78
88
87
80
92
88
82
93
90
84
88
87
78
89
87
78
91
85
77
92
86
78
89
86
77
88
85
76
95
87
77
94
86
73
93
87
74
99
93
81
89
84
75
43
38
31
42
43
38
82
77
67
82
79
69
36
34
31
62
58
57
58
54
52
32
31
27
43
42
38
47
45
42
54
53
45
68
67
58
63
60
52
75
72
64
104
99
90
107
102
92
115
108
98
89
84
73
102
97
85
103
96
84
101
94
83
98
91
82
94
90
80
90
87
76
96
93
83
92
87
75
92
87
75
88
85
75
85
82
71
89
84
73
82
77
66
83
78
67
87
82
70
81
73
62
83
75
64
82
75
63
88
80
69
92
85
71
94
87
73
97
90
79
99
91
80
97
91
80
92
87
76
89
84
72
91
86
74
94
89
77
96
91
79
86
83
73
87
84
73
81
76
67
70
65
58
71
68
59
68
65
57
63
59
54
59
55
50
39
37
33
38
36
32
51
50
44
64
63
56
64
62
56
71
70
63
78
74
69
48
46
45
42
40
39
58
56
55
60
59
58
67
66
65
67
67
66
64
64
62
68
68
65
68
69
66
59
59
57
57
57
56
72
70
69
74
73
71
70
69
67
62
61
59
52
51
50
83
82
78
115
104
93
86
81
77
73
73
70
80
80
77
91
91
84
73
69
65
25
23
22
80
79
75
77
74
69
27
25
24
104
99
84
65
62
52
48
46
43
87
79
72
56
48
48
72
72
70
84
78
73
32
30
28
78
77
75
106
101
92
67
63
57
75
74
72
68
67
63
47
46
44
52
50
47
132
126
116
91
79
71
35
32
30
57
54
53
58
53
53
62
56
52
70
62
59
38
31
28
37
33
30
41
33
31
68
61
57
36
29
27
33
27
25
40
34
31
72
54
48
80
67
63
66
56
51
56
45
46
66
64
65
65
61
60
31
30
29
20
20
22
27
27
29
35
35
37
32
31
30
36
33
34
28
26
27
39
36
36
45
40
39
44
40
36
37
33
30
35
31
30
31
27
26
19
17
15
31
30
28
51
51
49
54
54
52
57
58
54
61
62
57
74
73
66
90
89
83
69
68
59
76
75
66
93
91
82
93
88
77
75
72
62
80
76
66
70
66
58
67
63
56
51
45
39
58
54
52
40
42
37
132
131
124
81
75
65
39
34
30
82
80
73
98
92
83
96
89
78
91
84
73
90
84
72
45
41
34
29
28
24
67
66
58
63
60
50
76
74
65
85
82
72
87
83
74
109
105
95
111
108
97
99
97
89
65
64
56
64
63
55
66
65
56
68
64
58
57
53
48
36
34
30
71
66
60
47
44
41
53
48
45
104
96
87
87
82
76
72
69
68
100
96
90
89
85
79
57
54
52
45
43
39
75
69
59
88
79
73
42
44
41
85
88
87
54
57
56
84
82
76
97
90
82
91
88
78
90
87
77
83
81
69
66
63
53
36
34
30
24
22
20
23
21
18
30
28
28
22
21
19
54
52
44
62
57
50
62
59
51
82
77
66
80
76
65
73
70
59
88
85
75
69
60
55
108
102
91
120
113
102
101
93
83
108
98
88
28
26
23
48
45
39
95
91
81
110
103
91
84
80
74
46
45
46
98
93
84
107
100
88
89
85
76
65
61
56
56
52
47
71
63
54
49
44
39
110
99
82
72
62
52
13
11
14
17
15
15
25
23
22
35
33
32
42
40
36
49
46
43
70
67
64
76
75
72
83
83
78
81
80
75
81
79
74
82
80
72
81
78
70
81
79
71
81
78
72
79
76
71
78
75
70
75
72
66
78
73
68
75
70
63
79
77
67
82
79
70
73
71
63
58
53
46
64
60
55
77
72
63
123
118
104
64
60
58
54
51
46
113
110
101
35
34
31
63
61
59
73
71
66
81
77
72
58
55
48
70
66
59
64
62
53
62
59
51
83
79
70
86
81
71
87
81
72
91
86
76
96
91
81
97
92
82
97
91
79
90
87
74
90
88
75
88
85
72
90
85
73
96
91
79
92
89
79
87
84
73
86
81
70
79
72
65
84
79
68
93
88
74
94
87
73
93
86
73
92
85
73
98
91
79
100
93
80
101
94
80
97
90
79
96
89
78
97
90
79
97
89
78
93
87
74
91
88
74
92
87
75
98
93
81
93
88
76
89
83
74
68
65
55
68
64
57
68
65
57
68
65
57
63
60
52
60
57
49
60
56
51
57
54
48
48
44
39
62
59
53
67
64
58
69
65
60
73
70
63
51
50
45
58
56
55
76
74
72
75
71
69
78
74
70
86
83
77
82
80
74
78
76
71
75
76
70
76
76
71
75
76
70
74
74
69
69
69
64
81
81
77
71
71
67
80
80
76
66
66
63
127
116
106
83
78
71
94
96
93
73
74
72
83
82
75
67
65
60
25
23
23
79
78
74
77
74
71
30
29
29
121
118
103
70
66
56
52
49
48
86
80
74
58
51
49
69
70
65
85
81
74
33
30
27
78
78
74
106
102
92
69
65
59
77
76
74
70
69
67
49
47
48
51
52
48
132
125
114
90
78
68
29
25
25
63
61
60
67
61
58
63
57
55
90
81
77
59
50
45
34
29
27
36
29
27
62
56
52
33
28
27
31
27
25
41
37
33
74
58
47
72
59
53
70
63
57
50
42
39
67
65
65
63
59
58
31
27
26
20
20
22
27
27
29
35
32
35
34
32
31
36
34
35
27
25
27
41
37
38
48
45
42
38
35
34
36
34
32
34
32
31
30
28
26
29
27
27
32
30
28
49
49
47
43
43
41
57
58
53
56
56
50
64
62
56
68
67
61
69
67
59
62
60
51
72
70
61
89
85
73
69
66
55
78
75
65
70
66
57
57
53
45
58
52
45
59
55
53
38
39
37
123
122
114
77
71
60
37
32
29
82
79
72
100
93
84
94
87
76
89
82
71
88
81
69
48
44
38
37
35
32
71
69
62
64
61
52
77
74
65
104
100
91
81
77
67
109
106
94
132
127
117
91
88
81
54
53
48
55
54
46
60
59
51
57
53
48
48
45
40
37
35
32
82
77
71
47
44
41
50
46
43
95
86
77
79
74
68
72
70
68
74
70
64
89
85
79
62
59
57
49
47
43
82
76
66
86
78
71
27
28
25
80
83
83
49
53
51
84
81
75
90
83
75
89
85
75
87
83
73
91
88
77
82
79
69
42
40
36
22
20
19
24
22
18
30
27
27
23
22
20
50
47
40
53
50
43
58
55
46
90
85
72
86
81
70
65
62
52
92
90
80
73
65
60
113
107
95
112
107
92
106
99
84
112
102
89
31
29
24
49
46
36
104
100
85
115
107
90
108
104
93
74
72
66
97
93
82
106
101
88
89
87
78
70
66
61
58
54
49
70
64
55
45
41
34
101
90
73
71
61
51
14
11
13
16
14
13
20
19
17
29
27
25
86
84
80
107
107
102
113
114
108
115
113
108
116
112
106
103
100
92
119
114
103
117
113
99
118
116
98
111
108
90
109
106
89
107
104
87
103
100
84
109
104
88
118
111
95
110
103
87
102
96
84
116
108
97
120
112
92
112
101
82
103
89
78
82
76
68
129
124
110
52
49
46
69
65
60
108
102
92
39
37
34
60
58
57
63
62
56
94
90
85
94
91
84
77
72
65
51
48
42
63
59
53
75
72
64
79
73
64
80
75
65
88
83
73
92
87
77
91
85
76
92
86
75
91
87
75
90
87
75
85
82
70
91
86
74
85
80
68
94
91
80
93
90
80
88
83
72
78
73
64
87
82
71
91
86
72
95
88
75
97
90
76
101
94
79
100
94
78
102
95
81
102
95
81
103
96
81
101
95
80
99
92
81
98
90
79
95
89
76
90
87
73
93
89
77
94
90
78
94
89
77
87
82
72
70
67
58
77
73
67
70
66
59
70
66
58
73
70
62
67
64
56
60
57
49
71
68
59
62
59
50
83
80
71
91
87
78
86
82
73
78
75
65
50
49
41
48
46
43
61
60
57
57
54
51
57
54
49
60
58
51
62
60
53
60
56
50
54
51
45
54
51
46
56
54
49
49
47
42
49
46
41
73
71
67
72
69
64
65
64
59
67
66
61
124
113
103
80
76
68
88
90
87
81
83
81
80
79
71
66
64
58
25
23
22
69
67
63
80
76
70
34
33
30
101
97
86
70
66
58
47
45
44
81
75
69
58
50
49
71
72
67
86
82
75
31
28
25
73
73
69
104
101
90
70
67
61
74
73
71
70
69
67
50
49
49
60
60
56
134
127
115
95
82
73
29
25
25
57
54
54
74
67
65
59
51
48
23
17
14
56
53
47
53
49
46
55
48
46
50
44
40
53
49
44
55
51
47
48
43
40
44
34
28
80
69
59
77
70
67
52
43
40
64
61
61
63
59
59
32
28
27
20
20
21
27
26
29
34
31
34
33
30
30
37
34
35
26
24
26
41
36
38
40
36
34
40
39
34
37
36
31
38
36
34
29
27
25
32
31
29
44
42
38
44
45
42
45
46
43
58
58
55
64
65
58
65
64
56
61
59
51
73
69
62
58
53
45
72
70
60
86
83
73
71
68
58
76
73
63
74
71
60
55
52
46
68
62
54
59
56
52
36
39
37
119
120
113
69
65
56
33
30
26
81
78
73
98
92
84
88
83
74
89
84
75
85
79
67
48
44
36
39
36
31
78
75
66
68
62
56
73
67
61
89
84
76
95
90
80
97
95
84
110
105
92
85
79
72
47
44
41
47
43
38
48
44
39
46
44
38
48
47
42
35
31
29
74
70
66
39
36
33
51
47
44
97
85
77
83
77
71
79
76
69
75
70
65
92
88
82
63
62
59
49
47
43
81
74
66
87
79
72
33
34
31
78
80
83
46
49
49
76
73
68
91
84
77
86
81
74
84
78
71
88
85
76
76
72
64
50
47
42
21
20
20
24
22
19
29
27
27
24
23
23
52
49
44
50
47
40
62
58
49
82
77
63
93
86
74
68
62
54
95
91
81
74
68
61
115
110
97
105
102
90
111
103
91
111
102
89
39
36
33
63
60
55
115
107
93
111
101
86
107
100
85
87
81
72
103
96
88
100
94
86
80
77
71
65
60
56
57
53
48
77
71
64
56
51
43
97
90
75
74
65
57
13
10
13
16
14
13
16
17
14
31
31
29
50
48
46
41
40
39
42
42
39
48
48
45
58
58
54
64
65
57
64
65
59
70
69
63
62
58
53
60
56
51
65
60
54
68
63
57
71
66
59
80
75
69
71
67
61
75
71
61
90
87
77
99
95
86
111
103
85
127
115
93
132
119
96
68
62
53
103
98
91
64
61
55
72
68
63
94
87
78
41
41
38
56
56
54
63
61
58
77
72
66
91
86
79
86
81
71
66
61
54
60
54
47
70
66
58
77
74
66
84
79
70
85
80
70
86
83
72
86
83
72
86
83
73
90
87
77
88
83
73
89
84
74
89
84
73
87
82
71
97
92
83
102
98
88
92
88
78
86
81
72
94
90
75
92
88
74
104
97
83
101
94
81
106
96
86
104
95
81
111
102
89
107
98
85
103
96
83
105
99
85
100
95
82
97
92
79
99
94
82
98
93
81
96
91
79
97
92
80
89
84
75
82
77
69
72
68
61
76
72
66
68
65
57
73
70
62
78
74
66
73
70
62
69
66
55
72
70
59
73
68
61
82
76
69
82
79
69
74
71
61
78
72
67
50
46
42
39
37
35
53
51
48
54
49
47
47
43
41
46
43
40
49
46
43
52
49
45
45
42
37
39
37
31
46
44
39
46
45
39
42
39
35
73
70
66
41
37
33
46
44
38
71
69
62
119
107
96
81
75
69
88
91
86
89
92
88
81
76
70
74
68
64
26
23
20
69
66
61
87
79
76
33
30
29
125
121
110
74
70
61
40
38
35
83
78
70
61
54
52
72
72
68
84
81
74
30
31
27
73
73
71
104
99
91
73
69
63
75
74
72
70
70
68
49
49
49
65
63
58
131
123
109
100
87
79
35
32
30
25
21
19
62
55
51
55
48
45
35
29
27
119
106
96
37
26
21
54
37
29
47
33
29
49
34
25
54
35
25
68
43
33
44
31
28
72
56
50
41
34
31
37
31
28
74
71
69
69
65
68
32
28
30
20
20
20
28
28
31
34
34
35
34
34
33
36
35
36
22
21
23
46
42
44
40
37
32
38
35
34
41
38
36
38
33
31
30
27
28
31
31
30
41
41
38
46
47
44
42
42
40
34
35
32
51
52
44
61
61
52
65
64
56
67
65
57
56
54
45
70
68
57
81
79
68
66
63
53
80
77
68
71
68
58
52
49
43
74
68
60
58
55
50
34
37
36
123
124
118
67
63
53
33
30
27
80
77
71
90
84
75
84
79
69
84
79
69
86
80
68
46
42
35
39
35
30
68
65
57
67
62
55
81
76
69
89
84
76
84
79
68
108
107
93
117
113
96
81
75
67
43
40
37
42
39
33
42
39
33
43
41
35
51
49
43
51
48
43
57
53
51
21
18
16
47
43
40
96
84
76
83
76
70
66
63
55
66
61
56
86
82
76
61
60
57
50
48
42
82
75
65
85
79
68
38
39
33
45
44
42
58
55
58
69
67
62
89
82
74
89
84
73
87
82
72
90
87
78
73
70
62
52
49
44
21
20
20
24
23
19
28
26
26
23
21
22
46
43
38
52
48
41
66
62
53
95
90
76
96
90
76
87
82
67
96
90
80
74
68
60
116
110
98
125
117
102
116
108
94
109
100
88
35
32
29
89
84
72
115
110
95
109
103
88
111
106
91
98
93
86
102
97
88
100
95
87
74
72
66
59
54
50
48
42
39
58
51
50
62
55
53
90
83
69
70
61
53
13
10
13
14
12
12
15
16
13
21
21
19
28
26
25
29
26
24
48
44
42
46
42
39
47
43
41
62
60
52
51
49
40
57
54
47
50
43
39
55
46
44
57
48
46
53
46
42
47
42
36
58
54
46
59
54
51
52
47
39
59
54
50
43
40
36
63
60
53
67
60
49
60
54
45
114
110
96
136
127
113
62
56
49
59
54
49
84
76
69
50
50
45
60
60
55
66
64
60
75
70
64
87
82
75
90
85
74
84
78
71
68
63
56
64
61
53
79
75
67
84
79
69
84
78
69
81
78
68
81
78
68
85
82
72
83
80
70
84
79
69
91
85
76
92
87
75
86
81
70
84
79
69
82
77
67
91
86
77
99
94
84
99
95
80
113
109
95
99
92
79
96
89
76
102
92
82
107
99
85
107
101
87
103
97
84
105
98
85
103
96
83
97
92
83
89
84
75
93
88
76
94
89
77
89
85
72
91
86
74
84
79
69
77
72
63
80
77
67
86
83
74
81
78
70
78
75
67
75
72
64
74
71
63
78
75
65
85
82
72
80
74
67
86
80
73
85
82
72
86
83
73
86
80
72
53
48
47
44
41
38
61
58
55
66
61
60
61
56
55
58
55
53
63
60
58
64
62
58
58
55
52
57
55
50
67
65
61
67
66
62
62
59
56
84
82
78
72
68
65
67
66
60
81
79
72
133
121
110
84
78
72
93
95
91
81
83
79
79
75
68
76
70
66
28
25
22
69
65
61
84
75
72
33
31
29
121
117
108
75
71
61
42
40
38
106
100
94
64
57
57
68
68
65
90
86
80
33
34
30
67
67
66
103
98
89
69
65
59
71
70
68
70
70
68
49
48
48
66
64
59
126
117
102
99
89
76
50
44
39
70
63
60
29
24
23
33
27
25
35
29
26
91
77
67
40
28
24
51
37
29
48
30
26
51
36
27
71
44
31
71
40
28
38
23
19
36
22
20
48
37
30
67
61
51
67
63
60
64
60
59
35
32
31
21
20
20
29
28
31
32
32
34
32
32
31
34
32
34
20
19
21
48
45
46
43
40
36
41
38
37
38
35
34
40
34
33
31
27
28
30
30
29
41
42
39
41
41
39
37
38
35
48
48
46
68
69
63
59
58
53
59
58
53
77
75
71
73
72
63
71
68
58
79
76
67
65
62
55
83
79
72
69
65
62
74
71
64
65
59
50
56
53
48
34
36
35
119
121
114
66
62
53
33
30
27
81
79
73
106
101
89
90
81
72
87
81
70
85
79
67
49
45
38
37
34
28
66
63
55
69
64
56
72
67
59
79
73
67
86
81
70
94
91
79
115
108
91
79
73
66
40
37
35
39
35
32
40
36
33
40
36
32
49
46
40
71
68
64
91
89
83
16
14
11
43
41
37
84
76
66
73
68
62
62
61
55
69
66
60
80
77
73
57
57
56
50
47
41
84
74
64
84
75
66
29
28
22
111
109
101
59
58
58
65
61
58
85
79
71
85
80
70
85
80
70
91
88
77
76
73
63
51
48
45
19
18
16
22
22
21
26
26
26
23
23
21
55
51
45
69
61
56
69
63
55
93
89
76
92
87
72
84
81
66
97
91
79
73
67
60
99
92
85
122
115
103
114
107
89
109
99
86
24
21
17
53
48
41
53
50
45
59
57
52
37
36
31
32
31
27
98
92
84
105
98
89
79
76
72
57
52
48
48
41
37
111
104
94
109
102
89
97
93
81
60
55
46
12
12
12
13
13
14
17
15
13
21
19
18
28
26
25
37
35
33
38
35
32
34
35
30
45
42
39
49
45
43
49
45
41
53
50
46
41
37
35
47
43
40
52
48
46
49
46
43
41
40
36
48
48
43
56
49
43
52
47
41
72
64
59
58
55
52
54
53
50
63
56
48
53
48
44
91
87
80
107
98
85
56
49
42
54
51
46
77
76
66
50
48
46
59
57
52
63
59
55
77
72
67
84
79
70
85
80
70
78
75
67
77
73
66
72
69
61
76
73
65
84
81
71
80
77
67
80
77
69
79
76
68
80
75
65
83
78
68
88
83
71
96
91
80
101
97
86
79
74
62
87
82
70
91
86
75
100
95
83
102
97
85
108
101
88
107
101
85
111
104
89
117
111
95
118
111
96
117
111
95
122
116
101
107
100
87
114
108
95
111
104
91
117
110
97
101
94
81
117
110
98
108
101
87
108
104
90
92
87
77
82
77
68
90
85
75
87
82
72
85
80
70
84
79
70
81
75
66
83
78
68
76
71
62
82
77
67
88
83
74
83
80
69
84
81
71
86
82
70
83
78
66
75
70
61
48
45
40
53
50
48
67
64
62
65
62
57
68
66
60
68
65
59
69
66
61
73
70
66
70
67
63
59
58
52
58
57
51
57
53
50
61
61
56
82
81
77
90
89
84
73
71
67
82
77
73
123
112
100
81
77
69
90
91
88
85
86
83
68
65
60
74
71
65
27
25
25
66
63
60
83
75
69
31
30
26
119
116
105
75
71
63
37
37
35
104
101
94
58
53
53
66
65
63
81
79
74
35
34
33
61
61
58
99
95
86
69
65
59
77
76
74
71
70
68
49
48
48
64
63
57
128
119
106
81
70
60
53
43
38
80
70
63
60
53
47
52
37
32
54
40
30
90
74
61
48
30
23
51
33
22
49
34
22
51
34
24
59
36
28
59
39
32
41
25
20
53
35
29
77
68
60
76
67
65
59
49
45
57
48
44
35
29
28
23
20
21
30
27
26
32
28
29
32
28
29
34
32
32
23
22
23
40
37
39
33
31
30
32
30
30
40
38
34
41
36
33
32
28
28
32
32
31
39
40
36
51
51
49
57
58
54
84
86
76
70
71
64
87
86
81
60
59
53
74
73
66
85
84
73
73
71
60
93
90
80
73
71
60
79
76
66
59
55
52
69
66
59
78
72
64
56
53
48
32
34
33
121
123
116
65
61
51
32
29
26
79
77
74
78
72
65
94
88
75
90
85
70
84
78
66
52
48
41
39
36
30
64
61
52
67
61
53
71
66
58
77
71
64
90
86
75
95
92
80
107
100
84
74
68
61
38
35
32
38
34
31
39
35
31
38
34
30
50
46
40
47
44
38
47
44
41
20
17
16
41
38
36
84
76
67
79
74
68
63
61
56
71
69
63
78
76
70
51
51
50
48
45
39
84
74
64
81
73
63
37
36
30
84
81
74
50
48
47
61
58
54
78
72
63
84
79
69
86
81
71
94
91
80
76
73
63
49
46
43
19
18
16
21
21
20
25
25
25
22
21
20
50
46
40
65
57
53
66
60
53
86
81
71
88
84
68
77
74
60
96
90
77
76
71
62
112
107
97
108
103
88
110
103
86
109
99
86
20
17
14
40
35
27
42
40
35
60
59
55
37
37
33
36
36
32
101
95
88
108
98
90
83
80
74
73
69
60
67
61
52
67
64
57
65
61
58
78
73
62
67
62
54
12
12
11
13
12
14
17
15
14
22
20
19
28
26
25
30
28
25
38
34
33
36
37
33
42
39
36
48
44
42
57
52
48
64
60
56
47
44
41
42
39
35
49
45
41
46
43
39
53
52
48
65
64
59
60
54
49
55
50
45
65
56
51
54
50
46
55
53
50
71
65
57
62
57
53
68
62
57
92
83
70
53
47
39
54
52
46
83
82
72
49
47
45
61
59
54
61
57
53
66
62
57
85
80
71
87
82
73
77
74
66
71
68
60
75
72
64
68
64
57
79
76
66
79
76
65
76
72
64
78
75
67
82
77
67
85
80
71
92
88
76
98
94
84
81
76
64
80
76
64
85
80
68
95
90
78
95
91
79
101
96
84
105
98
85
116
109
93
108
102
86
112
105
90
115
108
92
118
112
96
112
105
93
104
97
83
108
101
88
107
100
87
101
94
80
97
90
76
109
102
88
95
88
75
91
86
75
97
92
80
82
77
66
92
87
77
87
82
72
84
79
69
87
82
73
88
83
74
84
79
69
77
72
62
83
77
68
89
84
75
87
84
74
88
84
74
83
78
67
93
88
76
85
80
71
52
49
43
50
47
43
70
66
63
72
69
64
73
70
63
78
74
67
83
79
72
78
75
68
74
71
65
70
69
63
64
63
57
63
58
51
76
75
66
88
86
77
89
85
76
80
76
68
99
93
85
105
93
82
111
106
100
123
121
116
109
107
102
78
73
69
77
71
66
30
27
27
70
68
63
86
78
72
31
30
26
114
110
99
77
73
65
35
35
33
101
98
91
59
54
54
81
80
78
85
82
77
38
37
36
59
59
56
104
101
92
68
65
59
77
76
74
72
71
69
46
44
45
58
57
52
124
116
102
82
68
56
63
50
44
93
83
74
74
67
61
48
33
27
56
41
30
104
83
68
74
53
46
56
34
21
58
39
25
60
40
28
60
38
27
69
43
32
58
33
24
67
46
33
82
69
63
82
69
59
65
57
51
75
64
59
36
30
28
21
19
18
51
40
40
52
42
43
48
38
38
48
41
40
33
31
34
56
55
53
60
58
55
41
39
38
41
39
37
42
37
34
32
29
28
28
28
27
40
40
37
31
32
27
47
48
44
67
68
61
56
57
51
61
59
56
64
63
58
71
70
62
61
61
52
70
66
58
68
65
56
53
50
44
50
46
40
36
35
29
74
72
63
77
69
61
59
54
50
31
33
32
122
124
117
63
59
50
30
27
24
69
67
63
96
91
85
72
65
58
70
63
54
91
85
73
56
51
44
39
34
28
64
59
49
63
58
48
75
70
62
73
68
59
93
88
76
99
94
78
116
106
91
81
73
67
37
35
29
33
31
27
33
32
28
34
32
29
44
42
37
79
76
71
92
89
83
22
17
15
42
38
35
81
73
67
74
68
65
68
65
62
69
66
60
73
69
65
49
48
47
45
43
36
80
73
62
79
70
64
19
17
14
99
95
86
65
62
57
58
57
49
74
70
60
75
70
60
80
75
65
80
76
68
74
70
63
49
46
43
18
17
15
22
23
21
23
23
23
22
20
20
45
38
35
73
66
59
65
59
49
81
76
64
79
75
61
69
65
53
91
83
73
80
73
65
101
97
83
100
92
80
109
100
85
103
93
81
17
14
12
38
36
31
46
45
41
64
62
60
40
38
37
43
42
39
111
105
97
107
100
90
92
88
81
90
84
74
80
74
65
79
75
69
70
66
62
98
89
75
60
53
48
12
10
11
14
12
14
15
15
13
20
20
17
31
29
28
34
32
31
43
39
36
45
42
39
50
46
42
58
54
48
59
54
48
72
66
61
57
53
50
67
64
58
62
59
53
63
60
55
57
54
51
60
57
52
60
56
54
71
66
63
67
62
58
56
52
50
61
58
55
68
62
53
56
52
48
69
65
60
98
86
76
59
49
42
55
52
47
82
79
70
51
49
47
59
58
53
57
54
51
66
60
58
87
83
77
80
77
68
73
68
62
73
68
57
73
68
59
62
57
48
70
67
59
78
75
67
77
74
66
79
76
68
80
77
67
88
85
75
92
90
81
72
69
59
75
72
62
82
79
69
89
84
74
89
84
74
92
88
76
98
93
81
106
100
89
109
104
89
110
104
89
119
113
98
117
110
96
110
103
89
112
105
91
101
94
80
104
96
85
105
98
87
105
98
87
101
94
83
101
96
84
97
92
80
105
98
88
102
95
85
85
80
70
93
88
78
88
85
75
86
82
72
88
81
70
89
86
73
82
77
67
79
74
64
88
81
69
90
83
72
92
86
75
91
88
75
81
77
65
83
78
66
75
67
59
57
51
46
58
54
47
79
75
70
79
72
69
73
69
65
69
70
65
66
66
61
66
63
60
69
66
64
62
63
59
65
64
60
65
61
56
64
60
56
86
84
72
87
83
74
80
77
70
80
78
69
103
91
78
92
86
79
74
69
67
68
63
60
90
85
78
81
76
69
33
29
28
69
64
60
83
75
70
33
30
30
106
102
91
69
65
58
32
31
30
89
86
79
62
58
57
85
84
82
85
82
78
38
36
36
57
60
55
97
94
87
64
61
58
74
74
73
72
71
70
45
44
44
54
53
48
122
113
100
90
74
65
67
55
49
75
67
62
72
64
59
40
30
22
49
33
26
106
87
80
81
59
51
61
37
26
63
40
28
67
42
30
67
43
26
79
47
31
68
36
24
72
47
37
64
55
51
64
55
50
78
70
63
75
62
53
37
29
27
26
21
22
36
26
26
112
106
105
99
94
90
85
77
73
38
36
39
54
54
54
46
47
46
57
56
55
49
47
49
33
30
31
35
33
32
31
29
29
41
39
36
42
43
40
37
38
34
59
60
54
57
58
51
69
67
63
69
68
63
69
68
62
61
58
51
65
62
55
62
59
51
38
35
29
46
42
37
43
41
37
64
63
53
81
73
65
64
59
54
31
33
32
113
116
109
58
54
45
34
31
28
89
88
81
88
83
74
77
72
63
71
64
56
81
75
63
54
49
42
39
37
30
51
47
40
61
57
49
69
64
56
82
75
65
94
88
76
94
89
75
111
101
85
73
66
56
34
31
29
31
29
25
32
30
26
30
29
26
39
38
33
87
84
76
79
77
67
21
17
13
50
45
42
79
70
65
68
62
59
73
69
66
67
64
59
71
67
63
51
49
49
43
41
34
76
69
59
78
70
64
20
18
16
82
76
67
60
56
51
56
56
48
71
67
57
80
75
65
80
75
66
86
83
75
69
66
59
48
45
42
17
16
14
18
18
17
21
21
21
21
18
19
43
37
33
55
48
41
63
57
47
76
71
59
85
81
66
70
66
54
96
88
79
78
71
63
102
98
83
118
110
93
117
109
91
100
90
77
16
13
11
34
32
27
45
44
40
60
58
53
39
38
33
44
42
38
100
93
85
104
96
86
84
79
73
64
57
53
53
46
41
77
70
63
40
39
36
89
80
69
61
55
47
13
11
12
14
12
14
15
16
13
21
21
18
28
26
25
40
37
36
53
49
46
45
41
39
53
49
45
54
51
44
55
48
42
57
51
46
51
46
42
58
55
48
65
62
55
42
39
35
59
55
52
56
51
45
48
43
41
48
43
41
66
61
57
42
38
36
53
49
45
61
56
47
56
52
48
70
65
60
85
75
65
57
50
42
57
54
49
83
80
72
49
47
45
54
52
48
56
53
50
68
61
59
78
74
67
81
78
69
82
77
67
82
77
66
73
68
58
71
66
57
67
64
56
75
71
63
76
73
65
76
72
64
82
79
69
93
91
81
78
75
65
80
77
67
79
76
65
82
79
69
84
79
70
90
85
76
92
87
75
96
91
79
98
93
84
98
94
82
108
101
90
104
97
85
111
104
90
109
102
89
110
103
90
103
96
83
105
97
86
105
97
86
109
101
90
104
97
86
98
93
81
101
96
84
96
89
78
102
94
84
92
87
77
92
87
77
92
89
79
89
85
75
93
86
75
92
88
76
87
82
72
80
75
65
85
78
67
93
86
75
93
87
75
95
91
78
85
80
68
94
89
77
74
66
57
56
51
45
50
47
38
67
64
54
66
57
53
58
52
47
64
59
52
68
61
55
67
62
53
72
67
59
67
65
57
61
60
51
56
51
45
51
44
39
91
86
74
60
54
44
54
50
43
89
86
77
113
106
91
72
70
63
13
10
11
21
17
17
31
27
26
37
33
30
37
33
31
67
63
57
84
76
71
33
30
31
107
103
93
73
69
62
31
30
29
87
84
78
61
57
56
81
80
77
92
90
85
39
38
38
62
65
60
97
95
87
62
60
57
73
74
72
69
68
68
45
44
43
48
46
43
115
107
95
77
63
50
87
77
68
82
73
64
68
63
55
37
29
22
55
37
30
103
78
67
81
54
42
64
41
26
66
43
28
76
49
34
79
52
33
100
63
42
77
39
25
76
46
34
84
71
63
77
68
55
76
67
59
76
62
54
37
30
28
31
26
24
44
34
31
79
75
73
73
67
66
52
43
43
40
40
39
40
40
40
57
58
57
45
43
43
29
26
30
28
26
27
44
42
40
56
52
50
52
47
43
39
39
37
35
35
33
44
42
38
52
51
45
57
55
49
58
55
48
66
62
57
49
46
41
45
42
35
58
55
47
55
52
45
51
49
41
43
40
37
74
73
64
85
79
69
60
57
50
33
35
37
114
115
109
60
57
46
22
22
18
80
78
71
90
85
73
83
78
66
80
73
62
85
79
67
50
46
39
39
35
30
62
56
46
65
60
50
92
85
74
104
98
78
117
108
89
117
109
93
120
107
89
81
74
64
33
29
27
33
31
30
28
26
25
32
30
28
43
41
37
93
87
78
85
79
71
21
17
13
58
54
51
82
74
69
74
68
66
102
97
89
96
91
83
87
83
76
55
52
51
40
38
34
78
70
62
79
72
66
16
17
14
92
87
78
59
56
51
54
51
45
74
68
61
72
67
57
78
73
63
79
77
70
83
82
75
46
44
41
15
12
11
24
22
20
28
26
25
62
60
55
56
50
43
60
53
49
61
59
50
77
72
60
80
75
61
73
68
57
94
89
78
77
71
64
108
103
90
114
108
92
114
107
93
102
94
82
42
42
40
87
86
82
80
79
74
80
78
69
71
69
62
77
75
68
93
88
80
101
93
84
82
77
70
57
52
47
53
48
44
71
65
58
45
42
39
105
95
87
67
59
52
12
12
10
13
13
12
16
14
12
23
21
19
25
23
22
27
25
24
33
30
27
40
36
34
37
35
33
35
34
30
41
37
32
50
46
40
38
35
30
54
50
47
50
47
41
43
40
34
43
39
34
60
57
52
45
41
38
40
35
32
42
39
36
34
32
28
39
35
34
58
52
49
56
52
48
66
62
57
90
80
70
52
44
39
60
59
52
82
81
73
54
50
46
65
61
55
66
62
57
74
70
66
79
73
68
85
83
73
81
76
66
79
74
65
81
78
69
75
71
63
76
68
62
73
69
61
77
74
64
80
77
67
92
89
79
79
76
65
80
75
66
81
76
66
78
73
66
75
69
62
77
74
64
85
82
72
91
88
78
93
90
79
94
89
78
97
93
79
93
88
76
96
91
78
95
88
75
100
93
80
106
98
87
108
101
90
106
98
88
106
98
88
104
100
88
102
97
86
101
94
83
100
93
82
94
88
77
98
92
80
84
79
69
90
85
74
91
86
76
88
83
74
88
83
73
89
84
74
88
81
70
83
75
64
86
78
67
89
82
68
94
87
75
95
87
76
89
82
69
106
99
86
86
77
67
51
42
38
55
48
42
80
73
64
85
74
67
82
71
63
83
72
66
83
73
66
82
75
66
77
71
62
72
67
57
75
69
60
66
61
54
61
57
50
92
90
76
98
91
81
79
72
67
87
81
74
110
103
92
49
47
39
17
14
14
20
19
15
29
25
25
46
41
40
36
32
30
62
59
55
80
74
68
35
31
28
93
89
80
74
70
64
31
30
29
86
83
76
65
61
58
71
70
66
87
84
80
40
39
37
66
66
63
96
92
84
65
61
58
72
70
70
65
66
65
41
42
41
45
43
41
115
107
98
73
60
47
82
70
60
75
67
59
41
37
33
35
27
24
65
46
34
156
133
109
115
89
72
69
44
30
75
50
36
81
52
35
84
55
34
140
109
81
81
40
24
74
49
36
77
69
58
78
64
53
86
74
65
63
53
47
33
29
27
33
28
26
72
57
53
71
65
59
62
56
51
47
38
36
35
36
36
29
29
29
44
44
44
35
35
35
24
24
24
29
27
28
44
41
42
58
52
50
48
43
39
40
41
36
46
47
41
47
45
41
57
56
50
61
60
53
65
62
54
65
61
51
68
63
54
62
59
51
57
54
46
56
52
45
65
60
53
54
49
42
74
68
58
74
69
58
55
51
44
30
33
35
113
114
108
59
56
46
20
21
18
79
77
71
91
86
74
90
85
73
92
85
74
84
78
66
51
47
40
38
33
28
105
99
81
91
87
74
77
72
60
101
96
77
97
91
74
110
98
79
133
118
99
94
87
79
27
24
22
29
27
25
28
26
24
33
31
28
46
45
38
95
88
79
80
74
66
19
16
12
58
54
51
86
77
72
53
48
45
85
80
73
78
73
64
74
70
63
56
53
51
41
38
35
79
72
63
78
72
66
15
15
12
83
78
69
60
57
52
51
49
43
75
68
61
73
68
58
75
70
60
84
82
72
80
79
70
46
45
43
21
18
16
25
23
20
26
24
22
40
40
34
55
52
44
65
57
51
60
58
49
83
78
66
83
79
65
83
78
66
96
90
80
76
71
64
105
100
88
111
105
90
111
104
90
104
96
84
29
28
25
69
67
61
80
78
71
88
86
77
86
83
75
64
61
53
93
87
79
101
93
83
80
76
69
58
54
49
55
50
46
72
67
59
57
54
50
105
96
84
66
59
49
12
12
9
12
12
11
16
14
12
19
17
15
25
23
21
28
26
24
36
32
28
37
33
29
35
33
31
35
33
29
43
40
35
51
48
43
38
35
29
47
43
39
48
45
40
46
42
37
41
38
32
46
42
36
44
40
37
37
32
29
36
33
30
31
29
25
47
43
40
60
56
53
51
47
43
67
63
56
91
81
72
48
41
35
66
65
57
78
77
70
52
48
45
66
62
56
69
64
60
73
68
64
75
69
62
84
81
72
87
82
72
84
79
70
80
76
68
76
72
64
73
65
59
74
70
62
80
77
66
98
96
87
78
75
65
78
75
65
78
73
64
81
75
66
79
73
66
80
75
68
80
77
67
81
78
68
87
84
74
92
89
78
93
88
78
92
88
75
97
92
79
93
88
76
97
90
77
100
93
80
99
91
80
102
94
83
102
94
84
105
98
88
98
93
81
100
95
83
101
94
82
100
93
82
93
90
77
91
88
76
92
87
76
89
85
74
92
87
79
88
82
75
87
82
72
88
83
73
86
79
68
84
77
66
88
81
70
92
85
70
98
88
74
97
87
73
105
95
80
118
109
93
99
88
73
57
46
41
67
52
42
89
73
60
98
79
66
99
80
67
97
82
70
97
82
71
99
88
76
100
90
79
88
81
72
91
83
74
87
77
67
84
77
67
99
95
81
85
76
65
58
51
45
71
66
60
98
90
80
54
49
45
23
21
18
112
109
100
75
73
62
58
54
53
39
35
33
55
51
49
74
68
63
35
31
28
85
81
72
72
68
62
34
33
32
88
85
78
63
59
56
71
70
66
77
75
70
38
37
36
70
71
68
92
87
80
64
60
57
72
71
70
64
65
63
39
40
39
43
42
39
113
105
96
79
66
51
75
64
51
74
62
56
48
39
35
33
24
22
72
52
40
152
121
91
75
48
31
74
50
35
80
54
40
85
56
39
88
59
38
121
90
65
86
46
31
77
50
42
51
43
37
96
82
72
70
58
49
56
49
42
37
32
30
35
31
26
51
35
33
53
41
39
45
33
30
44
34
32
31
32
32
28
28
28
49
49
49
46
46
46
23
23
23
29
26
27
47
45
45
38
31
28
41
36
32
34
32
29
46
45
42
56
54
51
54
52
49
56
55
48
64
63
55
70
64
57
65
61
53
61
60
51
57
56
48
56
51
47
53
50
43
63
57
47
70
63
52
75
70
59
49
45
38
29
30
29
105
107
102
54
55
47
19
18
18
77
74
70
92
86
74
87
81
72
90
84
74
79
73
63
50
44
38
42
38
32
95
91
78
96
87
72
92
82
71
98
87
68
106
95
77
104
87
76
90
73
65
107
99
99
21
20
18
29
27
25
28
26
25
34
32
28
50
46
40
98
94
84
87
79
71
21
15
14
55
51
46
83
77
69
52
50
45
74
70
64
84
77
69
72
69
61
53
50
46
39
37
34
80
73
64
78
71
65
14
15
11
85
79
70
60
56
51
46
44
39
72
70
60
74
69
57
73
68
59
91
75
67
79
54
52
45
42
43
42
39
35
44
37
32
46
42
37
31
28
25
68
62
54
79
72
63
60
58
52
85
80
69
81
76
66
74
69
58
94
89
79
75
70
63
109
104
92
116
110
96
114
107
93
103
97
84
24
20
18
74
72
59
88
85
72
89
86
75
88
86
75
81
79
68
95
90
81
99
92
82
87
82
75
61
57
52
57
53
48
70
64
59
59
56
52
109
97
83
69
60
51
14
12
12
13
10
12
14
14
13
17
18
14
21
21
19
31
27
25
34
30
29
39
35
33
42
38
35
46
42
40
52
48
45
62
58
55
48
45
39
49
46
40
52
49
43
54
50
46
52
48
46
50
46
40
59
55
54
42
39
34
41
37
33
45
41
38
59
56
52
54
50
46
53
49
46
72
66
59
95
85
76
47
39
34
65
62
55
79
75
68
52
48
45
69
65
58
66
61
56
78
73
69
71
68
61
83
80
71
90
85
76
84
79
69
83
77
68
76
70
61
74
69
59
80
75
67
97
92
86
72
69
61
78
73
63
78
73
63
78
75
67
77
73
65
75
72
63
80
76
67
81
78
70
82
78
70
87
82
73
92
87
78
90
87
75
89
86
75
82
77
66
87
82
70
90
85
74
88
83
72
93
86
77
93
86
77
98
94
82
101
98
85
99
94
82
99
94
82
98
93
81
98
93
81
95
90
78
94
90
78
78
75
64
63
60
52
74
72
65
86
83
76
88
81
70
92
86
72
83
76
65
85
77
66
91
82
69
95
87
71
102
90
76
97
87
72
103
93
80
89
79
66
98
84
70
59
45
38
74
56
45
98
76
63
90
63
52
86
65
50
89
73
58
90
71
56
93
70
57
87
69
55
79
69
54
82
72
57
83
68
56
80
69
57
85
77
64
93
81
69
79
72
60
74
67
60
118
108
96
78
73
70
29
26
26
38
37
33
86
80
74
70
64
59
39
35
34
58
54
52
75
68
63
33
29
26
90
85
78
74
65
60
38
37
35
84
81
74
63
57
55
78
77
73
89
85
81
39
40
38
66
66
64
93
88
80
61
58
55
75
76
74
68
67
66
42
41
41
42
42
40
114
108
101
67
54
45
34
27
22
63
52
46
68
58
52
50
41
36
66
49
39
75
52
39
78
54
39
82
54
37
86
58
41
95
61
46
94
63
41
104
61
41
95
52
34
82
53
41
119
103
90
79
70
64
47
41
36
57
49
43
39
32
31
32
26
24
50
36
33
53
37
34
50
33
30
49
37
34
30
29
32
43
43
43
60
59
59
50
50
50
32
32
32
25
22
24
49
46
46
38
34
30
40
35
31
34
32
30
41
39
37
42
40
37
52
50
47
64
64
56
63
62
54
71
68
60
62
62
53
53
52
44
58
57
49
52
50
42
70
66
56
65
59
45
75
68
55
72
66
55
51
46
39
31
32
29
93
102
98
47
50
42
17
17
17
77
74
70
84
78
67
82
76
67
83
77
68
79
73
63
38
33
27
33
28
25
54
49
42
82
74
61
79
74
66
115
95
77
102
87
75
101
69
58
84
58
51
113
104
104
20
19
17
27
25
23
28
26
24
38
36
33
51
46
40
96
91
81
88
79
71
21
16
14
55
50
45
83
76
68
57
54
49
67
64
58
62
56
46
62
57
49
47
44
40
39
36
33
80
73
64
79
72
66
14
15
11
63
58
49
55
51
47
34
35
29
66
65
55
78
74
61
74
69
59
97
70
60
90
49
47
48
45
43
18
16
14
25
23
18
33
30
27
18
14
12
46
41
36
58
52
44
59
57
51
77
72
62
78
73
63
77
72
61
98
93
83
70
65
57
107
102
89
114
108
94
112
106
91
102
96
83
22
19
16
32
30
27
54
52
50
57
54
52
42
39
36
44
41
38
103
97
89
98
91
81
84
80
73
66
62
57
59
54
50
69
63
58
49
46
41
102
90
76
68
59
50
15
12
13
13
10
12
14
14
13
16
17
13
20
20
18
31
28
26
47
45
42
48
44
42
55
51
49
54
51
48
53
49
46
55
52
48
60
56
50
60
57
50
50
46
41
54
50
47
65
60
59
62
59
52
63
60
55
46
42
40
43
39
36
58
55
52
70
66
60
69
64
59
55
49
46
75
69
61
97
88
78
42
35
30
66
63
56
77
74
66
50
46
43
65
61
54
61
57
52
71
67
62
71
67
61
84
81
72
85
80
71
87
82
73
79
74
65
80
75
65
76
71
61
101
96
87
75
70
63
72
69
61
78
73
64
78
74
64
78
75
67
79
75
67
79
76
65
81
78
67
79
76
68
87
84
75
85
80
71
88
83
73
89
86
76
92
89
78
87
82
70
94
90
78
97
92
79
97
93
80
99
92
83
103
95
86
95
91
79
93
90
78
91
86
74
96
91
79
92
87
75
91
87
75
93
88
76
91
86
74
76
73
64
85
82
76
121
118
114
75
71
65
83
78
66
87
80
66
86
78
67
85
78
67
91
81
69
91
82
66
99
87
73
96
84
69
91
77
62
95
80
66
101
83
66
67
49
38
84
56
41
116
85
67
113
78
62
114
85
65
117
97
74
110
91
70
102
84
65
100
86
67
94
84
64
80
69
49
84
68
51
84
71
54
85
77
58
92
81
64
79
69
56
80
69
63
113
103
88
63
58
52
97
90
88
114
110
107
58
54
51
69
62
58
37
34
32
56
51
50
76
68
63
34
30
27
90
85
78
74
66
61
40
38
37
89
85
78
62
56
53
66
65
61
76
71
67
37
38
36
61
61
58
94
88
80
62
60
56
76
77
75
68
67
66
43
42
42
43
43
41
113
107
100
51
42
36
14
11
11
54
48
45
67
60
57
37
30
24
90
70
53
184
152
117
151
122
93
91
58
38
96
63
42
104
65
43
114
71
43
148
89
49
121
70
40
85
55
43
104
88
75
37
32
28
13
9
8
59
51
44
47
42
38
29
23
21
45
31
28
51
34
31
48
31
28
51
41
38
26
27
30
48
48
47
33
31
31
25
25
25
24
24
24
25
22
23
47
43
43
33
29
25
38
33
29
83
82
75
79
79
71
56
55
49
57
56
49
65
64
57
63
62
55
66
65
58
63
62
54
59
55
50
57
53
49
46
43
36
57
55
44
57
52
42
72
67
55
74
67
57
56
47
42
27
31
32
62
82
80
40
44
37
18
17
17
73
75
69
80
77
66
79
73
61
83
77
65
77
71
61
38
33
28
35
32
28
51
47
42
66
61
56
62
60
54
83
78
68
71
64
55
110
106
90
83
78
67
56
50
45
21
20
19
26
24
23
29
27
25
41
37
34
55
52
43
92
87
75
85
75
66
22
18
15
54
50
46
85
75
68
58
53
48
107
104
93
110
103
91
92
88
78
46
44
40
39
37
33
81
74
64
77
72
61
14
15
11
71
68
60
53
49
45
33
32
28
57
53
44
75
72
59
71
68
55
104
93
76
93
82
72
54
50
48
10
9
7
14
14
11
24
25
22
14
12
12
39
37
34
50
46
39
61
61
53
76
70
57
80
73
61
74
68
57
98
92
82
68
63
56
110
104
92
112
106
94
112
105
88
105
100
84
23
21
16
71
68
60
91
90
81
85
85
75
71
70
65
64
60
56
104
98
89
98
90
80
87
83
72
69
65
59
59
55
50
74
68
61
39
36
33
105
95
81
67
59
49
13
12
13
15
14
15
23
21
19
27
25
24
34
31
30
57
55
50
74
70
65
82
78
72
79
75
68
86
82
73
100
96
87
101
97
85
102
98
86
122
118
107
107
104
93
93
90
81
102
99
91
105
103
94
96
92
82
102
98
88
101
98
91
97
92
86
88
83
75
79
74
66
107
103
93
136
132
121
86
80
70
41
36
28
67
64
57
72
68
61
51
47
44
72
68
61
63
59
54
72
67
63
69
66
59
79
74
65
75
69
62
78
72
65
70
65
58
75
69
62
73
69
60
75
72
62
71
68
61
71
68
58
77
74
64
77
74
63
80
75
65
84
79
69
80
76
68
80
77
69
84
81
71
84
81
71
84
81
72
83
81
69
95
90
80
94
89
79
85
82
69
86
83
70
91
86
74
92
87
76
96
90
81
93
87
78
92
87
77
83
78
68
86
81
72
88
83
72
91
85
76
86
81
71
87
80
68
92
85
73
86
81
71
75
70
61
72
67
63
69
64
57
72
66
54
84
80
68
83
75
64
87
79
68
88
77
65
95
84
68
99
88
73
92
79
64
85
71
55
89
72
56
101
80
64
66
49
37
83
61
45
119
96
76
122
97
80
112
95
76
114
99
73
116
100
78
113
93
79
102
84
71
99
86
70
101
89
72
93
84
69
89
80
74
89
80
73
103
95
84
85
80
70
71
66
55
121
110
96
63
57
50
83
73
62
81
73
66
71
66
64
71
66
63
35
31
31
57
53
49
80
73
65
34
30
28
94
88
76
73
66
59
40
38
36
85
81
72
60
54
51
68
68
64
79
76
72
39
38
37
62
61
56
91
86
79
62
60
57
76
77
76
68
69
68
43
43
42
43
42
40
112
108
102
77
70
62
20
18
15
59
56
52
67
63
60
52
39
32
77
53
39
117
77
46
141
88
48
131
73
41
132
75
41
136
77
41
147
82
40
171
101
44
118
66
35
82
50
40
86
70
59
72
64
58
28
24
21
52
44
36
51
46
38
28
22
21
46
32
30
53
37
33
50
34
29
49
39
36
26
29
31
42
44
41
64
62
58
60
60
60
40
40
40
23
22
22
47
43
42
33
28
25
38
31
27
45
44
37
54
53
46
62
61
55
62
61
55
68
68
58
75
74
64
77
74
65
73
70
61
75
73
62
69
66
56
69
66
56
88
85
72
85
80
71
65
60
50
61
54
44
59
50
45
28
30
28
98
107
105
64
68
69
20
18
21
74
76
70
84
81
70
79
73
62
86
80
69
80
74
65
42
38
33
36
33
29
55
50
45
66
61
58
51
50
44
78
73
64
61
58
49
116
112
93
89
85
72
57
53
47
22
21
20
28
26
25
31
29
27
41
37
34
62
59
50
95
89
77
86
75
66
21
18
14
53
49
46
84
74
67
57
51
46
75
71
64
74
67
58
77
73
65
43
41
37
37
35
30
81
74
63
77
71
61
13
14
10
79
76
68
59
55
52
31
29
26
57
53
44
69
66
54
70
67
54
86
82
68
74
70
62
64
60
57
12
12
10
23
23
21
28
28
26
14
12
12
44
42
38
53
49
43
66
67
59
82
75
63
82
74
62
76
71
60
98
92
82
65
59
52
103
98
86
112
106
94
110
103
86
104
99
84
24
22
17
70
67
61
64
61
54
87
86
74
42
41
36
56
52
47
100
94
85
100
93
82
91
87
76
71
67
62
58
53
49
78
72
65
55
52
49
102
92
78
70
62
53
9
9
9
13
13
13
21
19
18
26
24
23
33
31
27
43
41
35
52
48
42
59
55
48
69
65
57
75
71
61
76
72
61
80
76
64
80
76
64
80
76
65
66
64
53
70
68
58
80
77
66
79
77
66
66
62
49
68
64
52
68
65
55
71
66
58
69
65
55
105
100
90
101
96
85
84
79
69
42
37
28
43
38
29
65
61
54
63
60
52
52
48
44
65
62
55
56
52
47
74
69
65
68
64
57
81
76
68
78
72
65
63
57
51
70
64
58
70
65
59
52
50
44
48
47
42
61
57
51
65
62
53
72
69
59
75
72
62
82
76
67
80
75
66
81
78
70
71
68
60
77
74
64
82
79
68
78
75
66
78
75
64
90
85
76
92
87
77
88
86
74
87
84
72
91
87
75
91
86
74
91
86
77
86
81
72
84
79
70
83
78
68
80
78
69
83
81
70
89
84
75
84
79
69
81
77
67
78
74
64
77
75
67
78
76
69
50
47
42
69
66
56
74
70
58
82
76
64
83
75
64
85
77
66
94
83
71
96
85
69
95
84
69
88
76
59
88
66
50
101
79
61
102
81
64
69
51
40
82
56
39
128
99
78
128
102
83
128
103
77
136
111
81
115
96
71
118
101
82
112
93
74
100
84
67
85
70
53
82
67
51
90
76
58
95
81
62
83
70
55
81
70
58
85
76
63
131
121
103
68
64
52
90
80
65
82
74
61
70
65
62
70
66
63
33
29
28
64
60
55
86
78
71
35
31
29
92
87
75
72
65
58
42
41
38
88
84
76
62
56
53
65
65
61
74
72
67
36
35
34
68
67
62
88
83
77
60
57
55
76
77
76
67
68
67
42
43
42
45
42
40
113
108
102
68
64
59
65
61
56
68
64
60
63
59
55
53
39
35
50
33
26
113
66
40
174
110
53
173
103
46
165
92
40
164
88
43
161
84
38
146
80
41
91
46
27
73
44
34
87
68
58
59
50
43
84
74
66
85
77
67
45
40
35
40
33
29
61
48
41
55
41
33
53
39
31
45
36
33
28
29
30
50
52
51
34
32
32
41
41
41
27
27
27
22
21
21
41
37
36
31
26
23
33
27
23
51
50
44
45
44
37
48
47
41
51
50
44
61
57
49
86
83
71
95
90
79
99
95
83
54
51
43
58
55
47
58
55
48
45
42
33
73
68
60
58
53
43
84
78
68
55
48
39
77
74
66
152
149
130
64
67
71
64
66
69
73
77
69
91
87
75
88
81
72
77
70
61
79
75
67
44
39
33
35
30
28
55
49
45
68
60
55
47
44
41
86
81
73
83
76
68
109
99
79
82
75
60
54
53
47
25
24
22
27
25
23
32
30
28
36
33
29
48
43
36
104
97
85
84
75
65
20
17
13
50
47
43
80
70
63
59
53
46
65
62
55
60
53
45
83
78
72
48
45
41
37
35
31
81
74
62
74
68
59
15
16
10
79
74
67
63
61
58
32
28
26
58
53
44
72
67
58
73
68
58
94
85
73
86
76
65
72
69
62
12
13
9
27
25
23
32
29
30
14
12
13
43
41
36
51
47
42
59
59
54
78
72
63
82
75
64
72
69
57
95
90
79
63
57
50
105
99
89
105
97
83
104
96
79
104
98
85
24
21
18
60
54
50
38
35
31
70
65
58
29
27
23
53
51
45
106
100
91
96
89
78
85
81
71
71
65
60
56
50
46
67
61
54
44
41
38
101
93
80
71
63
53
11
9
8
12
9
10
19
19
17
23
24
21
36
37
33
64
61
57
82
80
77
85
83
80
89
86
80
99
96
90
106
104
97
115
115
106
120
120
110
121
119
113
109
107
102
108
105
100
120
117
112
108
106
101
98
96
88
104
102
94
101
99
91
104
102
94
91
88
81
85
80
72
52
47
41
51
46
39
45
37
32
62
57
52
122
118
111
59
56
48
49
45
40
60
57
51
48
44
38
71
67
62
67
63
55
83
77
71
66
63
56
62
58
52
53
52
45
56
54
50
36
33
30
51
47
44
61
57
50
63
60
52
66
63
55
70
66
59
75
71
66
66
63
57
77
74
66
70
67
59
70
65
55
72
67
58
72
69
61
79
76
68
74
71
61
85
82
71
79
74
66
81
75
68
81
75
66
83
77
69
79
73
67
56
50
45
69
65
60
78
74
69
69
65
59
66
62
56
74
70
62
73
69
61
54
51
44
59
55
49
61
57
52
71
67
62
53
48
44
65
57
51
80
73
63
89
82
70
93
85
72
90
78
66
92
78
65
92
78
63
96
80
65
88
72
57
88
70
55
105
87
69
94
71
53
72
50
38
104
77
59
133
105
79
149
122
88
150
123
89
144
117
85
149
126
96
145
118
95
135
109
84
125
107
83
118
101
79
114
96
75
108
92
74
109
95
79
98
83
69
77
65
56
79
71
60
123
112
99
65
60
50
83
73
60
82
73
64
67
62
56
74
70
62
31
26
25
67
61
57
89
78
71
35
31
29
91
86
77
76
69
59
43
39
36
89
82
74
61
54
52
65
63
59
74
70
64
36
34
31
70
70
65
90
85
79
58
56
53
76
77
76
68
69
70
40
41
42
45
40
39
111
105
101
65
65
63
66
65
63
69
65
61
53
45
41
46
35
34
45
28
26
103
62
40
156
101
56
175
120
63
167
103
51
174
113
63
166
98
50
160
99
57
80
43
27
66
41
32
80
59
48
61
49
40
95
83
71
119
106
98
26
21
21
54
47
41
78
66
55
74
61
52
61
48
39
47
37
34
22
22
22
50
48
48
58
55
52
57
50
45
40
36
33
23
23
21
35
31
30
38
33
31
35
29
26
41
40
33
39
38
31
32
31
25
56
54
48
53
49
45
50
47
40
48
44
37
53
49
42
50
47
39
49
46
38
50
47
39
52
49
40
52
46
38
56
51
42
56
51
43
54
48
40
102
97
91
86
76
69
83
85
87
117
122
127
72
76
68
93
90
77
85
79
69
84
78
68
79
76
66
43
37
33
36
31
28
57
52
47
69
61
56
40
37
35
79
74
67
67
61
52
109
98
82
78
71
62
40
39
33
20
19
18
23
21
19
31
29
27
34
31
27
44
38
32
102
94
83
80
70
61
19
16
13
47
43
40
83
72
65
64
58
51
53
53
45
58
54
46
77
72
66
42
40
37
40
38
33
83
76
64
71
65
57
14
15
9
77
72
64
68
66
62
28
27
24
55
53
44
73
68
58
73
68
59
92
82
70
92
82
70
70
67
60
13
13
9
26
24
22
31
29
31
15
13
14
44
43
37
51
47
42
61
60
56
75
68
59
81
74
63
74
71
60
100
95
84
61
56
49
103
97
87
105
97
83
102
94
76
103
97
84
23
21
18
62
57
49
44
42
36
76
70
64
31
28
25
60
58
52
105
99
90
97
89
78
87
82
72
76
70
65
61
54
50
70
64
57
47
43
40
95
87
74
67
60
50
11
9
8
14
12
12
20
21
18
26
27
24
41
42
35
67
64
56
82
77
68
88
83
73
91
88
77
94
91
80
94
90
80
97
91
81
92
91
78
89
88
78
98
96
87
93
90
82
92
90
81
90
88
79
98
99
92
98
99
92
98
99
90
100
99
92
69
68
62
43
39
34
49
45
37
41
36
29
56
52
45
124
119
113
52
48
41
59
56
49
39
35
30
64
61
55
83
78
72
53
47
42
71
66
59
74
68
61
63
59
54
51
48
42
56
55
47
54
53
48
61
58
51
68
64
57
72
69
61
67
63
55
68
65
57
69
66
58
69
65
60
67
64
58
71
67
59
70
67
59
77
72
63
85
80
70
79
76
68
82
79
71
78
75
65
83
80
70
86
80
73
79
74
66
86
80
72
87
82
73
86
81
71
77
71
64
76
73
64
80
77
67
78
75
66
74
71
62
76
73
61
76
74
62
71
68
59
76
72
63
73
69
61
77
73
64
61
56
49
88
79
70
82
75
63
85
78
68
84
76
64
83
71
59
86
73
59
86
73
58
85
70
55
90
75
59
91
73
58
95
78
60
100
80
59
93
70
49
83
60
45
129
108
85
151
134
107
150
132
107
147
137
111
152
138
111
144
128
105
139
123
103
136
124
99
132
119
91
126
110
86
119
106
86
117
104
89
106
95
79
82
77
65
91
84
72
115
104
91
71
65
56
87
77
65
78
70
61
66
62
56
68
64
56
29
24
23
65
60
56
86
78
70
28
27
24
87
82
72
67
58
49
40
35
33
87
79
72
58
50
48
64
62
58
66
62
56
31
29
27
71
70
66
91
86
79
59
57
54
75
77
75
68
69
70
41
41
42
44
40
38
109
103
99
61
62
59
54
55
52
52
47
44
51
43
38
45
30
27
52
33
29
49
28
26
62
36
31
76
41
33
78
42
34
80
46
35
79
44
33
75
42
28
76
47
31
64
44
37
74
57
50
93
77
66
60
52
43
70
63
57
34
30
28
24
20
18
80
69
62
111
93
79
103
84
71
68
56
53
20
18
17
24
22
22
33
30
26
63
51
43
36
33
28
24
24
22
46
42
41
40
34
31
40
34
31
41
40
36
38
36
32
42
41
37
50
49
45
49
47
41
47
45
39
50
48
42
50
48
41
53
50
42
52
48
40
55
50
41
58
53
43
59
52
42
63
55
45
58
51
41
54
48
40
56
53
46
47
43
37
61
61
64
62
65
69
92
89
83
102
97
84
91
84
76
85
79
66
83
79
69
42
39
35
35
31
28
58
53
45
66
58
50
38
34
31
84
77
70
61
52
45
108
98
85
81
77
66
38
35
31
19
16
14
20
19
15
25
23
19
34
31
28
45
40
31
99
93
80
88
78
67
21
16
16
47
42
39
78
68
59
56
51
46
52
52
46
59
55
51
76
73
69
41
40
36
40
39
32
80
74
61
68
62
56
14
15
12
68
66
60
69
67
63
24
24
20
54
53
43
78
73
62
82
77
66
96
88
74
99
87
73
73
66
59
12
12
10
26
26
23
31
30
31
17
14
15
43
42
38
48
43
35
64
60
55
78
71
60
81
74
62
75
70
59
100
93
84
62
56
50
103
97
87
106
98
83
101
93
76
101
94
80
25
23
18
43
39
33
28
24
23
69
63
59
28
25
23
58
55
48
99
91
80
98
88
78
90
83
73
76
69
63
56
50
44
69
63
56
48
45
41
96
87
73
67
60
50
10
7
8
12
10
9
21
19
17
29
27
25
42
41
35
61
60
51
81
78
68
77
74
64
90
85
74
94
89
78
93
89
77
96
95
82
90
87
77
91
87
78
90
87
79
87
83
75
90
88
80
78
76
68
86
87
78
84
84
76
77
75
71
82
80
73
68
66
58
49
45
38
43
41
31
57
55
50
128
126
116
82
79
69
51
48
41
51
48
42
60
55
50
88
83
76
65
62
56
51
47
42
59
56
48
69
66
59
58
55
50
57
53
48
58
57
49
61
60
53
65
61
56
74
71
63
75
72
62
74
71
62
82
76
67
83
78
69
81
78
68
75
72
62
78
75
66
79
76
66
72
68
61
78
75
67
81
78
68
81
78
69
76
73
65
80
77
69
83
80
72
77
73
66
85
81
74
86
83
75
85
83
75
78
76
68
87
84
74
87
84
74
86
80
74
76
70
64
80
75
67
81
76
68
73
70
63
87
80
72
90
82
72
83
76
67
54
49
45
70
62
56
69
62
56
79
72
61
78
69
57
77
67
53
82
68
55
84
69
56
88
70
57
93
75
59
92
74
57
94
76
59
103
79
61
112
88
63
140
111
85
132
98
69
136
99
71
132
95
68
134
101
71
140
107
74
139
105
77
145
114
86
143
113
84
142
115
88
142
118
89
140
117
88
143
119
94
140
121
94
98
83
66
80
69
56
113
99
89
68
61
54
83
74
62
74
68
57
66
64
57
70
64
59
26
21
21
59
54
50
86
77
70
25
22
19
90
84
73
69
60
50
42
37
37
85
78
71
52
45
43
62
60
56
67
59
57
27
26
26
67
68
62
86
84
74
59
57
54
76
77
75
66
65
68
42
40
43
44
41
39
116
114
108
66
68
69
63
65
63
64
61
55
30
22
21
65
44
37
52
34
28
59
37
29
70
44
34
74
46
36
74
47
36
77
50
39
78
49
38
77
47
34
76
46
33
63
42
34
80
65
57
72
56
49
53
43
40
54
45
42
42
36
34
33
30
26
46
39
37
79
66
55
84
71
61
68
53
48
42
35
32
18
16
15
19
17
17
26
22
20
23
20
17
23
19
17
28
24
22
29
23
21
30
25
20
47
46
41
48
47
43
54
52
47
53
52
47
55
53
47
57
56
49
60
58
51
60
59
53
60
58
50
59
57
49
62
58
49
62
58
49
62
57
49
63
58
50
61
54
45
61
55
46
58
54
45
47
44
36
74
70
63
97
94
85
135
127
112
98
92
82
81
74
66
83
77
65
82
78
69
43
40
36
35
31
28
60
54
46
71
63
55
36
32
28
91
84
75
64
58
50
100
92
75
84
81
67
36
33
27
18
16
14
19
17
13
23
21
17
30
27
23
50
45
36
101
95
81
98
88
77
22
16
17
50
44
42
92
82
72
65
59
54
58
58
53
68
64
60
82
78
74
40
39
36
42
40
34
78
72
59
70
63
57
13
14
10
66
64
58
68
65
62
24
23
20
45
44
34
68
63
51
79
74
62
91
83
68
98
86
72
79
72
64
12
12
10
26
26
23
31
30
30
15
13
14
45
43
39
51
46
40
65
61
54
82
75
64
81
74
61
73
68
57
99
92
83
61
55
50
98
92
83
101
93
79
98
89
73
95
88
73
24
22
17
42
39
34
36
33
31
64
58
54
62
60
56
72
67
60
95
87
77
96
87
76
84
78
69
68
62
56
48
42
36
68
62
55
42
39
35
92
83
69
67
60
50
10
7
8
12
10
9
18
16
14
23
21
20
33
31
27
48
47
42
54
53
47
51
49
44
59
55
49
65
60
54
60
60
53
67
65
59
67
67
62
64
64
59
64
64
58
63
63
57
68
66
60
66
64
58
66
63
58
66
62
57
59
57
52
60
58
49
52
49
40
44
41
34
53
51
46
119
116
107
77
75
65
56
53
43
50
46
40
51
47
44
119
114
104
62
57
49
63
60
54
61
58
52
73
70
64
62
59
52
53
50
44
40
37
33
40
38
34
42
41
37
39
36
33
54
50
45
55
51
46
52
48
43
54
49
44
55
50
45
56
52
47
50
46
41
46
43
37
47
43
38
37
33
30
43
40
36
47
44
39
49
45
40
33
29
26
46
43
39
53
49
46
44
40
37
44
40
37
44
40
37
44
42
39
47
45
41
57
54
48
58
53
48
52
49
46
42
38
35
50
47
41
52
49
44
48
46
43
61
57
52
61
56
49
66
61
55
43
37
33
80
71
64
80
72
64
77
69
60
68
59
48
75
65
51
83
69
55
82
68
55
88
70
57
93
75
59
93
75
59
92
74
57
97
76
58
98
77
58
96
69
52
93
60
40
109
68
43
110
69
44
105
70
45
108
75
52
105
71
46
100
64
40
96
62
38
84
53
33
79
52
34
77
52
35
73
48
34
73
53
38
69
53
37
73
62
50
123
109
99
70
63
56
84
76
64
71
65
55
66
64
57
69
64
58
29
24
24
59
54
51
87
76
70
22
17
16
77
74
66
67
61
54
39
35
32
81
76
67
51
46
43
57
54
51
63
56
52
26
26
23
64
65
59
86
82
73
56
53
50
72
74
72
64
65
65
44
41
42
39
37
34
112
109
101
57
57
57
57
57
54
57
56
54
44
36
33
38
24
17
40
27
22
59
37
29
65
40
29
67
40
29
68
41
29
71
42
32
68
42
30
69
41
33
67
40
31
64
44
36
102
87
77
65
49
43
54
43
40
55
46
42
43
37
34
30
26
22
56
50
40
111
100
87
82
70
64
46
36
31
64
55
48
60
52
46
73
66
60
111
105
102
114
107
104
130
122
119
132
125
121
145
137
134
152
145
139
164
164
154
170
169
158
169
169
160
170
170
160
171
169
160
177
175
164
180
179
165
181
180
168
177
174
164
172
170
160
174
172
161
170
168
156
170
165
155
161
157
143
160
155
143
165
159
147
153
148
135
135
131
117
143
138
124
128
124
105
104
98
85
74
69
60
76
70
61
80
75
66
69
65
58
42
39
34
32
28
25
60
53
46
78
70
65
33
28
27
85
79
68
66
62
50
108
102
83
91
88
72
35
32
27
19
15
14
20
18
16
26
21
20
38
33
27
60
53
41
97
91
77
96
86
71
24
19
15
46
40
37
82
70
60
63
55
49
53
52
49
67
63
57
83
79
72
39
38
34
43
41
36
78
71
60
67
61
53
13
14
9
72
68
63
64
62
60
22
21
20
51
49
41
78
71
60
79
72
60
91
81
66
103
93
78
83
76
66
13
13
8
23
21
19
32
30
29
16
14
12
42
39
36
51
47
41
66
63
56
78
70
61
83
76
66
74
69
58
101
95
85
64
58
52
92
86
78
96
88
76
96
87
73
100
93
79
32
30
25
65
62
56
98
95
88
103
99
91
97
93
86
72
69
60
94
88
77
91
81
71
70
63
56
62
55
51
49
42
39
68
60
54
45
43
36
96
87
73
64
56
46
9
9
9
14
14
12
25
23
21
30
28
26
58
57
51
83
83
73
86
84
77
66
64
57
69
67
60
90
89
78
99
98
85
89
86
73
88
87
75
89
89
78
76
75
67
71
71
60
82
79
67
77
74
59
90
82
71
89
81
69
82
77
64
94
89
74
90
83
71
72
71
65
116
115
107
69
68
61
55
52
43
57
54
46
79
76
69
91
88
84
52
49
45
65
62
54
59
56
48
65
62
54
75
72
66
57
54
49
56
53
48
55
51
46
55
51
46
63
59
53
48
46
42
61
60
53
64
61
55
59
56
49
73
70
63
69
67
59
67
63
56
64
61
51
67
64
55
69
66
61
56
53
50
63
61
54
63
60
53
65
60
55
56
53
51
53
52
46
59
55
51
59
55
50
79
75
66
74
72
62
78
74
67
72
68
61
84
77
66
81
74
66
68
63
57
69
64
58
71
66
57
78
73
65
69
64
60
80
76
69
76
72
65
77
73
67
40
35
33
70
65
57
70
63
54
70
62
53
64
56
48
76
63
54
80
66
57
84
69
60
85
71
57
86
72
56
86
70
56
92
76
60
99
81
63
97
79
61
108
89
67
108
79
58
123
91
67
130
98
71
134
99
74
130
101
75
126
95
70
134
107
84
127
104
84
119
100
81
113
95
79
108
93
79
104
94
79
104
94
82
98
88
77
87
77
65
115
103
93
72
63
57
82
73
63
70
64
55
62
61
53
74
69
61
29
26
25
58
54
51
79
68
62
18
13
11
53
50
46
62
56
47
51
46
38
59
54
48
60
55
51
54
50
46
69
61
57
27
26
23
59
58
53
88
82
73
57
53
51
72
72
71
64
65
65
44
42
42
35
34
31
104
102
95
49
44
44
59
56
50
46
44
43
48
41
38
42
28
24
58
42
33
77
50
40
83
55
42
83
54
41
82
53
40
80
54
41
79
52
39
79
47
37
73
45
35
60
40
34
81
66
57
62
51
44
60
50
47
62
50
43
44
36
31
42
32
31
47
36
32
65
56
45
65
51
43
52
40
36
60
44
36
58
40
31
53
37
28
54
35
28
49
34
30
34
26
22
40
30
28
47
34
31
50
37
31
76
75
68
76
75
68
76
79
70
73
77
68
83
85
79
79
81
72
80
82
72
81
81
71
85
84
74
82
79
69
79
75
68
79
76
69
63
60
54
66
64
55
63
61
53
72
68
61
71
66
58
66
62
54
47
45
43
76
74
67
81
78
69
71
66
58
75
69
62
70
65
59
71
66
60
41
38
33
31
28
25
62
54
48
66
58
54
29
24
23
79
68
59
72
63
51
109
103
87
95
92
76
35
32
26
19
16
15
21
19
17
26
21
20
45
41
33
70
63
49
94
89
74
95
85
69
25
19
16
48
42
39
88
76
65
64
56
50
55
55
51
60
56
51
83
79
73
38
38
34
45
42
37
77
70
59
68
62
54
13
14
9
74
70
66
66
63
61
22
20
19
57
56
47
79
72
61
82
75
63
80
74
61
86
80
66
74
67
57
14
14
10
26
24
23
32
30
28
15
12
12
39
36
33
47
43
38
63
61
53
76
69
60
79
72
62
73
69
58
102
96
86
62
56
50
84
78
70
91
83
70
89
80
66
85
77
64
28
26
21
45
42
35
60
57
47
70
65
55
70
65
54
69
64
54
96
91
82
92
82
73
75
69
62
68
62
55
51
45
41
68
60
54
42
41
34
92
83
68
64
56
46
10
10
9
14
14
12
23
21
19
29
27
25
67
66
60
100
99
96
117
115
110
96
94
89
23
21
18
73
70
63
86
83
73
86
83
73
93
93
81
94
94
83
88
88
76
62
62
56
62
60
54
79
75
65
93
85
70
78
69
58
77
69
57
93
83
70
85
76
65
54
52
45
47
46
41
60
59
51
61
59
49
79
77
71
83
81
75
41
38
35
52
47
45
66
62
55
61
58
50
72
69
61
66
63
57
55
52
48
50
47
43
64
61
56
74
70
63
80
76
69
61
59
55
74
72
65
79
77
67
70
68
60
77
73
65
82
78
70
76
72
67
74
71
62
85
82
72
81
78
71
71
69
64
79
77
69
83
80
72
78
75
67
72
72
66
81
79
71
84
80
73
73
70
63
89
88
76
99
94
83
103
100
91
86
82
73
92
85
72
90
83
73
86
83
74
94
90
81
99
95
84
98
94
85
77
74
68
83
80
70
87
84
74
80
77
68
46
42
39
78
73
65
71
63
55
63
55
46
66
58
48
76
64
51
80
66
55
83
69
57
86
73
61
85
72
58
79
66
55
87
74
60
91
74
59
89
73
57
96
77
58
107
76
53
121
86
61
122
88
59
123
86
60
122
91
63
120
89
64
113
86
61
109
84
62
106
84
62
103
83
63
101
81
65
96
80
62
89
73
59
89
76
61
91
78
63
120
107
96
74
65
59
80
71
61
70
65
56
58
56
49
64
59
50
21
18
18
49
47
43
79
72
64
32
31
28
42
38
35
51
45
37
49
43
36
47
41
36
49
43
38
57
51
47
72
64
60
29
28
25
58
57
52
99
91
83
58
52
50
67
66
65
64
62
63
43
43
43
33
33
29
100
98
90
60
56
52
51
47
45
48
46
44
48
41
38
42
27
22
48
32
26
55
33
28
65
42
34
68
43
35
68
43
35
67
44
34
62
41
30
62
41
33
59
39
31
55
41
37
76
63
57
61
48
43
61
49
46
62
51
46
40
34
30
32
24
23
43
29
27
60
45
36
63
45
37
54
38
34
66
45
38
62
42
30
66
43
32
63
43
32
59
43
35
27
25
20
45
36
33
52
34
27
55
37
34
53
54
49
59
60
55
70
72
67
74
76
71
73
74
67
73
74
67
79
79
70
76
76
66
78
78
66
83
82
71
83
80
69
69
66
56
66
62
53
59
57
48
88
83
71
82
76
66
69
66
58
67
64
58
52
52
48
42
43
38
78
77
71
57
54
48
52
48
43
52
46
43
70
66
57
51
48
41
30
28
24
69
61
53
73
68
58
23
21
18
86
78
72
81
73
62
97
89
76
51
45
33
39
34
30
19
16
14
21
19
16
26
23
19
50
43
37
69
60
49
89
84
69
95
86
72
24
18
17
46
42
37
84
73
62
63
57
50
51
52
48
57
56
53
83
81
76
38
37
34
43
41
36
76
70
59
70
64
55
13
13
8
71
67
61
65
63
60
21
20
17
52
51
41
79
73
60
81
71
59
79
71
61
70
62
53
60
53
48
15
14
14
28
27
23
37
35
32
15
15
14
57
54
48
59
52
46
64
62
58
81
75
68
76
72
59
70
65
52
99
92
81
65
57
51
83
79
69
90
83
71
80
73
60
75
69
59
25
22
17
45
40
31
57
53
41
61
56
45
66
59
49
69
62
51
52
48
39
85
77
69
75
72
62
60
55
48
54
47
40
63
57
51
42
39
35
89
81
67
62
54
44
10
10
9
14
14
12
22
20
16
32
30
26
31
30
28
79
78
77
23
22
21
53
53
48
51
51
47
53
51
46
83
80
70
87
83
73
76
75
67
74
73
65
31
30
25
59
59
56
31
30
28
66
61
56
74
66
56
77
71
56
89
82
72
68
63
52
69
62
51
56
52
46
58
57
52
76
74
68
72
73
64
78
77
71
36
36
30
45
43
39
55
53
48
67
63
57
53
49
43
53
50
43
55
52
45
63
60
52
55
53
48
43
44
39
44
42
39
45
44
41
42
40
38
46
45
41
45
43
40
47
45
42
49
47
43
50
48
44
47
47
42
47
47
41
52
50
46
51
49
47
50
49
47
53
53
48
52
50
48
52
50
47
47
46
42
50
48
44
49
45
42
49
46
42
55
52
47
56
53
48
59
53
51
54
51
48
57
55
49
55
53
48
57
56
50
57
56
51
63
60
55
60
58
53
50
48
44
50
48
43
52
48
44
54
50
47
38
35
33
56
49
44
62
54
50
65
57
52
70
60
51
77
68
55
78
66
55
80
67
56
83
68
58
82
68
56
79
65
52
85
72
58
85
72
57
83
70
51
88
72
55
83
61
45
83
62
47
90
68
50
89
69
54
91
75
59
86
71
56
84
69
54
85
72
54
87
74
59
78
68
55
70
61
48
72
63
50
69
59
46
62
54
43
63
55
44
112
99
89
73
66
57
77
71
59
68
64
55
57
55
51
65
59
53
30
24
23
68
65
59
83
74
63
63
59
53
69
66
59
67
61
51
73
67
57
57
52
42
65
59
54
59
54
47
70
63
57
31
30
27
62
60
56
93
88
78
59
54
50
67
67
64
63
61
59
43
42
40
33
33
29
115
111
100
53
50
44
55
52
49
60
56
52
41
36
34
41
27
23
45
32
27
44
32
27
52
39
34
60
42
35
57
39
32
57
43
34
53
41
32
54
37
30
53
37
29
54
41
35
80
68
60
50
41
36
54
46
43
56
44
41
39
33
31
29
23
21
42
28
27
55
41
33
69
51
41
60
40
35
55
35
30
77
48
34
86
56
36
84
57
37
77
53
41
47
35
31
49
38
35
54
38
30
48
38
31
51
52
47
42
43
38
58
59
54
65
66
62
73
74
68
58
59
53
68
67
61
65
64
58
61
62
55
59
58
52
62
60
51
71
68
60
63
61
52
70
65
58
77
73
62
79
73
63
73
69
61
73
71
64
58
58
49
69
68
61
70
68
62
56
52
46
64
61
52
64
58
51
74
70
61
44
41
36
28
26
22
69
62
54
64
59
50
26
23
20
81
73
66
81
73
64
82
72
60
70
63
49
43
39
36
20
17
16
21
19
16
29
26
21
52
45
39
69
59
48
91
85
70
88
78
65
24
18
17
45
40
35
84
74
63
65
59
52
51
51
47
62
61
58
83
81
76
34
33
31
43
41
36
75
68
57
71
64
56
12
12
7
73
69
63
60
58
54
19
19
15
48
47
37
75
69
56
79
68
57
82
74
64
53
44
32
67
60
52
24
24
20
28
26
22
32
30
27
14
14
13
42
40
33
59
53
47
61
60
55
60
56
50
74
70
57
66
62
49
104
97
86
61
53
46
73
68
59
69
65
56
65
61
51
52
46
40
52
49
41
68
63
51
75
70
63
71
66
55
68
62
51
73
68
57
63
60
53
66
59
52
64
61
51
61
55
48
54
47
41
59
53
47
36
33
29
90
81
68
61
53
43
9
9
8
14
14
12
22
20
16
33
31
28
22
20
19
35
33
33
10
10
10
60
61
57
55
56
53
28
27
21
91
88
78
75
72
62
53
51
48
43
41
37
27
26
22
69
69
66
29
28
26
69
62
56
73
65
55
78
72
58
67
63
52
71
64
54
69
64
53
50
48
42
67
66
61
77
76
71
78
79
73
38
38
34
48
48
44
58
57
53
57
56
51
64
61
55
64
61
51
84
82
72
66
64
55
62
59
52
64
61
57
56
56
51
55
54
48
65
64
58
42
40
36
59
58
52
62
60
55
52
51
46
64
63
56
65
64
57
63
60
54
70
67
60
73
71
64
75
73
65
61
57
52
72
69
61
71
69
65
68
67
63
59
58
52
70
69
63
73
70
65
66
63
57
79
76
66
78
75
65
86
80
74
69
67
60
81
80
74
78
76
71
68
67
62
73
71
66
83
82
77
78
76
71
57
56
51
69
67
62
68
64
61
69
64
61
36
34
28
66
59
52
71
64
55
68
60
53
72
62
53
76
67
54
78
66
55
73
61
50
81
67
57
76
62
50
76
65
54
83
72
60
88
74
60
82
69
54
81
66
51
64
53
43
108
100
82
107
95
75
102
89
74
105
95
80
87
76
62
77
66
52
97
83
66
81
67
54
69
60
47
62
54
41
60
51
38
58
49
36
53
45
35
60
53
42
120
108
92
69
62
53
78
71
60
71
67
58
55
52
48
63
57
51
31
28
27
55
49
45
75
66
60
37
32
30
72
69
65
69
63
57
64
57
47
62
57
49
68
62
55
53
46
39
69
63
57
43
42
40
49
46
42
70
64
55
55
50
46
70
70
66
65
63
61
43
41
40
35
34
30
123
118
107
80
74
63
77
71
61
74
71
61
38
32
30
40
26
22
44
31
26
48
37
30
53
42
35
53
40
33
54
41
34
52
40
30
50
41
30
51
38
31
61
46
37
53
40
34
73
61
52
65
52
44
68
57
51
65
53
49
41
34
32
29
24
20
50
37
32
58
39
32
62
38
31
63
36
29
66
33
24
97
59
35
120
77
40
120
78
43
115
76
50
107
85
73
69
56
47
49
37
30
56
45
35
52
53
48
61
62
56
65
66
63
76
77
73
60
60
58
60
61
57
75
76
69
61
62
56
70
71
65
63
64
58
50
48
40
67
62
56
29
25
23
52
48
40
72
69
56
71
67
56
64
61
52
76
73
65
66
64
56
81
80
75
68
66
61
66
63
59
44
41
35
83
78
70
66
62
54
24
21
18
29
26
23
74
67
58
81
76
68
29
26
24
103
94
83
85
75
64
95
88
77
71
64
54
26
23
18
23
18
17
20
19
16
27
25
20
48
43
35
62
54
44
98
90
77
92
81
67
24
17
15
45
39
34
82
70
60
61
54
48
51
51
48
61
60
57
84
82
76
34
33
29
41
40
35
73
69
57
70
64
56
13
14
9
75
71
65
51
48
47
18
17
16
41
39
31
64
57
46
67
58
47
86
78
69
75
68
59
70
64
55
24
22
18
44
43
38
39
37
36
14
12
12
50
47
42
59
55
47
72
69
64
80
75
68
84
79
69
75
72
59
106
98
87
61
53
46
78
72
65
51
46
41
40
34
29
41
37
33
57
54
49
62
59
52
60
56
48
57
52
44
65
59
50
63
58
49
58
55
47
57
50
44
59
54
47
54
48
43
51
44
38
58
51
46
48
44
40
94
86
70
64
57
45
12
9
9
15
13
12
20
18
16
29
28
23
32
33
29
32
32
32
62
62
61
76
74
72
35
34
33
36
33
28
76
75
63
72
70
61
43
42
37
52
53
46
71
72
66
65
65
62
26
24
21
75
68
60
76
69
56
70
63
50
82
74
63
78
73
61
80
76
68
38
37
36
40
38
39
39
37
34
39
37
34
63
61
56
59
57
51
53
52
46
51
50
46
54
53
49
54
53
48
68
66
59
59
55
48
66
62
55
50
48
45
71
71
65
71
70
62
69
68
61
45
44
39
67
66
58
70
66
59
54
50
44
71
68
59
73
67
60
68
65
59
73
71
64
78
72
64
79
73
65
62
59
53
71
71
61
69
67
60
72
73
65
59
58
52
71
70
61
76
72
67
60
56
50
82
77
69
78
73
63
89
82
77
74
72
63
80
79
69
75
74
68
69
67
64
80
78
71
76
75
67
75
74
66
58
57
53
80
77
70
80
75
68
73
69
62
38
34
33
68
62
54
75
67
58
67
60
52
70
63
53
72
65
53
76
66
56
73
63
52
74
63
51
77
65
53
76
64
53
79
67
53
82
71
54
78
67
51
68
52
43
55
39
34
62
46
34
64
47
35
66
49
36
63
49
36
60
47
38
66
49
41
67
49
39
66
50
40
60
50
42
53
47
38
52
44
36
56
49
40
57
47
40
61
53
45
114
105
92
67
61
52
77
72
60
73
70
58
57
54
48
62
56
48
30
28
25
35
29
26
46
39
34
51
49
44
63
62
55
98
90
83
59
53
43
60
54
48
50
44
39
59
53
49
63
58
53
31
29
26
64
61
56
74
68
59
54
50
46
71
70
67
65
63
60
44
42
40
39
37
34
125
118
108
78
70
58
76
71
57
74
69
61
35
29
27
37
24
21
76
68
62
90
82
72
88
79
69
83
74
65
85
76
67
69
59
52
68
58
54
86
79
74
90
83
79
48
36
33
75
64
58
64
54
46
69
59
52
65
53
49
43
36
34
38
30
27
44
35
30
60
42
36
61
39
34
71
39
33
107
53
31
162
110
47
205
167
92
202
163
90
160
118
53
102
70
46
58
40
33
52
42
36
48
38
31
32
33
28
54
55
49
57
58
53
53
53
48
59
60
53
55
56
49
80
81
73
74
75
67
71
72
66
88
89
83
48
46
40
80
75
69
26
22
20
40
37
30
80
77
67
82
77
66
67
63
54
60
57
49
60
57
49
90
87
81
55
53
49
56
52
49
54
52
41
62
57
52
63
59
51
19
16
14
26
24
21
65
57
48
67
61
55
19
16
14
87
79
66
74
63
53
109
98
85
82
72
61
25
22
18
23
18
17
21
20
17
30
28
23
40
36
28
55
48
38
104
97
83
92
80
66
24
18
16
45
40
35
84
72
62
60
52
46
55
55
52
60
59
56
82
80
74
33
32
29
41
39
34
74
69
58
71
65
57
12
12
8
78
75
69
52
49
48
18
17
16
39
38
31
59
55
44
68
64
52
87
84
70
82
78
64
73
67
56
19
16
13
35
33
29
37
35
34
14
12
13
41
38
33
59
56
48
58
55
48
83
78
69
82
77
64
65
62
47
100
93
82
52
47
41
38
35
32
32
29
24
38
36
30
36
32
26
44
41
35
71
69
63
52
49
42
45
40
34
48
43
38
52
49
42
53
50
42
55
50
42
63
58
50
45
39
34
48
41
36
60
53
48
47
45
40
88
81
65
64
58
46
12
9
9
15
13
12
19
17
16
29
27
22
39
40
35
24
24
22
39
37
35
32
30
29
12
10
9
55
51
46
73
73
60
74
73
62
72
71
63
30
30
25
39
39
36
30
30
28
54
52
48
71
64
54
79
72
59
72
65
52
69
62
55
51
49
42
32
31
27
39
40
37
47
46
42
67
66
58
61
61
52
61
60
53
54
53
47
55
54
48
53
51
48
61
60
56
53
51
47
60
58
51
62
58
51
66
61
55
37
35
33
49
47
42
51
49
46
51
50
47
31
29
28
52
51
45
57
54
50
46
42
39
44
42
38
49
48
44
46
46
42
47
46
43
51
50
47
54
53
50
50
49
46
56
54
49
66
63
60
56
56
53
46
44
41
60
59
53
65
64
58
48
47
41
52
51
47
58
57
51
57
55
53
48
47
40
60
58
52
64
63
61
52
50
50
53
50
47
64
63
58
62
60
56
47
45
45
56
54
51
56
54
51
52
51
47
31
28
27
65
58
51
75
68
59
62
54
46
66
58
50
57
49
43
72
62
53
71
61
51
63
55
42
64
56
43
66
54
42
70
59
46
74
63
49
75
64
50
79
64
52
83
69
54
82
70
51
82
70
51
82
67
49
76
65
46
76
64
49
83
68
55
70
56
44
68
52
41
58
48
39
53
47
38
57
48
41
57
50
41
55
47
39
57
52
43
111
102
89
60
55
46
75
69
57
72
70
58
54
51
45
63
57
49
32
29
27
47
42
37
45
39
33
46
43
35
75
73
65
71
65
57
59
52
44
47
44
39
50
45
40
55
50
44
51
46
41
35
33
31
65
63
58
76
71
61
51
47
43
70
70
66
64
62
58
44
42
38
42
39
34
121
115
102
75
70
57
66
63
54
62
57
50
28
21
19
39
31
29
29
24
23
31
30
25
30
28
24
30
25
23
33
28
26
33
28
26
30
25
20
34
27
22
37
30
26
43
35
31
64
55
49
64
54
46
68
58
51
67
55
51
44
37
35
36
28
25
61
52
47
59
42
34
67
43
34
82
45
35
132
72
34
210
171
83
252
248
207
252
247
215
228
204
140
156
118
75
109
82
65
62
44
37
47
35
33
33
34
29
39
40
36
37
38
34
37
38
34
46
47
41
52
50
45
50
48
42
59
58
52
51
50
45
54
52
47
43
42
36
66
65
56
15
15
9
40
39
33
67
62
55
80
74
65
71
66
59
54
52
46
45
43
37
90
88
83
49
49
47
47
43
39
71
66
54
70
65
57
75
71
63
15
13
10
24
21
19
65
58
48
69
62
56
18
15
13
102
93
81
90
79
68
111
100
81
75
64
49
24
20
16
23
19
18
22
18
14
31
27
21
56
50
41
64
57
46
103
95
83
89
80
63
24
18
15
45
39
34
81
68
58
58
50
45
51
50
47
54
53
53
74
74
70
30
27
26
40
38
33
73
69
57
68
63
54
13
11
7
73
71
66
54
53
51
19
18
16
43
42
36
69
66
56
76
72
59
90
85
71
76
72
57
69
65
54
18
16
13
37
36
31
40
39
37
15
13
12
36
34
31
46
41
35
53
48
43
63
57
46
75
68
56
66
61
49
103
95
86
53
48
42
44
41
37
34
32
28
36
34
30
40
38
34
40
39
33
64
61
55
60
56
50
60
58
51
56
53
45
62
58
51
57
51
44
59
54
45
65
60
52
45
41
36
47
43
37
56
49
44
39
37
32
90
84
70
62
57
47
12
9
10
14
12
12
18
18
16
24
25
22
29
27
22
33
31
26
30
28
24
37
33
31
48
44
40
53
50
45
56
53
47
60
58
48
55
52
46
56
53
48
46
45
40
60
60
56
51
49
45
62
60
52
63
59
50
65
61
52
62
56
52
44
40
39
33
31
30
39
38
35
56
55
49
50
49
42
49
48
40
54
53
47
58
57
51
64
63
57
66
63
57
48
45
39
55
53
47
67
66
59
51
49
43
46
42
36
50
48
44
58
56
51
63
59
54
58
54
49
58
57
50
63
62
53
72
66
59
63
59
52
64
64
56
65
62
58
57
56
52
60
58
54
73
70
62
80
76
68
70
67
59
81
78
70
79
75
69
73
68
63
64
63
57
68
66
61
74
68
64
64
61
55
84
79
71
86
84
76
66
63
56
69
69
61
92
89
81
81
78
71
75
72
65
80
80
72
86
87
78
94
91
84
79
78
70
84
84
74
81
79
71
73
70
64
55
53
50
88
82
73
70
63
56
69
62
52
81
72
62
81
72
62
77
67
59
72
62
51
68
58
50
61
51
43
72
62
50
67
59
46
92
82
70
67
59
46
62
52
42
68
55
42
61
50
38
63
51
40
66
53
41
62
49
38
62
49
41
63
51
42
55
46
34
59
47
36
54
47
40
55
51
44
56
48
40
50
42
33
51
43
34
57
50
41
111
101
91
65
59
53
78
73
63
74
69
59
54
51
47
60
54
49
29
26
25
42
36
30
66
58
45
39
36
28
41
38
31
53
48
40
53
46
38
55
49
44
53
45
39
58
54
47
61
59
51
31
30
28
59
60
54
76
74
64
49
46
41
70
69
66
63
61
60
43
41
39
47
44
39
117
111
98
66
61
52
57
52
45
57
54
51
22
19
17
31
28
27
33
31
27
58
54
48
57
53
48
50
45
42
53
47
42
52
48
42
56
52
46
65
62
58
51
47
45
39
35
30
39
33
31
68
54
49
72
61
56
65
56
51
43
38
35
37
29
25
47
38
33
49
36
31
71
42
34
77
42
29
126
70
33
187
141
69
224
198
146
220
197
145
200
167
100
143
101
51
95
63
41
62
42
33
50
38
32
46
46
42
44
45
41
61
62
57
57
57
52
59
60
55
75
74
68
66
66
57
69
66
59
79
78
72
60
59
55
50
49
44
75
75
65
45
45
39
45
44
40
64
59
54
80
73
64
72
65
58
66
63
55
55
53
47
65
62
57
55
54
52
70
67
60
74
68
59
27
20
18
61
56
51
14
12
9
23
20
18
61
53
44
70
63
58
19
15
14
80
71
59
77
67
58
111
100
85
76
65
54
22
19
14
24
19
18
22
18
14
32
29
22
59
53
43
78
72
59
103
95
81
87
77
63
23
17
16
43
37
32
79
67
57
55
47
42
53
51
47
59
61
60
71
70
68
26
24
23
40
38
33
75
71
59
69
64
56
13
11
8
62
60
56
55
54
52
17
16
14
44
42
37
61
58
48
67
64
50
86
81
67
76
71
56
74
70
59
17
16
12
31
30
25
37
35
34
16
14
13
44
42
39
54
48
44
55
51
45
73
66
55
78
71
58
74
69
58
100
92
83
52
46
40
56
54
48
42
40
34
34
32
26
37
35
31
34
32
27
40
37
30
48
45
37
41
40
31
49
46
38
56
53
45
66
60
53
62
57
49
62
57
48
47
43
38
50
46
41
56
49
44
45
42
37
91
85
71
61
56
46
12
9
10
12
9
9
11
12
9
18
18
16
27
25
20
36
35
27
42
39
32
50
47
40
55
52
46
52
49
43
58
54
50
61
58
49
53
50
44
68
65
61
54
52
48
51
49
46
58
57
53
64
63
55
54
50
45
57
52
48
55
50
46
42
40
37
49
47
43
50
49
44
53
51
45
58
57
50
54
52
46
59
58
52
56
54
48
53
52
46
56
52
47
56
53
47
57
56
50
58
57
52
57
53
49
57
53
49
64
62
58
69
68
64
77
74
65
76
73
64
73
72
65
71
70
61
85
79
72
81
78
69
80
80
70
85
82
72
72
71
63
73
72
65
77
73
64
89
85
76
78
75
67
90
87
79
83
80
69
93
90
79
80
78
69
84
83
73
103
98
90
87
85
75
92
91
78
96
91
81
97
94
88
93
92
86
94
91
83
86
83
75
95
92
84
87
87
78
83
84
75
90
87
79
81
79
72
81
80
69
77
74
64
79
76
66
75
73
70
77
71
62
72
64
57
71
64
54
82
75
64
82
75
64
76
69
59
79
71
60
76
69
57
79
72
60
77
69
57
78
71
58
71
62
54
59
52
45
76
70
58
129
119
97
129
120
98
107
98
83
96
88
71
96
88
72
95
84
71
91
81
67
76
66
55
67
60
49
57
52
44
64
61
51
67
62
53
59
55
45
61
57
49
61
57
49
102
92
82
65
60
54
78
72
63
74
69
60
58
56
51
65
59
54
27
23
23
64
56
48
89
76
59
19
18
13
86
83
78
50
47
41
31
28
22
85
79
71
49
42
40
57
57
52
64
62
55
25
24
21
61
62
56
82
79
69
52
48
43
72
71
68
65
63
61
42
40
39
48
46
41
117
110
98
68
62
54
63
57
50
34
31
29
91
87
86
15
12
12
32
30
26
35
32
29
35
30
28
46
41
40
44
39
35
41
37
32
49
46
41
60
57
51
42
39
33
30
27
24
88
79
69
63
52
46
64
57
50
62
52
48
41
37
34
16
14
13
37
28
26
55
39
31
58
38
30
74
47
37
114
66
40
105
59
27
124
76
35
129
84
39
142
92
44
130
85
47
102
70
50
67
47
37
51
39
33
51
50
49
49
48
47
57
57
52
58
58
54
52
50
47
54
53
45
47
47
42
40
40
36
55
54
50
54
52
49
45
43
39
62
61
52
51
48
44
51
48
44
73
67
59
73
68
58
69
64
55
63
60
53
72
69
64
63
62
56
52
51
48
70
67
60
69
61
54
81
73
67
74
69
62
16
14
12
26
22
19
58
52
43
73
66
60
17
14
13
89
80
67
76
68
58
116
108
91
73
67
56
21
18
16
22
18
16
20
18
15
31
28
23
56
50
39
77
68
52
101
93
78
91
81
68
25
19
16
44
38
34
80
67
57
52
44
39
56
51
49
57
59
56
74
76
72
23
23
22
37
35
29
74
70
59
69
64
57
13
11
10
68
64
62
57
55
55
16
15
13
40
38
31
63
60
48
68
64
52
85
80
65
80
70
55
74
68
57
16
15
11
33
30
25
40
37
36
14
14
13
43
39
34
54
46
43
62
57
52
81
73
63
80
72
60
68
63
48
96
88
79
52
45
40
58
55
51
54
51
46
57
53
48
50
46
41
56
53
47
87
86
80
55
54
46
56
53
45
98
96
84
74
71
63
50
47
39
58
52
45
55
50
42
35
32
28
49
44
40
57
50
44
40
37
31
92
84
69
63
56
46
9
9
9
9
10
8
12
12
12
16
16
16
24
23
21
35
33
30
39
38
34
43
41
37
44
43
40
43
42
39
40
37
34
43
40
36
36
33
31
41
39
35
42
41
35
45
44
38
47
46
42
41
39
35
48
46
42
46
44
39
39
39
36
33
33
30
34
33
30
37
35
32
38
37
32
43
41
37
54
50
47
56
52
47
56
52
47
56
52
46
52
49
43
54
51
45
54
51
45
47
46
40
47
46
42
61
58
56
63
60
57
62
58
55
67
66
60
76
75
66
66
65
58
67
66
59
69
66
59
63
62
54
60
60
53
64
63
56
55
53
49
43
41
37
49
48
43
55
54
47
52
50
43
55
52
46
61
60
54
70
69
64
59
56
50
64
63
56
63
60
56
57
54
50
64
63
56
71
69
63
68
68
63
56
56
51
69
70
63
67
68
61
62
62
58
66
66
61
70
69
65
75
73
69
59
58
55
60
60
56
64
64
59
56
56
51
55
54
51
64
59
54
76
69
61
78
71
62
76
69
60
75
67
59
66
58
50
75
68
60
77
70
64
67
60
52
64
57
49
58
52
43
62
53
46
40
35
32
54
48
43
50
46
39
48
44
38
46
41
36
52
48
42
55
52
45
53
47
39
54
50
42
52
48
41
53
50
43
47
44
39
46
44
39
48
44
40
47
45
39
48
47
40
51
50
43
101
95
87
66
61
55
80
72
64
76
72
63
60
55
48
68
60
53
26
23
21
62
53
44
82
67
52
22
22
17
114
110
103
60
56
49
30
26
23
90
82
72
48
40
38
60
60
56
73
70
64
28
27
24
68
68
63
90
86
76
54
50
46
71
70
66
64
63
59
40
39
36
48
46
41
126
119
108
69
65
56
58
55
47
50
44
41
46
43
43
18
17
18
35
31
29
46
42
39
44
39
37
46
44
40
47
45
42
37
37
34
56
51
49
60
51
48
42
37
32
30
27
25
78
68
54
63
52
48
61
55
53
58
50
48
40
35
33
22
16
17
38
26
26
51
37
33
58
46
43
65
47
41
78
50
37
63
40
29
133
106
83
126
102
68
114
84
58
103
66
41
95
63
44
73
49
39
55
41
35
63
58
52
61
56
49
67
62
56
61
57
51
63
62
54
61
60
49
64
61
54
69
66
59
68
68
59
70
69
60
48
46
42
51
50
42
62
59
53
64
61
54
74
69
60
61
56
47
70
65
56
71
67
59
55
52
47
51
50
46
62
61
57
78
76
68
66
62
54
70
66
58
68
64
57
18
15
13
28
24
21
56
50
42
75
68
62
19
16
14
97
87
75
85
75
67
113
106
87
71
66
53
21
18
16
21
17
15
20
18
16
31
29
23
60
54
43
74
66
50
96
89
74
91
81
67
25
20
16
43
38
34
81
68
58
51
43
38
53
49
47
50
52
50
73
74
71
24
24
23
37
35
30
76
73
62
68
63
56
13
11
10
75
72
70
59
57
58
15
14
12
41
39
31
66
63
52
70
66
54
88
82
67
77
68
53
74
67
57
17
15
11
32
29
24
39
35
34
16
16
15
45
41
36
56
49
45
63
58
53
75
67
57
76
68
55
72
67
52
95
87
78
52
45
40
57
54
50
52
49
42
54
50
43
57
54
48
32
29
25
39
37
33
44
43
39
55
51
48
51
48
41
55
51
44
50
47
39
51
45
38
50
45
38
36
33
29
53
49
44
57
51
45
40
38
32
94
86
71
62
54
45
9
9
8
11
11
10
19
19
18
27
27
27
45
43
40
63
62
55
70
69
62
75
74
67
85
81
77
75
72
68
74
71
69
79
76
74
85
82
78
85
82
77
85
83
78
85
84
78
87
86
78
79
79
70
80
79
73
62
59
58
57
54
52
48
51
47
60
59
55
54
53
49
56
57
51
101
97
87
86
82
69
86
81
70
96
88
76
92
84
72
86
80
68
97
91
78
93
87
76
54
50
44
74
72
64
86
86
77
81
78
70
70
67
59
82
80
70
86
84
74
77
76
66
81
80
69
87
83
76
68
68
60
74
72
66
68
66
60
63
60
57
60
58
54
62
60
56
67
65
58
67
66
56
76
75
66
77
75
67
75
74
65
70
67
58
64
64
53
63
60
52
65
61
54
77
73
64
79
75
66
78
74
67
72
69
61
79
76
66
75
71
62
73
70
62
77
73
66
81
76
69
79
73
67
78
73
65
79
75
67
79
76
65
79
76
65
67
62
58
87
78
70
86
79
69
89
81
71
81
76
66
77
72
62
80
75
66
73
68
58
83
78
67
70
65
54
76
71
64
81
77
71
73
67
60
50
46
42
59
55
50
62
57
51
60
57
48
67
64
55
63
60
51
64
60
51
67
57
48
62
57
46
68
63
52
63
58
48
61
56
47
68
64
57
54
50
46
46
44
40
54
53
47
42
40
32
104
97
90
65
60
55
84
76
67
76
73
63
60
55
49
66
58
50
26
23
21
57
48
40
86
71
56
22
22
18
126
121
114
58
54
47
29
25
22
88
80
70
52
45
42
65
65
61
78
74
68
30
29
25
64
65
60
87
82
73
54
50
46
66
65
61
60
59
55
36
35
31
42
40
35
123
117
106
67
63
54
60
57
49
58
52
48
11
7
7
17
16
17
51
48
46
68
64
62
47
42
41
54
49
46
60
54
51
46
41
39
50
41
40
58
49
46
38
33
30
29
27
26
53
46
40
59
47
44
56
50
48
54
47
45
37
32
30
20
17
16
36
28
26
71
55
45
62
47
40
54
43
37
49
35
29
94
73
59
82
67
54
113
95
80
81
67
56
85
57
39
107
75
57
83
56
42
63
46
35
55
53
47
55
53
47
62
58
53
53
49
44
54
53
44
60
58
50
65
62
54
70
66
58
69
66
57
67
64
56
57
54
48
61
58
51
57
54
46
58
55
47
65
63
52
67
63
53
65
60
49
39
37
32
52
49
47
69
68
60
69
66
60
73
71
64
72
68
62
68
64
58
74
69
61
24
21
17
26
22
20
49
43
39
71
64
59
19
16
14
85
79
63
80
72
61
118
112
94
77
70
58
18
17
14
17
16
12
22
19
14
32
28
21
56
49
40
67
61
48
88
82
69
90
79
64
28
22
19
44
38
33
80
65
56
50
43
37
50
47
44
55
60
59
72
73
70
26
24
23
49
46
42
75
72
61
66
60
53
13
11
9
74
70
66
51
48
47
15
14
10
38
36
28
64
59
47
69
63
51
83
76
63
76
69
56
76
68
59
17
13
11
30
28
24
38
36
34
17
15
13
44
43
37
53
50
43
58
55
47
74
67
57
80
74
59
79
72
57
92
87
77
55
50
45
46
43
39
44
40
37
73
70
61
44
42
35
21
21
16
36
36
30
49
47
42
51
47
42
50
46
41
53
50
42
50
47
39
59
54
45
53
49
40
34
32
27
50
47
42
54
47
42
43
39
35
95
87
73
60
52
43
9
9
9
11
12
10
20
18
16
27
25
23
37
38
34
55
55
50
66
65
58
68
67
59
70
69
61
71
70
62
68
68
63
72
72
66
75
74
68
76
76
70
79
78
71
82
81
73
80
80
71
74
77
72
72
72
68
59
56
50
48
44
41
56
55
52
59
60
55
57
57
53
56
54
49
98
92
82
86
81
69
86
82
70
89
82
68
85
81
66
85
80
68
86
81
69
86
84
71
62
58
51
72
69
61
74
70
62
79
74
66
79
73
66
80
77
66
79
76
68
77
73
66
79
76
67
86
81
73
84
79
72
85
79
72
83
77
70
81
78
70
77
74
66
79
73
66
77
71
64
79
76
67
78
75
66
84
81
70
79
75
64
75
72
64
70
66
58
66
64
55
71
68
60
81
76
70
77
71
64
79
74
64
70
68
58
76
72
64
74
70
62
75
72
61
82
79
69
83
80
69
85
82
72
84
76
67
85
78
69
86
78
69
90
82
74
70
64
57
93
85
74
90
83
70
85
78
67
80
75
64
74
68
59
73
68
59
77
71
63
70
64
56
68
65
57
59
56
51
54
50
46
89
85
79
46
42
35
58
57
50
67
61
51
70
65
55
62
57
47
59
54
46
64
58
48
63
56
47
67
59
49
67
59
49
64
57
47
63
56
46
68
61
50
65
62
55
95
94
88
93
91
84
122
120
106
107
99
91
68
61
58
78
73
64
72
71
61
60
55
48
68
60
50
26
23
22
56
48
41
88
72
58
21
21
19
126
122
113
60
56
49
29
27
23
91
85
76
53
48
43
63
62
57
77
73
66
35
32
31
65
65
61
86
84
74
52
47
42
72
67
62
60
58
55
38
35
35
42
40
36
125
120
110
65
56
51
60
55
50
58
55
50
10
10
10
15
15
16
35
32
30
42
38
37
28
25
24
27
23
23
23
20
19
20
18
17
53
45
42
53
46
43
34
32
30
37
33
32
54
46
41
57
48
43
52
48
46
51
43
41
32
27
24
34
29
28
38
30
27
51
42
35
49
42
35
55
42
38
50
37
33
68
49
37
120
105
90
72
60
46
131
114
102
90
63
46
107
74
52
96
68
49
72
54
39
54
53
47
50
48
42
58
55
47
56
53
45
62
55
48
62
56
49
60
56
48
62
59
51
56
52
44
61
57
49
56
53
47
59
56
50
65
61
53
62
58
50
72
69
58
69
65
55
66
61
51
61
60
55
70
66
63
73
70
63
82
80
74
77
75
69
69
66
61
63
59
54
71
67
58
29
26
23
27
24
22
49
43
39
70
63
58
16
13
10
81
75
59
74
67
56
115
108
91
71
63
53
17
16
12
23
22
19
34
30
26
47
44
38
78
73
65
99
92
82
96
89
82
99
88
76
32
26
23
41
37
33
74
64
55
46
41
35
35
35
32
46
47
48
62
62
60
32
29
28
84
83
80
84
81
69
66
60
54
12
10
8
73
69
63
44
41
39
22
21
17
53
52
45
72
68
58
70
64
53
92
85
73
79
72
59
76
68
59
18
14
13
28
27
23
42
41
38
17
15
13
47
46
40
58
55
47
61
58
50
86
80
65
80
73
58
78
71
57
92
87
77
57
52
47
42
40
36
37
33
31
46
43
35
42
39
31
19
19
14
35
35
29
39
38
31
40
36
31
47
44
38
51
48
40
54
50
43
51
46
37
58
53
44
31
29
24
51
48
43
54
49
43
43
41
36
91
83
70
58
50
41
9
9
9
11
12
10
18
17
15
24
23
21
32
33
30
45
46
41
62
61
54
66
65
57
76
75
65
71
70
60
68
67
58
73
72
63
69
69
63
62
62
57
61
62
56
76
74
67
71
71
63
70
73
68
67
67
62
69
66
60
57
54
51
48
48
44
63
63
59
60
61
55
61
58
54
90
85
73
87
82
69
83
79
66
91
83
73
82
77
66
84
79
67
81
77
66
88
85
74
68
66
58
63
59
52
68
65
57
71
66
59
75
70
63
73
69
59
77
74
66
65
61
55
71
68
59
74
71
63
71
68
60
70
67
59
68
65
57
68
64
57
69
64
57
68
66
58
69
66
59
75
72
63
75
72
63
77
75
66
73
71
64
67
64
56
72
69
61
72
68
61
69
65
58
78
74
67
76
72
65
85
81
72
73
72
62
74
72
64
76
74
66
81
79
69
83
82
72
82
80
70
85
83
73
85
81
72
83
79
69
86
81
71
89
84
74
68
63
56
81
75
64
81
74
66
77
69
61
66
60
52
65
59
53
65
59
54
68
62
58
49
43
39
53
50
45
56
53
47
61
58
53
55
51
47
64
60
57
55
53
50
59
53
45
62
57
47
58
52
43
55
50
39
53
47
39
57
52
43
56
52
43
56
51
44
61
56
50
56
52
45
55
51
40
66
63
51
63
60
61
83
81
89
49
49
46
97
93
84
63
59
56
79
75
66
71
70
59
61
56
48
69
61
51
26
23
22
56
49
41
81
66
52
18
18
16
127
123
114
59
55
48
28
26
22
89
83
74
51
46
41
64
64
59
77
74
67
37
33
33
60
61
56
87
85
75
52
48
42
71
66
61
60
59
52
39
36
34
40
39
35
120
115
105
66
57
52
60
55
50
61
58
53
12
11
11
18
18
19
35
32
31
54
51
50
48
45
45
35
33
31
34
32
31
41
39
38
45
39
36
46
40
37
39
36
35
51
47
46
52
44
40
50
41
37
49
44
42
48
41
39
29
24
22
23
18
17
35
28
25
43
38
31
53
44
39
55
42
38
49
35
31
45
33
21
99
89
74
143
126
107
90
70
58
83
58
43
118
89
63
103
72
54
79
55
42
58
54
47
50
46
39
58
55
47
57
54
46
60
56
48
58
54
47
64
60
53
60
56
48
57
54
46
64
61
53
60
59
51
57
56
47
73
68
59
75
70
60
73
68
58
72
67
58
69
67
59
58
56
50
62
58
51
79
78
70
92
91
87
64
62
58
77
73
72
62
58
55
76
70
62
30
25
22
29
26
23
49
45
41
67
60
55
16
13
11
83
77
64
85
78
68
118
111
93
67
59
51
18
17
14
21
19
16
24
23
20
27
26
21
37
33
29
56
51
45
101
94
87
99
87
74
37
30
25
37
33
30
56
49
41
35
31
26
29
27
26
31
28
27
34
33
32
34
32
31
62
61
58
71
66
59
58
54
47
20
18
16
88
85
78
47
44
42
27
26
21
37
35
30
44
39
32
57
51
43
77
70
60
74
67
53
75
69
58
20
18
16
51
48
44
44
43
41
17
14
14
27
26
23
38
35
30
55
52
45
74
69
57
78
73
58
75
67
55
92
87
75
57
51
46
39
36
31
33
29
26
46
42
37
40
36
34
18
17
15
27
26
21
37
36
29
46
43
38
44
41
35
46
43
35
51
48
40
48
45
37
48
45
38
29
26
23
48
45
40
50
44
39
43
41
36
85
79
65
53
48
39
8
8
8
10
11
9
16
14
12
20
19
17
25
24
21
34
32
28
38
37
32
41
40
35
46
45
39
48
47
39
48
47
40
54
52
47
67
65
57
33
32
28
32
28
25
40
36
33
76
72
68
31
30
28
27
25
22
58
53
48
53
49
48
23
22
20
33
33
28
41
41
36
67
64
60
92
87
75
85
79
68
85
81
69
87
81
70
88
81
69
81
75
62
81
78
68
83
80
76
61
57
53
43
38
33
49
44
38
48
42
37
46
40
35
50
43
38
48
42
37
40
36
32
47
43
35
47
43
37
46
42
36
51
46
40
50
44
40
47
45
40
44
42
37
38
36
32
35
33
29
35
31
28
37
33
30
37
34
31
33
30
26
35
31
27
43
39
35
45
42
39
32
29
25
45
41
36
45
42
38
48
43
41
40
38
35
39
37
34
41
40
36
44
40
38
37
33
30
40
39
34
44
43
38
41
39
35
40
38
34
46
43
36
47
44
37
49
44
40
74
68
58
86
78
70
74
67
59
47
40
38
62
55
53
49
42
39
60
53
50
53
49
45
73
69
60
67
65
58
52
49
43
50
48
42
67
63
59
49
45
42
67
63
56
69
64
56
61
56
49
64
59
50
60
54
46
56
52
44
47
43
37
53
49
46
55
50
43
61
58
48
53
51
41
68
63
55
83
80
78
74
73
67
89
89
83
93
86
77
62
59
55
75
71
63
69
67
59
62
58
50
68
59
50
24
20
20
57
49
43
76
63
51
20
17
16
121
118
107
61
57
49
26
24
20
81
75
65
51
46
42
59
58
54
73
69
63
36
33
33
51
52
48
92
86
77
53
48
44
71
70
65
63
60
53
39
35
32
37
36
31
117
112
102
63
55
49
61
56
51
58
54
50
12
11
10
18
18
19
30
30
27
49
47
42
47
45
40
61
56
53
55
52
48
56
54
51
53
50
47
39
35
34
43
38
38
51
47
46
49
42
41
48
39
36
52
47
45
44
40
39
26
23
22
17
13
14
26
23
23
44
36
34
54
42
38
51
41
35
45
37
31
36
29
22
44
37
30
57
43
37
82
63
49
59
44
36
87
66
51
93
70
54
74
56
43
44
41
33
48
44
37
50
47
39
47
43
36
52
49
41
46
43
36
47
44
37
49
46
38
47
44
37
54
50
44
47
46
39
51
50
41
65
61
51
64
59
51
68
63
55
73
69
59
79
74
62
96
91
79
86
82
71
97
96
85
74
73
69
50
47
44
80
77
71
59
55
47
63
57
49
29
24
21
29
26
24
49
45
42
65
59
53
16
13
10
84
78
64
77
70
57
119
112
94
67
59
51
18
17
14
22
20
17
16
16
13
29
29
23
63
61
50
83
78
65
123
115
101
95
84
71
43
35
31
33
30
28
52
46
39
97
93
83
112
106
98
100
94
86
90
85
77
74
71
62
68
63
56
72
64
54
67
60
54
24
23
21
70
68
60
42
39
36
17
17
12
30
28
22
49
44
34
65
59
48
80
73
63
71
64
50
71
65
54
17
16
13
45
42
35
43
43
38
16
14
14
34
33
30
45
41
36
49
46
39
55
50
40
69
64
50
74
67
54
90
85
73
54
48
43
44
41
36
43
39
33
44
41
34
35
30
29
15
14
12
23
21
16
37
35
29
37
34
28
43
40
34
39
37
29
49
46
38
49
46
38
40
37
29
25
23
20
48
45
40
47
42
37
29
27
22
92
87
74
51
46
37
8
8
8
10
10
9
16
14
13
22
20
19
28
26
21
33
31
24
42
36
30
46
41
34
43
38
31
61
57
46
61
58
48
45
41
39
70
67
54
52
49
41
54
50
44
62
58
53
54
50
46
31
30
26
42
39
35
47
42
35
45
42
35
38
37
29
46
43
34
64
61
54
78
74
68
88
82
73
87
81
70
83
80
67
86
80
68
86
79
66
81
74
61
75
71
63
91
88
85
68
65
62
35
32
27
38
35
31
37
33
31
35
31
29
33
30
28
32
29
27
30
28
27
29
27
24
32
30
28
32
29
27
33
30
29
35
32
31
35
33
30
35
33
30
38
36
32
41
39
35
42
38
35
40
36
33
47
44
40
45
42
38
43
40
36
57
53
50
49
45
42
43
40
36
52
49
44
56
52
48
56
50
47
53
51
46
42
41
37
47
45
42
44
40
36
37
33
31
43
41
38
38
37
34
36
33
30
37
34
31
43
40
35
45
42
37
48
42
39
77
71
61
71
64
56
65
58
51
48
43
36
51
45
40
68
62
58
70
63
60
62
55
49
59
51
44
57
49
43
50
42
35
48
45
39
56
54
49
57
55
51
61
59
51
59
54
47
60
55
48
62
57
49
51
46
38
53
48
41
45
41
35
62
59
51
64
61
49
59
56
47
55
52
42
73
68
61
48
43
39
70
68
62
40
37
31
93
85
77
60
56
52
76
71
64
69
67
59
62
57
50
67
59
50
25
21
21
65
57
51
80
67
55
21
18
16
116
112
101
58
54
47
25
24
20
82
76
66
51
46
42
61
60
56
75
71
65
36
32
32
46
46
42
97
90
81
51
45
41
70
68
62
61
58
51
37
34
30
35
34
30
121
116
106
65
60
53
60
58
52
54
51
47
10
8
8
19
19
20
23
24
21
27
25
22
29
27
24
30
28
27
32
31
29
28
26
22
31
29
25
34
29
28
31
27
26
50
46
42
47
40
37
41
33
29
54
50
48
49
46
45
26
23
22
14
12
13
23
19
20
41
33
32
48
38
34
43
37
31
45
39
35
21
16
12
19
16
13
29
25
22
33
28
25
39
32
26
42
34
26
42
33
26
42
34
24
10
7
4
10
8
5
11
8
8
10
8
7
8
8
5
8
8
5
8
8
7
8
8
7
11
8
8
12
10
9
14
12
10
14
13
10
14
14
10
17
17
14
22
19
17
31
28
26
34
31
28
25
22
19
19
17
16
36
36
34
36
35
34
67
63
55
67
59
46
67
59
46
71
64
55
27
23
21
29
26
24
50
47
43
62
58
52
13
13
10
87
82
69
68
62
51
111
106
89
63
59
49
17
16
13
20
18
15
16
15
12
26
24
18
50
44
37
62
57
46
100
93
80
111
100
89
45
37
31
31
29
25
60
54
47
61
54
46
68
60
52
62
55
46
59
53
44
63
56
48
70
63
52
72
64
53
64
58
50
28
27
24
65
62
57
35
32
31
20
17
14
35
32
25
61
56
45
74
68
58
88
78
68
74
64
53
68
62
52
16
14
12
37
35
31
39
39
37
13
13
12
35
34
30
51
50
43
56
53
45
69
63
54
78
73
58
71
64
49
90
81
72
58
52
45
43
40
36
48
44
37
45
41
35
29
27
25
14
12
10
31
29
25
43
41
34
46
43
37
44
41
35
43
40
32
45
42
34
47
41
34
48
43
37
38
34
29
56
52
47
50
45
42
68
64
56
97
93
83
46
43
36
8
8
8
10
10
9
16
14
14
25
23
20
36
35
28
78
75
63
99
94
82
104
99
88
112
109
97
112
110
97
100
98
87
103
100
91
106
102
93
108
105
93
110
107
95
103
100
88
101
100
88
108
106
95
112
106
97
112
107
99
77
73
69
73
72
66
117
111
105
115
111
102
80
75
67
88
81
72
86
81
69
89
84
72
85
79
67
84
78
66
85
80
68
79
75
63
95
92
84
58
52
49
38
36
33
41
39
34
47
42
38
47
42
38
51
48
44
55
52
49
57
52
51
57
52
50
55
52
47
54
52
46
57
54
49
54
51
46
53
50
46
53
50
45
54
51
46
53
49
45
54
51
47
50
48
43
51
49
42
53
52
45
53
52
46
58
56
51
55
53
47
52
49
43
55
53
47
54
52
46
53
50
45
55
52
48
52
51
46
54
53
48
53
51
46
54
51
47
52
50
44
53
51
45
57
55
51
55
52
48
57
54
46
61
57
50
60
54
51
51
45
39
54
48
41
47
42
35
49
43
36
55
49
42
55
50
42
55
50
42
54
49
42
57
52
45
57
51
44
47
44
39
33
31
25
35
34
30
38
35
33
47
45
41
43
41
37
41
39
35
41
38
33
44
41
36
44
41
37
39
37
32
45
43
38
47
44
38
46
42
39
40
36
32
49
46
40
49
45
40
52
49
45
43
39
34
91
84
75
63
60
55
75
69
60
72
69
59
62
57
49
68
60
51
24
21
21
63
56
49
82
69
57
24
21
19
115
111
101
56
52
44
23
21
17
81
75
65
47
41
37
59
58
53
76
71
65
34
31
31
39
40
34
97
93
81
52
46
41
71
67
59
63
59
52
37
33
30
36
34
31
124
118
106
61
55
46
63
59
52
62
58
54
9
7
9
18
18
18
21
21
21
28
27
26
25
25
23
32
31
29
32
30
28
23
24
21
30
30
27
33
31
27
27
25
25
44
40
37
44
37
33
41
35
32
60
54
50
52
45
43
24
22
21
13
13
15
20
19
21
27
24
24
27
24
24
25
23
22
24
22
22
13
11
10
16
13
14
17
15
10
16
13
10
8
5
4
3
4
4
6
4
5
6
3
5
4
2
0
4
2
0
5
3
3
6
5
4
7
8
6
9
9
7
9
9
9
9
9
9
12
10
10
14
12
10
13
11
8
17
15
12
14
15
12
11
11
8
11
10
9
12
10
9
11
10
9
20
19
16
9
6
7
7
6
6
55
54
50
73
69
57
75
66
54
72
63
51
71
63
54
26
22
21
30
26
24
50
47
43
60
56
50
11
11
8
79
75
62
69
64
55
101
96
82
55
51
44
18
17
14
20
18
15
17
15
12
27
25
19
54
48
38
63
58
45
73
68
56
100
91
82
78
72
66
45
44
36
57
50
43
61
54
47
57
50
44
61
54
45
49
44
35
61
55
47
71
63
52
71
63
52
69
63
55
33
31
28
69
65
61
50
47
45
20
17
14
40
37
30
62
57
46
69
62
52
90
81
68
81
72
58
71
64
54
21
20
17
37
34
30
40
39
37
14
14
12
31
30
26
42
41
34
60
57
49
48
41
37
64
57
48
76
70
55
90
80
72
49
43
36
43
40
36
45
38
31
49
42
35
29
27
25
12
10
8
31
30
26
43
42
35
48
44
38
46
43
37
43
40
32
50
46
39
54
48
41
53
48
41
45
41
34
46
41
35
50
45
41
52
47
42
62
58
50
49
46
40
7
7
7
8
8
7
16
13
13
18
16
14
24
22
20
43
38
34
51
45
42
55
49
45
41
38
33
43
39
36
70
67
64
57
55
52
60
60
57
56
56
57
58
59
57
61
62
60
66
66
63
55
54
51
57
54
52
31
29
30
63
60
59
27
26
25
54
51
44
71
65
54
84
77
65
88
81
69
85
80
68
86
81
69
86
80
69
84
79
67
85
80
68
80
76
63
72
68
55
62
57
48
35
33
30
46
44
39
49
45
37
55
51
43
61
59
52
62
60
53
60
58
52
59
56
50
60
57
52
58
55
50
61
58
51
62
59
51
62
61
52
64
62
54
65
62
54
68
65
57
66
64
56
63
61
53
63
61
54
65
64
57
69
68
58
67
66
56
65
63
55
65
63
55
68
66
57
64
62
53
63
60
52
66
63
55
68
64
57
66
62
55
64
61
55
64
62
56
64
62
54
68
66
58
69
66
58
69
67
58
63
60
53
59
55
48
55
49
46
57
52
46
58
52
45
53
47
40
51
46
38
56
50
43
55
49
42
57
52
45
59
51
45
60
51
45
63
54
48
55
49
44
44
38
33
42
36
33
59
53
49
65
60
54
64
59
49
66
61
51
61
56
45
68
64
52
60
55
45
57
54
43
64
61
51
46
46
35
52
49
42
49
46
37
54
53
43
57
54
45
53
50
42
66
60
56
87
79
71
60
56
52
74
68
59
69
65
56
60
55
48
69
61
52
24
21
20
66
59
51
76
64
52
23
20
19
112
108
98
61
57
49
21
20
16
82
76
66
49
44
40
62
61
56
77
72
66
33
30
29
37
37
31
98
94
82
50
44
39
73
68
60
61
58
51
35
32
29
36
34
30
122
116
104
63
57
47
64
60
56
62
59
55
9
7
9
16
16
16
16
16
16
19
19
17
25
25
23
31
29
28
26
24
23
24
24
22
23
24
21
26
24
24
37
35
33
35
33
32
29
24
22
45
39
35
61
55
51
56
48
47
24
22
21
14
13
16
19
18
21
24
24
24
23
23
23
28
26
24
43
39
37
74
70
65
73
66
62
73
66
58
87
80
70
61
56
49
37
34
33
26
24
23
28
26
25
85
82
81
81
78
77
70
71
69
66
68
65
57
57
55
52
52
50
51
51
47
46
47
43
48
48
45
55
55
51
65
64
61
56
55
52
36
36
36
63
63
59
36
34
32
16
13
12
52
51
46
85
85
72
75
75
66
23
22
19
57
56
50
75
69
58
68
61
52
67
60
51
64
59
49
25
24
21
28
23
21
53
47
42
63
58
53
15
14
12
66
61
53
64
59
50
100
96
83
56
52
44
19
15
13
18
15
13
15
14
11
28
26
21
50
45
36
52
49
37
46
42
35
74
71
67
37
33
31
70
62
55
63
55
47
57
49
41
37
32
26
68
63
53
39
35
30
48
42
37
73
63
53
75
65
55
68
61
52
28
26
23
55
49
48
45
41
41
14
13
12
36
34
29
63
55
45
69
63
53
95
87
72
77
68
53
69
62
52
14
12
9
39
37
33
38
37
36
12
12
11
30
30
25
58
52
47
63
61
52
79
72
61
76
69
56
81
73
61
91
82
73
52
45
40
42
39
31
50
43
34
52
45
36
33
31
29
11
9
6
36
32
29
60
56
49
60
55
45
63
58
48
58
53
44
52
47
38
53
45
39
50
43
32
50
45
36
57
54
47
49
46
44
50
49
46
78
73
67
52
49
43
7
7
7
8
8
7
14
13
14
18
18
17
23
21
19
33
28
24
43
36
29
42
35
29
40
33
31
31
27
24
61
58
53
34
31
25
46
46
42
55
54
51
47
44
43
54
52
51
62
60
57
49
47
43
37
33
30
38
34
31
54
52
50
21
19
18
51
46
43
72
64
53
82
75
61
87
80
66
84
77
66
86
79
67
84
79
67
83
78
66
82
75
62
78
71
58
74
68
56
69
64
55
29
27
23
34
32
26
31
26
24
35
30
28
36
31
27
39
35
31
40
35
32
41
37
33
51
46
42
48
44
40
47
42
37
47
43
37
50
47
43
47
44
40
51
46
44
44
39
36
42
37
32
41
36
31
44
40
35
49
47
42
53
49
45
51
47
44
55
50
48
49
43
42
45
41
39
43
38
36
45
40
39
43
40
38
43
39
35
41
37
33
47
42
40
50
45
43
50
46
41
53
49
44
57
52
47
59
55
50
60
54
48
64
58
53
53
48
46
39
36
29
41
37
31
41
36
31
41
36
31
41
37
32
42
39
33
45
42
37
51
45
40
48
43
38
49
44
41
47
42
41
42
37
34
39
34
32
41
36
35
48
43
37
49
45
37
52
48
40
48
44
39
46
42
36
46
44
39
49
46
40
51
48
41
43
40
34
43
41
37
38
35
31
38
34
32
47
43
41
44
40
35
57
52
48
87
79
71
62
58
54
74
70
61
70
65
56
58
51
46
68
59
52
21
19
17
67
61
53
73
61
52
20
19
19
101
100
89
69
63
57
21
18
16
75
69
59
52
47
43
63
62
57
74
67
61
33
28
29
32
31
26
84
80
68
44
40
35
70
67
58
62
57
50
33
28
25
32
31
28
119
115
103
68
59
53
46
44
43
48
47
47
30
25
27
22
22
22
15
15
15
24
21
22
25
22
23
27
25
24
26
24
22
23
24
21
21
21
19
21
21
21
19
19
18
35
32
31
47
44
44
49
40
38
64
58
54
54
47
47
20
16
19
9
9
9
19
18
18
25
22
23
24
22
23
27
22
24
31
25
27
70
66
62
35
31
29
43
39
39
44
41
38
56
50
47
56
49
48
42
37
37
44
37
35
47
45
43
48
46
44
50
49
46
49
48
46
45
45
42
43
43
40
45
45
41
52
52
48
49
50
46
62
63
57
58
57
53
60
59
55
45
44
46
87
87
83
44
42
37
23
22
16
51
50
44
70
71
59
68
70
61
43
45
42
51
50
44
75
69
59
73
65
56
65
58
49
68
64
53
23
22
19
26
21
19
51
45
40
64
59
53
16
15
13
70
64
57
72
67
60
92
88
75
53
49
40
18
14
12
19
16
14
16
14
11
24
22
17
54
49
39
61
54
41
91
85
71
100
91
76
40
35
29
59
51
44
78
70
61
55
48
39
41
35
30
68
63
53
38
33
29
44
38
33
80
70
58
74
65
52
65
59
50
31
30
26
56
50
48
32
27
28
12
11
11
37
35
30
61
53
44
68
62
52
92
84
69
78
69
54
74
68
57
13
11
9
35
32
29
37
37
35
10
10
9
28
27
23
54
48
43
54
52
43
69
62
48
78
72
56
81
74
61
93
84
76
50
44
38
42
39
32
41
37
30
43
39
33
32
30
28
11
9
6
37
33
30
51
46
40
56
51
41
52
47
38
47
41
32
48
43
33
39
35
25
45
40
31
37
33
27
41
37
35
50
46
43
45
44
40
77
73
62
51
47
42
6
6
6
7
7
6
13
13
14
19
19
18
22
20
19
38
33
29
38
33
26
36
31
25
39
34
31
35
34
30
69
66
61
33
29
24
41
37
34
43
39
36
43
41
39
47
45
43
50
48
44
46
44
40
40
39
35
31
31
27
52
50
49
26
24
21
66
62
54
73
66
53
81
75
61
83
76
61
85
78
65
83
76
65
83
78
66
80
76
64
83
76
62
80
73
60
74
66
54
70
61
53
30
27
24
49
47
41
48
43
39
58
52
49
73
68
61
70
66
58
68
64
58
63
59
53
69
65
59
64
60
54
63
62
53
58
57
48
53
52
47
56
55
50
56
52
49
58
55
48
60
57
50
60
57
51
65
61
56
60
59
54
57
54
50
55
52
49
57
54
51
53
50
47
54
51
48
52
49
46
56
53
50
55
53
50
58
54
50
56
52
48
62
59
57
57
54
52
57
55
49
56
54
47
57
55
48
51
48
41
52
46
40
55
49
44
50
45
41
58
54
47
66
58
54
62
54
50
62
55
51
61
54
49
62
54
47
70
62
54
70
64
57
68
64
56
59
55
47
57
54
45
61
57
50
52
49
43
60
57
52
71
67
58
58
56
48
58
55
48
51
48
41
53
49
46
47
45
40
66
65
58
73
70
61
64
61
51
80
78
68
54
52
43
70
68
55
66
62
50
68
60
52
72
65
57
89
82
73
64
61
56
78
74
65
73
68
59
55
48
43
70
61
54
18
15
13
67
61
52
77
66
57
24
23
23
101
100
90
67
62
55
20
17
15
75
69
59
54
50
44
54
54
48
65
58
52
28
23
24
31
30
26
90
85
72
43
39
34
71
68
59
58
52
46
30
25
22
31
30
27
116
112
100
67
58
53
16
14
13
41
40
40
45
41
42
30
30
30
15
15
15
21
19
20
23
20
21
23
21
19
21
19
17
21
22
19
20
20
17
18
18
18
19
19
19
52
49
47
61
59
58
29
24
21
58
55
50
54
47
47
21
17
20
11
11
11
19
19
19
27
24
25
25
22
23
30
26
27
29
24
26
43
39
36
45
41
39
43
39
37
34
30
30
25
21
22
34
29
31
15
13
14
24
19
17
27
25
22
24
22
23
29
27
25
28
27
22
31
30
26
30
28
24
38
35
32
41
39
34
46
43
39
39
38
33
26
24
21
45
44
38
40
40
35
39
38
35
38
36
31
28
29
23
38
37
32
80
79
65
64
57
46
17
17
12
52
52
47
73
69
60
65
60
50
66
61
52
65
57
48
26
22
20
21
20
18
50
46
41
68
62
56
18
17
16
70
65
59
69
66
58
90
87
74
54
51
40
17
16
13
17
15
13
14
12
9
24
22
17
44
38
31
52
46
35
74
66
54
78
67
52
44
38
32
47
43
38
57
52
42
55
49
41
49
43
39
48
42
38
26
21
21
36
32
28
76
67
58
74
67
54
65
58
54
36
34
31
44
39
37
22
17
18
11
9
9
34
32
28
56
51
44
61
55
48
91
82
67
77
68
53
72
64
53
11
9
9
32
29
27
38
37
37
11
9
8
31
30
26
49
43
39
49
42
37
70
63
49
80
73
57
80
72
56
90
85
76
50
44
39
40
37
33
37
35
29
50
44
37
40
37
34
12
10
10
49
47
38
67
63
48
67
62
49
79
74
62
52
47
38
53
48
37
50
45
35
38
35
29
27
23
20
42
39
35
56
51
46
36
34
31
72
69
56
51
48
41
6
6
6
7
7
6
13
13
14
19
20
18
24
22
20
37
32
27
27
24
19
61
59
52
62
58
53
50
45
40
74
68
66
42
37
33
44
41
36
53
50
45
60
56
51
59
55
49
58
53
46
60
55
48
63
59
52
47
43
37
51
46
45
51
46
41
70
66
53
70
66
52
84
77
63
86
80
65
87
80
67
87
80
67
86
79
68
86
78
68
81
76
62
77
73
59
73
66
54
70
63
53
30
28
25
56
54
50
64
60
57
67
64
59
67
63
55
72
69
60
79
77
70
78
76
67
76
71
61
75
71
61
71
67
57
68
65
55
71
67
58
71
67
58
69
67
59
71
68
61
74
69
63
71
66
60
70
68
63
68
65
61
63
59
55
62
56
52
67
63
57
70
66
61
64
61
56
70
66
62
78
73
70
80
77
73
76
72
68
77
74
68
83
81
76
86
84
79
82
81
76
82
81
76
78
76
69
72
71
63
74
74
66
74
71
66
53
50
45
57
52
44
58
49
43
57
47
42
58
50
43
57
51
44
51
47
41
46
42
35
46
42
36
31
28
24
38
34
29
34
30
25
43
38
35
35
31
28
36
33
32
52
47
41
48
43
38
48
43
38
47
47
40
54
53
47
59
57
48
48
43
36
63
58
48
55
52
42
48
44
37
42
37
33
55
51
45
42
38
35
42
38
35
33
29
26
90
87
78
71
67
63
74
70
61
77
72
63
52
49
41
64
57
48
15
13
13
66
61
53
79
68
60
28
22
23
99
100
91
63
60
51
17
15
12
76
70
60
49
44
40
55
55
50
64
60
54
28
25
25
26
26
22
92
87
74
51
46
39
72
66
57
61
53
47
27
22
21
29
28
25
114
111
97
68
59
54
18
16
16
50
51
52
54
52
53
28
28
28
16
16
16
27
27
27
27
27
27
31
28
29
29
27
27
28
26
24
28
26
24
20
18
18
20
18
19
56
50
49
51
47
47
38
31
28
61
56
52
55
49
47
22
18
21
11
10
13
18
18
20
26
23
24
23
21
21
28
25
26
26
24
25
56
54
53
31
32
32
32
31
30
36
34
35
32
28
27
33
27
27
17
15
17
41
38
38
37
35
32
21
19
20
36
39
34
56
58
49
50
50
40
54
54
46
62
63
51
53
52
45
54
55
46
50
49
41
23
21
18
52
50
43
48
45
38
49
44
39
41
38
34
35
36
31
17
16
15
57
56
45
47
39
30
16
15
15
59
59
54
76
72
64
66
61
51
65
60
51
64
56
47
27
23
21
17
16
14
47
43
39
69
63
57
18
16
16
68
63
57
74
71
63
87
84
71
54
50
40
16
15
12
17
15
12
13
12
9
23
21
15
46
40
33
53
48
37
64
56
44
80
68
54
50
45
39
43
38
33
53
48
38
47
42
33
76
71
62
51
47
37
35
31
27
35
30
29
50
45
37
68
61
51
61
54
49
50
48
45
50
45
43
19
15
16
9
8
7
49
47
42
73
68
57
72
66
55
96
87
72
73
64
50
72
64
53
14
12
12
33
30
28
37
36
36
11
8
8
31
30
27
51
44
41
55
48
44
71
63
53
69
62
50
68
62
49
88
81
75
43
37
34
89
89
74
66
61
47
39
32
28
38
33
31
14
12
12
41
39
35
56
50
41
52
47
38
59
54
46
50
44
37
45
39
29
51
41
34
40
33
29
36
32
29
41
38
34
53
47
42
33
32
29
80
77
64
50
47
40
6
6
6
8
8
7
12
12
13
18
18
16
24
22
20
34
30
25
37
31
28
49
45
38
57
53
46
49
45
38
65
60
54
59
54
47
40
37
31
56
53
48
59
56
50
63
58
52
71
68
57
70
66
55
92
86
77
94
88
78
56
51
47
49
45
38
70
65
52
75
71
57
81
74
60
85
78
63
85
78
64
85
78
65
85
78
65
83
76
64
79
75
60
79
74
60
74
67
55
68
61
51
22
20
17
40
38
34
49
46
43
54
50
48
53
50
45
51
48
42
57
57
46
60
59
52
53
53
48
48
48
43
49
49
45
44
43
39
50
48
40
54
53
44
50
50
46
51
51
48
56
55
49
51
50
43
52
49
42
52
49
43
51
49
46
44
42
39
44
40
35
41
38
33
38
40
36
38
39
35
43
41
38
42
39
36
36
36
32
36
36
34
37
38
35
36
38
35
37
37
35
39
39
37
48
46
42
42
40
36
45
41
35
51
44
38
45
41
36
55
51
42
56
48
42
49
41
34
52
48
41
52
45
41
52
49
41
52
49
42
59
56
50
53
49
42
63
60
54
51
49
43
53
53
44
55
56
46
64
62
50
68
61
48
66
60
48
76
72
60
60
54
44
60
56
43
69
65
54
47
44
35
54
49
40
51
49
39
43
40
33
47
43
37
55
51
47
54
51
46
57
54
51
61
58
56
87
84
75
67
64
60
76
72
62
76
71
62
50
47
38
60
53
44
15
13
13
69
64
57
79
67
60
26
20
20
103
103
95
62
60
51
18
16
13
78
72
62
53
48
45
59
58
54
65
60
54
28
24
24
25
25
21
94
89
75
53
48
41
73
66
57
57
49
44
24
19
18
26
25
22
118
115
100
71
63
57
36
35
34
66
66
65
40
39
40
26
26
26
15
15
15
20
20
20
22
22
22
20
21
21
20
22
21
21
23
22
19
20
20
20
18
19
19
17
18
55
49
48
58
53
53
44
37
35
61
56
52
57
50
49
22
18
21
10
9
12
17
17
19
27
24
25
23
20
21
26
24
25
25
23
24
59
53
50
40
39
36
43
41
38
36
34
31
32
28
27
32
26
26
28
26
25
49
48
43
