P3
64 64
255
59 65 72 59 64 72 63 69 76 78 84 92 65 74 84 46 50 60 48 50 60 44 44 51 38 39 46 42 45 55 46 48 58 44 48 57 98 110 121 68 72 78 27 29 34 52 56 60 48 51 55 48 51 55 48 51 55 48 51 56 51 54 58 44 46 50 29 30 37 66 68 79 41 44 52 40 43 53 61 63 68 72 79 87 37 40 45 38 39 43 38 39 43 38 39 43 38 39 43 38 40 43 38 39 43 38 39 43 39 41 44 36 37 40 54 59 64 65 69 74 39 42 52 44 47 57 39 42 50 59 66 76 73 82 93 55 54 64 71 71 80 71 71 80 73 73 82 66 66 76 56 55 65 66 73 81 96 107 118 61 69 80 40 41 52 43 45 57 47 55 57 146 28 172 140 25 167 39 59 51 64 67 77 90 99 108 58 64 71 60 64 70 
96 106 115 97 107 115 79 86 93 76 82 88 65 73 83 45 49 60 48 50 60 44 44 51 37 38 45 42 45 55 46 48 58 44 48 57 97 110 122 69 74 79 24 27 31 47 51 54 44 47 51 45 48 52 45 48 52 44 47 51 46 50 54 40 43 46 28 29 36 65 67 78 41 44 52 40 43 54 60 63 67 71 79 86 33 37 41 34 34 38 34 35 39 34 35 39 34 35 39 34 35 39 34 35 39 34 36 39 35 35 39 31 32 35 53 58 65 66 69 74 41 43 52 45 49 58 40 43 52 58 65 75 71 80 90 61 60 69 72 72 82 72 71 80 66 65 75 63 62 73 57 56 66 65 73 81 96 107 117 61 69 79 40 42 51 43 45 56 45 54 55 145 27 170 140 25 166 39 59 51 65 67 77 83 89 95 91 100 108 98 107 116 
86 98 111 89 101 114 65 75 86 67 74 81 66 74 84 45 49 59 48 50 60 44 44 51 38 38 45 42 45 55 45 47 58 44 48 58 96 107 119 60 64 69 24 26 32 32 34 40 31 33 39 31 33 39 31 33 39 31 33 39 32 33 39 31 32 39 30 32 39 64 66 77 35 37 45 31 33 41 55 57 61 71 78 86 33 36 41 34 34 38 34 35 38 33 34 38 34 35 38 34 34 38 34 35 39 34 35 39 35 35 39 32 32 35 53 58 65 65 69 73 35 37 45 39 42 50 34 37 44 56 64 73 72 81 91 46 44 51 58 56 64 63 61 71 60 58 69 53 51 60 42 40 48 66 72 81 96 107 116 61 69 79 40 42 51 43 45 56 45 54 56 145 28 170 140 26 165 40 60 52 66 69 79 83 93 104 81 93 106 87 99 112 
89 100 112 88 99 112 73 84 96 71 78 85 65 73 82 45 49 59 48 50 59 44 44 50 38 38 46 42 45 54 45 48 58 42 46 55 77 86 96 63 66 71 39 41 52 43 46 56 43 46 57 43 45 58 43 46 56 43 46 56 43 46 56 43 46 57 41 43 52 63 64 74 41 43 53 40 43 53 60 62 67 70 77 85 36 39 44 39 40 43 39 40 44 39 40 44 39 40 44 38 40 44 39 40 44 38 39 43 39 40 44 35 36 39 53 59 65 64 68 72 34 36 44 38 41 50 35 37 44 54 62 70 81 92 105 62 67 78 61 65 75 61 66 76 62 67 76 60 65 74 61 68 78 74 84 93 93 104 113 62 69 80 40 41 52 43 45 55 47 55 56 149 28 174 143 25 169 40 61 52 65 68 77 95 107 119 85 97 110 87 98 111 
91 101 113 78 89 101 66 75 87 71 78 86 65 74 82 45 49 58 48 50 58 44 44 51 38 39 46 42 45 54 46 49 59 39 43 51 90 101 112 76 81 86 36 39 48 41 43 53 45 47 58 44 46 57 44 46 58 45 47 58 40 42 52 41 43 54 41 43 52 62 64 74 41 44 53 40 43 53 59 61 66 70 78 85 37 41 46 36 37 41 37 37 42 37 37 42 36 37 41 36 37 41 36 37 41 35 36 41 35 36 41 32 34 37 51 57 63 66 69 74 40 43 52 45 49 59 41 44 52 55 62 71 82 93 105 60 68 77 60 69 76 61 69 77 62 70 78 60 67 75 65 74 85 79 89 99 92 103 111 62 70 80 40 41 52 43 46 55 47 54 56 136 34 158 132 34 154 41 58 51 65 68 77 93 104 115 85 97 110 88 98 110 
83 93 104 70 79 91 67 76 89 71 78 85 65 74 82 45 50 59 49 51 62 46 46 52 38 38 45 42 45 54 45 48 58 45 49 58 96 108 119 71 77 82 35 37 47 44 46 57 44 46 58 44 46 58 44 47 58 41 44 54 38 40 50 43 45 56 41 43 52 62 64 74 42 44 53 39 42 52 59 62 66 71 79 86 33 37 41 33 34 38 34 36 40 34 35 39 34 36 40 34 35 40 34 35 40 34 35 39 34 35 39 33 35 38 52 58 64 65 68 73 39 42 51 44 47 57 39 42 50 55 62 71 79 90 101 51 56 62 53 58 64 52 58 64 54 59 65 49 54 58 57 64 72 79 88 98 93 103 111 62 70 80 40 42 53 44 48 58 52 53 61 64 60 74 62 59 72 48 52 59 62 67 74 94 105 117 85 97 109 87 99 111 
71 81 93 70 79 92 66 76 88 71 77 85 66 74 83 43 47 56 39 41 49 37 38 44 35 36 43 43 46 56 45 48 58 44 48 57 94 106 117 72 77 83 38 40 51 45 48 59 44 46 58 44 46 58 44 46 58 42 45 56 42 44 55 42 44 55 42 44 53 61 63 73 40 43 52 40 43 54 60 62 67 73 82 90 37 41 48 36 37 42 37 39 45 37 39 45 37 38 44 37 38 44 37 38 44 37 39 45 36 38 44 35 36 41 61 68 76 65 68 73 40 43 53 45 49 58 41 43 52 56 64 73 78 88 100 50 55 61 54 59 64 55 60 66 55 61 66 50 55 60 57 64 71 79 89 98 92 102 111 63 71 80 36 39 46 38 40 50 50 51 57 52 54 61 25 26 34 36 39 48 66 72 78 91 102 114 85 97 109 81 91 103 
65 74 85 67 76 87 48 54 63 65 71 79 67 76 85 46 50 59 42 44 51 39 41 49 46 49 59 45 48 57 45 47 58 41 45 54 95 106 117 69 72 78 37 39 47 42 44 52 41 43 52 41 43 52 42 43 52 42 43 52 41 43 51 43 45 54 39 41 49 43 44 53 34 36 44 33 35 43 55 57 62 75 80 86 70 78 87 70 77 84 67 74 82 68 75 83 69 76 84 68 76 84 68 76 83 68 75 82 69 76 83 68 75 82 67 73 80 70 73 77 31 33 41 36 39 47 32 34 41 49 55 63 84 96 108 63 70 78 65 72 80 65 73 80 66 74 81 61 68 75 66 73 82 77 86 96 83 94 106 60 66 76 68 70 81 58 60 67 55 57 61 41 43 52 34 33 43 36 39 45 64 70 77 65 72 80 69 78 88 66 73 84 
54 63 72 54 63 72 53 61 70 65 73 84 48 50 59 29 29 36 48 50 60 43 45 51 41 44 53 45 47 58 38 40 49 63 70 79 91 102 114 69 76 86 52 51 59 61 61 70 71 70 81 69 69 80 70 70 80 70 69 80 70 70 81 66 65 76 52 52 59 38 40 48 44 47 56 41 44 54 42 45 53 70 73 77 74 77 81 73 76 80 71 74 78 69 71 75 70 73 76 69 73 76 69 73 76 67 70 74 69 72 75 73 77 81 71 75 78 52 54 60 39 42 51 41 44 53 42 44 53 36 39 47 57 64 72 61 68 77 57 64 74 58 64 74 56 62 71 66 74 84 70 79 89 60 68 77 63 70 79 67 70 81 57 60 68 56 58 64 38 39 48 31 31 41 43 40 50 40 40 48 47 52 60 58 66 73 54 61 68 54 61 68 
37 35 44 37 35 44 38 36 45 32 30 38 36 33 41 43 41 50 34 32 41 46 48 58 42 45 52 38 41 50 71 81 92 89 101 114 85 96 109 87 100 112 64 71 80 61 60 70 73 73 84 71 71 82 71 71 83 71 71 83 72 71 84 66 66 77 64 64 74 62 63 71 37 39 48 44 47 58 44 47 56 38 41 52 38 41 51 39 42 52 34 36 45 28 30 36 21 23 29 22 24 29 22 24 29 26 27 34 28 30 37 39 42 51 39 42 51 41 44 53 44 47 56 43 47 56 43 46 55 40 42 52 39 41 50 36 38 46 43 45 51 43 46 52 41 43 49 70 77 86 74 82 90 54 59 66 66 69 80 65 67 75 46 47 52 30 32 39 36 36 45 44 42 52 59 57 69 44 42 53 33 31 39 37 35 43 38 35 43 37 35 43 
33 28 37 33 28 37 34 29 37 28 24 31 45 43 52 62 59 71 50 47 57 32 30 39 44 46 56 50 54 61 79 89 101 86 98 111 84 95 108 85 96 109 88 100 113 63 71 81 61 61 71 73 73 85 72 72 84 70 71 82 69 70 81 71 71 83 71 71 82 73 73 83 56 56 64 38 41 50 44 47 58 44 49 57 45 49 58 45 48 58 45 48 58 46 50 59 46 50 59 46 50 59 46 50 59 46 50 59 46 50 59 46 49 58 46 49 58 44 47 57 43 47 56 43 47 56 43 46 55 44 47 56 40 43 53 59 63 69 83 86 96 78 81 92 79 83 93 75 78 88 57 59 66 69 72 83 61 63 71 54 56 63 48 50 63 30 30 38 39 36 46 54 52 65 57 54 66 57 55 68 36 34 43 33 28 37 35 30 39 33 28 37 
53 52 60 53 52 60 53 52 59 55 54 62 56 54 62 49 47 56 57 55 64 50 48 55 29 26 34 43 44 54 47 50 58 75 84 95 88 99 112 83 95 107 84 95 107 88 100 113 65 72 83 62 63 73 59 59 69 68 68 78 72 73 83 71 72 81 70 71 81 70 71 81 74 73 83 45 45 52 40 41 50 45 46 56 45 45 55 44 46 55 44 46 55 44 46 55 44 45 55 44 45 55 44 46 55 44 45 54 43 45 54 41 44 53 41 43 52 41 43 53 40 43 52 40 43 52 41 44 53 37 40 49 52 56 62 78 82 92 69 72 85 71 74 86 70 72 84 55 58 67 68 70 82 62 64 71 55 56 65 46 49 62 33 32 42 31 27 37 73 72 81 71 71 78 50 49 57 56 54 63 55 53 62 53 52 61 51 50 58 54 53 61 
81 81 86 81 81 87 81 82 87 80 81 86 84 84 91 68 69 74 75 75 81 86 87 93 34 33 37 22 17 26 44 45 55 48 51 59 73 81 92 87 98 112 83 95 107 84 96 108 88 100 113 65 73 83 54 64 72 64 79 89 62 78 87 61 80 89 61 80 90 61 80 90 58 77 87 53 72 80 46 63 72 38 54 63 39 56 64 39 57 65 39 57 65 39 56 65 39 55 63 39 55 63 39 51 60 42 53 62 45 53 62 52 56 65 54 59 66 53 56 63 52 54 62 52 54 62 52 54 61 56 59 65 78 81 90 71 74 86 71 74 85 73 77 88 58 60 69 65 67 78 62 63 71 55 56 65 47 48 62 34 34 42 23 18 27 33 29 38 70 64 77 81 75 87 79 80 86 83 83 90 83 83 89 81 82 87 67 68 73 79 81 87 
69 73 79 70 73 80 69 73 80 70 73 80 63 65 73 57 57 66 50 50 57 65 65 74 48 48 54 38 35 44 25 22 29 40 41 51 45 47 56 78 86 99 86 98 111 83 95 107 84 97 109 85 92 107 58 114 119 58 159 160 71 152 155 70 153 155 69 154 156 70 154 156 69 154 156 70 155 157 69 155 157 68 155 156 68 155 157 68 155 157 67 154 157 67 154 156 67 154 155 69 154 156 66 161 162 52 156 155 70 96 106 90 99 112 81 87 98 76 78 90 76 78 90 76 79 91 76 79 90 77 80 91 72 75 87 71 74 86 71 74 86 71 74 85 57 59 69 61 63 71 55 57 65 44 45 58 36 36 44 41 39 47 37 32 43 30 41 34 92 23 109 105 19 124 58 71 67 69 67 80 69 69 80 53 53 63 51 51 58 59 61 69 
49 54 59 53 58 63 52 56 61 50 56 61 60 64 72 57 58 66 69 68 78 67 66 75 52 52 57 48 48 56 32 31 37 44 43 52 41 44 53 60 67 77 89 100 114 83 95 107 84 95 108 84 97 110 73 97 109 60 156 155 101 189 189 104 181 182 103 181 182 103 181 182 103 182 183 102 181 182 101 181 181 101 183 183 101 182 183 100 181 182 99 179 181 100 180 181 97 180 181 100 179 180 77 199 195 56 123 126 81 92 106 77 87 98 68 70 82 67 70 82 67 70 81 66 70 81 67 70 82 67 70 81 68 71 82 68 71 83 68 71 83 68 71 83 55 57 67 58 60 67 46 48 59 44 46 56 71 74 83 48 45 55 45 42 52 27 42 31 119 28 140 138 24 162 55 72 62 71 68 82 68 68 79 69 69 82 55 56 64 57 62 70 
50 54 58 54 57 63 52 56 61 51 55 60 60 63 72 58 58 67 67 67 77 65 65 74 64 65 70 53 52 61 41 39 48 57 57 64 45 47 57 58 65 75 90 102 116 84 95 109 84 96 108 83 96 108 83 95 109 65 107 115 55 132 136 56 133 136 56 133 137 56 133 138 56 134 138 56 134 139 57 136 140 56 135 139 56 135 139 56 135 140 55 135 139 56 134 138 56 135 139 54 134 139 51 120 124 76 95 106 84 94 107 65 68 79 64 67 75 71 75 83 72 77 85 73 77 85 73 77 85 73 78 86 73 78 85 73 78 85 73 78 86 68 72 79 55 57 65 58 60 69 42 43 54 57 64 76 87 94 106 47 44 52 60 59 67 30 45 35 115 27 134 132 23 155 55 71 63 71 68 82 68 68 80 68 68 80 56 56 64 56 61 69 
47 51 57 51 55 61 50 54 60 49 53 59 60 63 72 57 57 67 67 67 77 65 65 73 55 55 60 46 45 53 38 36 44 48 48 55 36 38 46 56 63 73 80 92 104 79 90 103 84 97 110 83 95 108 83 95 108 83 93 107 81 90 103 81 92 106 80 91 106 81 91 106 80 91 105 81 92 106 75 85 98 78 88 102 81 92 106 81 92 106 81 92 106 81 92 106 81 92 107 82 93 107 81 89 102 79 90 102 78 83 95 61 62 73 56 64 71 67 75 83 58 64 71 58 64 72 59 65 72 58 65 71 58 65 72 59 65 72 59 64 72 57 64 71 57 61 69 52 53 61 39 40 48 50 55 65 72 77 88 47 45 53 59 58 66 30 44 35 115 26 134 133 23 155 54 71 62 71 67 81 68 67 78 68 68 80 55 55 63 57 61 71 
57 63 71 59 65 73 59 65 73 58 64 71 60 63 72 58 58 67 67 67 76 66 66 74 65 65 71 60 60 69 40 38 47 55 55 62 45 46 56 58 65 75 67 76 84 58 66 74 67 76 85 66 74 83 66 75 83 66 76 84 66 77 85 66 76 85 66 76 84 66 76 84 66 76 84 68 78 86 48 55 62 74 85 97 88 101 113 86 97 109 85 98 110 85 98 110 85 97 109 87 99 111 77 88 99 71 77 87 73 75 88 62 65 75 61 71 80 47 52 60 45 47 51 49 52 56 49 51 55 49 51 55 48 51 55 50 52 56 44 46 50 49 55 62 56 60 70 56 57 65 42 43 52 52 58 68 66 73 85 47 45 53 61 59 67 31 45 35 115 27 134 133 24 156 56 72 63 72 68 82 70 69 81 68 68 80 55 55 64 55 59 70 
57 59 68 56 59 68 57 60 69 56 58 67 58 60 70 50 51 58 47 47 53 57 57 65 61 62 66 54 54 61 35 34 41 55 55 62 46 47 58 56 63 72 63 73 82 59 69 78 70 81 91 70 79 89 66 75 85 66 75 85 67 76 86 67 77 87 66 76 86 66 76 85 65 76 86 68 78 88 48 55 63 67 78 88 80 91 102 77 88 99 77 88 99 76 88 99 79 89 100 73 83 93 58 61 72 67 68 80 56 57 66 46 48 55 64 73 83 47 53 60 47 50 54 56 59 62 54 58 61 54 57 61 54 58 61 55 59 63 46 49 51 49 54 61 56 61 70 57 58 66 39 40 49 56 63 74 71 79 91 46 44 51 61 59 67 27 42 31 113 26 132 132 23 154 50 65 57 64 61 73 63 63 73 48 49 56 47 47 54 56 58 67 
46 45 56 46 45 56 47 45 55 47 45 56 49 48 57 47 45 54 48 47 56 44 42 51 59 60 64 56 57 65 35 34 41 51 51 57 46 47 55 35 36 44 44 44 54 47 48 57 47 47 57 42 45 50 107 113 116 108 114 120 101 107 113 102 110 114 102 110 114 102 110 115 102 110 115 102 110 115 103 112 116 101 109 114 100 108 113 101 108 114 101 109 114 101 109 114 102 110 115 102 108 113 99 105 110 98 105 109 105 112 116 83 87 91 59 68 78 58 63 71 47 48 54 47 50 56 47 49 56 47 48 55 46 49 55 48 52 58 43 47 52 55 58 69 57 59 70 57 59 67 41 42 52 56 62 74 68 76 88 42 41 48 59 58 65 26 40 28 112 24 130 129 18 151 36 49 42 53 48 61 48 47 57 47 46 56 47 45 56 50 48 58 
56 55 64 55 54 64 56 54 63 56 55 64 50 47 58 57 54 66 59 56 67 54 51 63 61 62 67 62 62 71 33 32 39 47 47 53 49 51 62 31 30 38 40 38 47 39 36 45 35 34 42 65 71 78 100 107 115 74 82 93 95 106 119 92 103 115 93 103 116 93 104 117 92 104 116 92 104 116 92 104 115 93 105 117 93 105 118 92 105 117 93 105 118 93 105 118 93 105 118 93 105 119 94 106 119 81 93 105 67 75 84 63 70 79 58 65 74 58 84 91 57 88 95 54 85 93 54 85 93 58 91 99 59 89 97 57 72 81 68 76 88 58 81 77 48 59 61 52 54 62 43 44 56 48 53 63 68 73 83 50 48 56 61 59 67 33 48 37 117 27 136 132 19 154 46 61 52 57 51 65 59 57 66 59 58 67 59 58 67 58 57 66 
115 120 121 114 119 120 113 118 119 117 122 124 94 97 101 49 46 56 56 54 65 56 54 65 50 50 57 54 53 61 28 22 34 44 42 50 51 53 64 37 36 45 53 50 61 52 50 61 45 44 54 70 77 84 87 95 105 71 80 92 86 97 111 85 95 110 85 95 110 86 95 110 85 96 109 85 96 109 84 96 109 85 96 109 84 96 110 84 96 109 84 96 109 84 96 108 85 96 111 84 95 110 71 81 93 66 76 88 60 70 81 55 56 67 50 93 97 64 144 142 73 109 111 80 124 127 79 124 127 72 106 108 64 157 155 59 161 158 51 59 59 112 38 134 78 46 93 48 58 57 44 44 57 55 61 73 84 91 101 53 51 58 57 54 63 31 45 34 117 28 136 133 21 155 37 51 43 80 78 87 117 121 123 117 120 121 115 119 120 115 119 121 
85 89 97 85 89 97 84 88 96 78 81 88 102 107 110 97 102 104 48 46 56 57 55 66 57 55 66 45 42 51 29 22 34 41 41 47 51 54 65 38 38 44 49 49 54 48 48 53 44 43 51 67 73 80 96 105 116 88 99 114 85 97 109 86 97 111 85 96 109 87 97 111 88 97 112 86 98 112 86 98 111 86 97 111 86 98 110 86 98 111 86 98 110 87 99 111 85 96 110 71 82 94 67 77 89 68 78 90 72 84 96 60 60 71 48 104 107 82 129 132 82 77 89 92 100 112 89 96 108 59 56 66 46 71 77 49 101 95 106 26 124 109 26 126 68 52 80 59 64 68 40 39 50 55 62 73 79 86 97 50 47 56 67 65 74 28 42 31 113 24 132 131 17 154 59 79 64 114 118 122 93 97 102 85 89 96 89 93 101 88 92 100 
71 74 86 72 75 87 72 75 87 54 57 66 70 72 83 99 105 108 96 101 103 49 47 57 50 47 59 52 50 61 41 39 49 45 45 52 52 54 66 25 24 31 29 27 34 27 26 33 36 35 44 71 76 83 92 103 113 84 96 111 86 98 111 82 94 107 70 80 92 85 97 110 86 97 111 85 97 111 85 97 111 85 98 111 86 98 110 85 97 111 87 98 112 84 95 109 70 81 92 68 77 89 68 78 91 68 78 90 70 82 93 59 60 70 48 101 105 84 138 142 91 97 110 76 90 101 60 70 80 56 66 76 43 63 56 102 21 119 98 38 117 23 45 31 47 52 58 63 65 74 37 38 47 54 61 72 85 92 101 63 63 66 53 51 59 39 56 43 119 34 138 139 30 160 96 119 100 95 97 108 57 60 70 65 68 79 73 77 89 72 75 87 
73 77 88 70 74 84 69 72 83 74 78 89 71 74 86 73 75 87 101 106 109 95 101 103 77 80 84 81 83 88 82 84 90 64 65 71 49 51 62 24 24 31 27 24 31 26 24 32 36 35 43 70 76 83 94 104 114 84 96 111 85 97 111 84 96 110 78 90 102 85 97 111 85 97 111 85 97 111 87 98 111 86 98 111 86 97 110 87 98 112 82 94 108 69 80 91 67 77 89 69 79 91 68 78 90 67 77 89 70 82 94 60 60 71 48 103 107 82 130 134 75 72 84 63 73 83 54 60 70 43 65 57 107 35 131 94 32 113 28 45 34 44 41 53 43 43 53 50 52 57 39 40 50 54 59 73 97 105 114 84 87 87 48 46 54 55 73 58 137 50 156 137 29 158 78 99 88 74 74 90 74 78 89 74 78 89 73 77 88 74 77 88 
72 75 86 71 73 85 71 73 85 72 74 86 72 75 86 72 73 86 72 75 87 97 104 107 115 121 123 108 114 117 111 117 119 77 80 83 46 49 60 25 24 32 26 24 32 26 24 31 36 35 43 69 75 82 94 103 114 86 96 111 86 97 111 85 97 110 85 97 110 86 97 111 86 97 111 86 97 111 86 97 111 86 97 111 87 97 112 83 95 108 69 79 91 67 77 89 67 77 89 65 75 87 68 78 90 67 77 89 70 82 94 60 60 71 51 105 109 68 145 147 47 68 74 59 67 78 46 70 61 97 29 119 97 28 115 37 52 44 46 44 57 40 41 49 39 38 47 47 47 54 40 40 51 44 56 59 73 81 88 57 58 66 53 51 59 36 52 40 121 32 141 137 26 162 57 78 71 68 67 82 69 72 83 74 77 89 73 76 88 73 77 88 
72 75 87 73 76 87 73 76 88 73 75 87 73 75 87 73 75 87 71 74 86 74 76 88 75 77 89 74 76 88 72 75 87 60 62 69 50 52 63 24 23 31 28 26 33 28 26 32 29 29 35 70 76 83 94 103 114 84 96 111 86 98 112 86 97 111 86 97 111 86 97 111 86 97 111 86 97 111 85 97 111 86 98 112 84 96 110 70 80 91 67 76 88 69 79 91 60 69 80 65 74 86 68 78 90 68 78 89 70 82 94 59 61 72 50 99 103 79 253 253 66 189 187 36 53 44 100 37 124 105 28 124 32 48 39 49 48 60 46 48 60 41 44 52 39 39 47 50 48 56 40 46 51 74 29 91 62 53 78 55 60 65 65 61 70 41 57 45 117 30 137 135 25 160 60 81 73 68 68 82 70 74 85 74 78 89 74 77 89 75 78 89 
68 71 83 68 71 83 68 71 83 68 71 83 68 71 83 68 71 82 71 73 85 70 73 85 64 67 80 67 69 82 69 73 85 59 61 68 45 47 58 57 62 68 82 88 93 81 87 92 73 78 84 68 74 82 94 104 114 85 97 111 85 97 111 85 97 111 86 97 111 86 98 111 86 97 111 85 97 111 86 97 111 86 98 112 72 83 94 66 76 87 69 78 91 62 72 83 57 65 75 66 76 87 68 78 90 67 77 89 70 82 93 59 60 71 50 105 108 71 143 147 51 80 77 96 38 117 105 24 123 35 49 41 49 49 60 45 47 59 44 48 57 41 44 51 39 38 46 51 48 59 39 52 51 119 16 143 81 56 101 50 60 60 56 52 61 41 58 46 120 33 141 134 23 157 60 81 74 75 74 90 70 74 85 70 74 85 70 73 85 70 74 85 
78 82 89 78 82 89 77 82 88 77 81 88 77 81 88 79 84 90 66 70 77 64 66 74 78 83 90 72 78 84 64 68 76 59 61 69 46 48 59 45 48 56 65 70 78 65 69 77 56 60 68 68 74 81 94 104 114 84 97 111 85 97 111 85 97 111 85 98 111 85 98 111 86 97 111 85 97 111 86 99 113 76 88 101 66 76 87 67 77 89 67 77 89 62 71 81 66 76 87 67 77 89 68 78 90 67 77 88 70 81 93 59 60 72 48 102 107 77 128 128 74 56 81 131 21 155 39 49 48 36 37 46 45 47 60 44 46 57 44 46 58 41 43 51 38 37 45 50 48 58 39 52 51 113 18 136 79 55 99 52 61 61 52 49 59 34 52 41 122 34 142 135 25 159 53 74 64 79 81 90 78 83 90 78 83 89 77 82 89 78 83 89 
92 104 116 92 104 116 92 104 116 92 104 116 92 104 115 93 106 118 84 93 104 80 89 97 93 106 118 63 71 79 51 55 63 60 62 69 47 49 60 45 44 53 70 68 79 51 50 58 45 45 53 71 77 84 94 104 114 84 96 111 85 97 111 85 97 111 85 97 111 85 97 111 85 97 111 86 98 112 82 95 108 67 78 90 67 77 89 67 77 89 67 77 89 68 78 90 68 78 90 67 77 89 68 78 90 67 77 89 69 81 93 59 60 72 49 103 108 76 134 132 78 58 89 121 24 144 35 44 45 39 39 51 45 47 59 44 46 58 44 46 59 41 42 51 38 37 45 50 48 58 39 52 51 115 16 139 78 54 98 56 65 65 58 55 65 31 48 37 120 33 140 136 26 160 51 72 62 72 77 89 91 103 115 94 106 119 93 105 118 94 106 118 
83 95 109 83 95 109 83 95 109 82 94 109 82 94 109 82 94 108 85 97 111 83 96 110 68 78 91 66 76 88 54 59 69 59 60 67 47 49 60 48 48 57 69 68 79 66 66 76 59 59 69 69 75 82 94 103 114 85 96 111 86 97 111 85 97 111 85 97 111 85 97 111 85 97 111 86 98 112 73 84 96 66 76 88 67 77 89 67 77 89 67 77 89 67 77 89 68 78 90 68 77 90 68 78 90 68 78 89 69 81 93 59 60 71 49 103 107 75 133 131 76 57 87 124 24 146 35 44 44 41 42 55 45 47 59 43 45 57 42 43 53 40 42 49 37 36 45 50 47 57 39 52 51 115 17 138 79 55 99 55 64 64 56 52 62 33 50 39 121 33 141 135 25 159 49 71 62 83 91 109 84 96 111 84 96 111 84 96 111 85 97 111 
85 97 110 84 96 110 84 96 110 84 96 110 84 96 110 85 97 110 84 96 109 71 81 93 67 77 89 70 80 92 56 61 70 59 61 68 47 49 59 48 48 56 68 68 78 67 68 77 59 59 69 68 74 81 94 104 114 84 96 110 85 97 110 85 97 111 85 96 110 85 97 110 86 98 111 81 92 105 67 77 88 67 77 89 67 77 89 67 77 89 67 77 89 67 77 89 68 78 90 68 78 89 68 78 89 67 77 89 69 81 93 59 60 71 49 101 105 74 132 131 76 58 88 126 25 148 34 44 43 41 42 53 46 48 60 40 42 53 46 48 56 44 46 54 37 36 44 49 47 57 39 52 51 115 18 138 80 56 100 51 60 60 52 48 58 37 54 44 121 34 142 134 25 158 49 71 62 88 97 114 87 99 113 86 98 112 86 98 112 87 99 113 
85 97 111 84 96 110 84 96 110 84 96 110 84 97 110 84 97 110 73 84 96 67 77 89 69 78 90 69 79 90 55 61 70 60 61 68 47 49 60 48 48 56 68 69 78 67 67 77 59 60 70 68 74 81 94 105 115 85 99 113 87 99 113 87 99 114 86 99 113 86 99 113 86 99 114 70 82 95 66 76 87 68 78 89 67 77 89 67 77 89 67 77 89 67 77 89 68 78 89 67 77 89 67 77 89 67 77 88 69 81 92 60 60 71 48 105 108 72 134 132 75 57 86 123 25 147 36 45 45 39 40 51 44 47 57 42 44 53 44 46 55 41 44 52 38 37 45 49 47 57 39 52 51 114 18 138 79 55 99 52 61 61 60 57 68 39 57 47 119 33 140 135 25 159 50 71 62 87 96 114 86 99 113 86 98 112 86 98 112 86 98 112 
85 97 111 84 96 110 85 97 111 84 96 110 86 98 112 75 86 99 67 77 88 68 78 90 68 78 89 69 79 91 55 60 69 60 60 68 47 49 60 47 48 56 68 68 78 67 67 77 59 60 69 69 76 84 73 79 87 50 56 63 51 56 63 50 55 62 50 55 62 50 55 62 50 54 61 47 51 58 68 77 86 67 78 89 67 77 89 67 77 89 67 77 89 67 77 89 67 77 88 67 76 88 67 76 88 67 76 88 69 80 92 58 63 74 42 69 77 52 146 140 67 69 95 125 23 146 34 44 44 39 39 50 43 45 56 42 44 53 44 46 55 42 44 52 38 37 45 50 48 58 39 52 51 114 17 137 78 54 97 55 64 64 58 55 65 33 50 39 119 32 140 135 25 158 49 71 62 87 96 113 86 98 112 86 98 112 86 98 112 85 96 110 
84 96 110 84 96 110 84 96 110 86 98 112 80 91 105 67 77 89 68 78 90 68 78 90 68 78 90 69 79 92 55 60 70 59 60 68 45 47 57 47 47 56 69 68 79 67 67 78 59 59 70 70 76 85 76 80 86 46 47 49 48 49 51 47 48 50 47 48 50 47 48 51 48 49 51 55 56 59 76 83 92 67 78 90 68 78 90 68 78 90 68 78 90 68 78 90 69 80 92 69 80 92 69 79 91 69 79 92 71 81 95 60 70 81 51 55 68 50 128 126 62 90 113 125 18 141 39 49 49 42 42 53 45 48 60 41 43 53 45 46 55 41 44 52 38 37 45 51 48 58 39 52 51 114 17 137 80 56 99 55 65 65 54 50 60 33 50 40 122 35 143 135 25 158 50 72 63 87 96 113 86 98 112 86 98 112 78 89 102 83 95 108 
85 97 111 84 96 110 84 96 110 84 96 110 71 81 93 68 77 90 69 78 90 68 77 89 68 77 89 66 75 87 54 59 69 58 59 67 39 40 49 47 47 56 69 69 80 68 68 79 59 60 70 68 74 82 96 104 113 84 94 104 86 96 106 86 96 106 87 96 107 79 88 99 70 78 88 70 79 89 67 76 88 62 72 84 63 73 85 63 72 84 63 72 84 64 74 87 48 53 63 44 47 56 44 47 57 44 47 56 45 48 58 40 44 52 57 67 80 53 141 139 63 87 112 124 18 143 43 54 55 39 39 49 44 46 59 41 43 53 43 45 54 41 43 52 38 37 46 51 48 58 39 51 51 115 19 140 77 53 96 38 46 45 49 45 55 29 45 34 117 29 137 128 19 150 39 60 50 87 96 113 85 97 111 86 98 112 83 95 108 87 99 113 
84 97 111 83 96 110 84 97 111 76 87 100 65 76 87 67 77 88 67 77 89 67 77 89 67 78 90 49 57 67 47 52 61 57 59 67 43 45 55 48 48 57 68 68 78 67 67 78 61 62 72 64 70 77 80 86 91 88 96 104 87 95 102 86 93 101 87 95 102 82 89 96 80 87 94 79 86 94 80 86 93 80 87 94 81 87 94 80 86 93 81 88 95 72 78 83 37 35 44 42 39 50 42 38 49 41 38 49 41 37 48 36 35 44 56 65 78 53 140 138 63 88 112 124 18 142 40 51 53 35 36 46 45 47 59 43 45 56 37 39 44 40 42 48 38 37 45 50 47 57 39 52 51 116 20 141 71 46 89 34 39 40 59 57 66 20 35 24 110 22 130 127 17 149 34 52 44 68 75 89 81 94 107 86 99 113 86 98 112 86 98 112 
59 62 73 58 62 72 59 62 73 55 58 68 53 56 66 56 59 69 47 50 58 39 40 50 42 43 53 41 43 53 34 35 44 47 48 55 48 51 62 47 48 56 69 69 79 68 68 79 60 60 71 69 75 82 78 85 91 49 54 60 49 53 57 48 51 56 47 51 55 48 52 56 48 52 56 49 52 57 48 52 57 47 51 56 46 51 55 47 50 54 50 55 61 58 65 73 41 41 50 44 42 53 44 42 53 40 39 47 41 41 47 39 39 46 58 67 80 54 141 139 63 90 114 125 21 143 35 45 47 38 39 50 44 46 57 36 38 48 44 46 55 46 48 57 36 35 43 51 49 59 39 52 51 116 19 139 73 48 92 37 43 43 62 60 70 23 37 28 111 23 131 130 20 153 29 45 36 60 62 74 59 62 73 60 63 73 60 64 74 58 62 72 
43 43 48 43 43 47 43 42 47 44 44 49 44 44 49 47 46 53 50 48 58 41 37 48 45 42 53 44 41 52 43 40 51 48 48 56 48 50 61 47 48 57 69 69 81 68 68 80 58 59 70 71 78 86 81 89 98 34 37 43 47 49 54 45 48 53 44 47 52 45 47 52 45 48 53 45 48 53 45 48 53 44 47 53 44 47 53 46 49 54 40 42 48 55 62 72 41 40 50 44 41 52 42 40 51 41 40 47 44 44 49 49 49 56 58 68 82 53 141 139 63 90 115 125 20 144 34 44 46 41 42 53 40 43 51 38 40 44 38 39 43 35 37 45 36 36 44 50 48 57 39 51 51 116 19 139 75 50 93 37 42 43 55 53 62 23 37 28 112 23 132 128 19 151 29 43 35 70 66 81 67 67 79 69 68 80 63 63 74 46 46 52 
40 41 45 40 40 44 40 40 45 40 40 45 40 40 45 42 42 47 48 48 56 42 39 50 46 43 54 45 42 53 44 41 52 50 50 57 48 50 61 47 47 56 68 67 80 67 66 78 59 59 70 70 77 85 78 84 93 42 45 52 52 56 62 49 52 59 49 52 60 50 53 60 50 53 60 50 53 60 50 53 60 51 54 61 50 53 60 52 55 61 42 45 51 54 61 71 41 40 50 43 41 52 43 40 51 39 38 46 43 42 49 48 48 55 58 69 82 54 141 139 64 90 115 124 21 144 34 44 46 41 42 52 41 43 52 42 43 47 42 42 45 36 38 44 48 51 59 60 61 71 37 49 48 115 20 138 74 50 93 36 40 41 57 54 64 23 36 28 111 23 131 128 19 152 29 43 35 69 66 81 67 67 79 68 68 80 62 62 73 43 44 49 
67 66 79 67 66 79 67 66 80 67 66 80 66 65 78 71 69 83 55 53 64 42 39 52 48 44 57 48 44 57 39 35 47 46 46 53 48 50 61 49 48 58 72 71 84 71 69 83 62 61 73 73 78 88 87 94 105 44 47 56 47 50 57 47 50 58 47 49 57 46 49 57 46 49 56 47 49 57 47 49 57 47 49 57 47 49 57 48 50 57 45 47 55 60 67 79 43 41 52 46 42 55 45 42 55 41 38 49 44 42 50 51 50 58 59 68 83 56 148 147 69 96 123 129 21 150 33 42 45 40 39 51 43 44 56 36 36 45 41 41 49 38 39 49 48 49 59 62 62 73 37 49 48 119 19 142 77 50 96 37 41 43 64 61 70 25 38 30 111 21 131 130 19 154 32 45 38 72 68 85 70 69 83 70 69 83 70 69 83 68 67 81 
49 55 56 48 54 55 48 54 56 48 54 55 48 54 55 50 57 58 37 43 44 29 34 35 33 38 40 29 33 34 46 53 59 60 65 73 47 48 60 38 43 46 49 57 56 49 56 57 42 50 50 51 65 61 65 81 80 45 60 60 45 59 58 46 59 59 45 59 58 44 58 57 44 58 57 44 58 57 44 58 57 43 57 56 43 57 56 42 55 55 45 59 59 45 60 60 26 33 32 30 36 37 29 35 35 27 33 31 33 40 37 37 45 41 32 44 43 38 116 106 46 78 88 88 23 102 25 42 33 25 33 32 27 36 35 27 36 36 28 38 37 21 31 27 42 46 51 62 62 73 39 49 51 94 22 113 66 49 82 34 42 40 45 42 50 18 36 22 110 25 131 124 15 146 16 36 18 51 55 59 48 55 56 48 55 56 48 54 56 48 55 56 
61 22 72 61 21 72 61 22 72 61 22 71 61 22 72 61 22 72 62 23 73 62 23 72 63 25 74 59 19 68 67 64 84 70 77 84 44 47 56 48 25 58 70 23 81 67 23 77 69 25 80 69 25 80 65 21 76 69 24 80 69 24 81 69 24 80 69 24 81 69 23 81 69 23 81 69 23 80 69 24 80 69 24 80 67 23 79 68 22 78 68 22 78 66 20 76 67 22 78 67 22 77 67 22 77 67 23 78 68 23 79 66 23 78 67 26 81 66 27 81 64 28 81 64 30 79 68 26 80 66 23 77 67 22 77 68 23 79 67 24 79 67 21 78 56 43 67 58 63 68 44 45 57 42 51 55 68 66 83 58 28 66 59 63 66 33 29 40 121 18 142 133 16 156 48 19 56 66 21 77 64 22 75 63 22 74 63 22 74 62 21 73 
182 16 215 182 15 216 181 15 215 181 16 215 182 15 215 182 15 214 181 15 215 181 14 214 180 18 214 181 13 213 94 60 116 64 75 77 38 49 49 113 21 134 195 16 227 182 18 215 184 19 217 184 22 218 184 23 219 183 22 219 182 24 219 182 25 220 182 26 220 183 25 220 183 24 221 183 24 220 183 25 220 182 25 220 183 24 221 182 24 220 182 24 220 183 24 221 183 24 220 183 24 219 182 26 220 181 24 220 182 24 220 182 25 220 182 25 221 183 26 222 183 27 222 182 24 221 181 22 218 183 22 220 184 21 221 183 19 219 181 19 217 188 12 222 92 40 109 53 65 62 44 42 57 51 65 69 112 85 135 132 16 151 46 65 50 89 26 105 162 13 189 155 18 182 176 18 207 183 16 218 182 17 216 181 18 216 181 18 215 181 18 214 
76 208 212 75 207 211 75 207 212 76 208 212 76 208 212 75 208 212 76 208 212 75 209 213 77 209 213 75 211 213 70 107 116 66 68 77 44 38 49 54 129 133 78 212 220 75 208 210 77 211 213 77 212 214 78 213 215 78 213 214 77 213 214 77 214 215 77 214 215 77 213 215 78 214 216 78 215 216 78 215 216 78 214 216 77 214 217 77 215 216 77 215 216 78 215 217 77 214 217 76 215 217 75 215 217 75 215 216 75 214 216 75 214 215 75 215 215 76 216 216 75 215 216 74 214 215 74 214 214 74 214 214 74 213 214 74 212 212 74 211 211 72 214 216 60 106 111 59 53 62 43 46 57 55 54 66 87 125 132 61 157 155 57 38 48 36 114 99 123 95 194 132 57 180 64 214 205 77 210 214 75 212 213 75 212 212 75 212 212 76 211 211 
87 162 164 88 163 164 87 162 164 86 161 163 86 161 162 86 160 161 86 160 161 86 160 162 87 160 162 86 162 162 64 87 93 61 64 71 39 35 45 58 99 102 91 166 169 87 160 162 89 163 165 89 163 165 88 164 165 88 164 166 88 165 168 88 165 168 88 165 168 88 166 169 88 167 169 88 167 170 87 166 170 87 167 170 87 167 169 87 167 170 86 166 169 87 166 170 87 167 170 86 166 169 86 166 169 87 166 169 86 165 168 86 164 166 87 164 166 87 164 167 86 162 165 87 162 164 86 161 163 86 159 161 86 159 161 86 158 160 85 157 159 87 161 164 64 89 95 58 56 65 43 46 56 55 57 68 90 112 120 65 116 117 57 49 57 42 89 77 124 72 172 136 49 174 81 165 156 91 158 163 89 160 162 90 161 163 90 161 163 90 162 164 
61 54 67 61 54 67 61 54 66 61 53 67 61 54 67 60 53 66 60 52 66 60 53 66 62 55 69 60 51 65 66 71 82 66 72 81 40 41 50 49 46 56 71 65 78 69 63 76 69 63 76 71 68 81 77 83 96 78 83 97 78 83 98 78 84 98 78 84 99 78 84 98 77 84 98 78 84 99 78 84 99 78 85 100 78 85 99 77 84 99 77 84 99 78 84 100 77 84 99 77 84 99 77 84 99 78 84 100 77 84 99 77 85 100 74 78 92 70 70 82 72 71 83 72 70 82 71 69 81 71 69 81 71 69 81 71 69 81 71 69 81 71 68 80 56 57 67 52 55 62 33 34 43 54 60 70 85 90 100 49 44 52 50 49 57 33 44 37 116 30 136 130 23 154 51 57 53 65 54 71 62 55 68 63 55 69 63 55 69 62 55 68 
57 56 69 57 55 67 56 54 66 57 55 68 52 51 63 56 54 67 56 55 66 56 55 67 58 57 70 58 53 67 67 72 83 61 67 75 36 38 44 48 48 57 71 69 83 68 66 79 68 67 79 75 83 94 82 97 110 76 95 108 69 100 111 70 102 113 69 101 113 69 101 112 69 101 112 69 101 112 69 101 112 69 102 113 69 101 113 69 101 112 68 100 112 69 101 113 69 101 113 68 102 114 69 102 114 68 102 113 68 98 110 78 97 112 79 92 106 72 77 88 71 75 86 71 76 87 72 76 88 72 76 88 70 75 86 71 76 87 71 76 88 71 76 87 58 60 69 48 51 59 37 38 49 56 62 74 86 92 103 47 46 54 45 44 51 27 41 30 116 30 137 130 22 154 44 59 53 61 56 73 58 57 70 58 56 69 58 57 69 58 56 68 
59 57 70 53 51 62 58 56 67 53 51 62 52 50 62 55 53 64 58 56 68 58 55 69 62 60 72 59 39 68 65 54 81 62 71 75 39 40 50 50 52 62 78 80 94 74 76 88 75 78 90 81 94 106 76 90 103 61 135 139 70 168 168 71 161 163 71 162 163 71 162 163 71 162 164 71 163 164 71 162 163 70 161 163 71 162 164 71 163 164 70 162 163 70 161 162 71 162 164 71 162 164 70 162 163 72 162 163 68 167 168 61 109 118 79 92 108 75 83 95 66 69 80 71 74 86 72 76 88 72 76 88 65 68 79 69 73 84 72 75 87 71 74 86 59 61 70 46 48 57 40 41 53 48 52 61 79 83 93 54 52 61 52 51 59 28 42 32 116 30 136 130 22 154 46 59 54 62 57 72 60 57 69 59 57 69 59 57 69 59 57 69 
55 52 64 58 55 67 56 53 65 57 53 65 58 55 68 59 56 70 59 55 70 61 57 70 56 45 63 117 8 140 79 42 92 52 63 64 40 40 53 72 81 92 89 100 112 86 96 107 84 96 107 84 93 108 65 117 124 64 180 177 110 183 185 111 177 180 111 178 181 111 178 180 111 178 181 110 179 181 109 178 180 110 178 180 111 179 181 110 179 182 110 179 181 110 178 181 109 179 181 109 179 181 108 179 181 112 176 179 101 193 194 57 163 161 73 102 113 78 88 101 70 74 85 71 75 86 72 75 87 72 74 87 71 74 86 71 74 87 71 75 86 71 75 86 58 61 71 57 59 68 34 35 45 47 49 61 51 53 60 47 46 54 51 49 57 30 44 34 117 31 137 126 24 150 46 61 54 63 56 73 61 57 70 61 57 70 60 57 70 60 56 70 
55 56 64 56 57 64 54 55 63 56 56 64 55 56 65 55 56 64 57 57 65 57 45 64 107 8 128 111 38 130 57 65 70 39 39 51 58 65 74 88 99 111 85 95 107 85 95 107 86 98 111 71 78 89 60 120 120 57 131 131 54 122 124 54 127 129 54 127 129 54 128 130 53 128 130 52 127 129 51 126 128 52 128 130 50 128 129 50 128 130 50 127 129 50 127 129 50 128 129 50 127 130 50 128 130 50 128 130 51 123 125 56 136 136 55 98 103 76 84 96 73 79 90 72 76 87 71 75 86 71 75 86 72 74 87 72 76 87 71 75 87 73 78 89 60 63 72 63 66 76 52 54 63 34 35 46 49 51 63 43 45 51 38 34 44 29 43 33 116 31 136 144 13 170 40 48 47 58 58 68 55 56 66 55 56 64 55 56 64 55 56 64 
54 40 61 53 38 58 53 38 58 52 38 57 50 38 55 52 39 57 49 34 55 106 9 126 110 45 126 47 64 58 36 38 49 62 68 78 89 101 113 84 96 107 85 96 107 86 98 111 73 83 93 77 80 86 53 50 58 62 61 71 66 67 78 65 67 77 64 67 77 65 69 79 63 66 76 42 44 53 47 53 63 38 42 52 39 43 54 38 43 54 39 43 53 39 44 54 39 43 53 39 43 53 39 43 53 39 43 53 39 43 53 38 38 49 39 40 50 41 45 54 43 45 53 68 71 82 73 77 88 70 74 85 71 74 86 71 75 86 70 74 86 71 74 86 73 76 88 57 60 70 65 69 79 56 58 68 33 33 43 50 52 64 46 46 55 35 36 39 64 49 73 166 16 195 119 14 140 43 36 49 54 42 59 54 40 59 53 40 59 53 40 58 
155 12 181 154 10 178 153 9 177 151 9 177 160 10 187 166 11 193 153 8 179 94 44 108 52 66 63 44 44 56 64 71 81 88 100 112 84 95 107 84 95 107 85 97 111 73 82 92 76 77 83 73 73 83 65 66 76 70 70 80 70 70 80 70 71 81 70 71 81 72 72 82 61 62 71 53 56 64 40 44 52 44 47 57 44 48 58 45 48 58 44 48 58 44 47 57 45 48 58 45 48 59 45 48 59 45 48 59 45 48 59 45 47 60 45 47 59 45 47 57 42 45 54 41 43 52 68 71 82 74 78 90 75 79 90 75 78 90 74 78 90 74 78 90 74 78 90 75 78 90 58 60 69 64 66 77 59 61 71 34 34 44 48 49 62 50 49 60 51 56 56 63 50 72 160 15 189 171 11 201 158 12 185 152 11 176 153 12 177 152 11 177 
83 51 98 80 49 95 83 52 98 84 51 97 79 31 94 86 30 101 81 46 91 45 56 55 36 36 47 38 41 49 82 93 105 87 99 112 83 95 107 86 98 111 73 82 92 74 76 82 72 72 82 69 68 79 71 70 80 70 69 80 70 70 80 69 68 78 66 65 75 64 63 72 55 55 63 43 45 53 42 45 54 46 49 58 45 47 58 46 49 58 44 47 57 41 43 53 45 48 58 46 48 59 46 48 59 46 48 60 46 48 60 45 47 58 45 48 58 44 48 56 42 45 54 41 43 53 41 43 52 48 51 60 40 42 52 42 44 54 43 44 55 42 44 54 43 46 55 57 62 72 56 61 71 48 52 61 67 70 81 59 60 70 31 30 41 47 48 61 52 51 62 44 50 49 64 52 74 96 34 113 78 33 92 89 59 103 86 54 100 84 52 98 
55 65 63 56 66 64 47 57 55 30 41 41 53 69 65 42 54 47 47 58 57 34 34 45 36 38 46 42 45 55 39 43 51 71 80 91 87 99 112 75 83 93 67 68 71 63 64 72 72 72 83 72 71 81 72 72 82 72 72 81 72 72 82 70 70 79 49 48 55 57 57 64 52 53 60 40 42 51 45 47 57 39 41 51 39 42 52 37 40 50 30 32 40 32 34 43 29 32 39 29 32 39 30 32 40 29 31 39 28 30 37 39 42 51 39 42 51 40 43 52 39 41 51 42 45 55 43 46 56 37 40 47 71 74 78 63 67 71 63 66 70 63 67 71 62 66 70 75 81 87 87 93 97 77 85 93 60 68 78 65 68 79 62 64 74 35 35 44 32 34 42 51 51 60 53 53 58 47 61 55 53 70 65 33 43 42 49 59 58 59 69 67 
114 122 131 119 128 137 96 103 111 60 66 77 63 70 81 53 55 67 46 46 58 37 39 47 44 47 58 43 46 56 41 44 54 40 44 53 92 103 115 67 71 76 37 37 43 39 39 45 41 41 48 40 40 47 40 40 47 40 40 47 40 40 47 42 42 48 41 41 47 61 61 68 40 42 51 45 47 58 43 46 54 67 72 75 73 77 80 72 75 80 66 69 73 68 71 74 71 74 78 70 73 77 70 73 77 68 71 74 67 70 73 74 77 81 72 76 80 48 51 58 41 44 54 45 49 58 40 42 52 55 61 68 99 108 116 59 64 69 62 69 73 62 68 72 63 68 73 56 60 64 84 91 96 82 89 96 79 89 102 61 67 77 47 50 58 35 37 44 32 33 41 41 42 52 46 46 55 50 52 60 66 73 83 73 77 83 99 105 112 127 136 144 
73 83 94 73 82 93 77 85 95 81 87 93 62 71 80 41 45 54 42 44 52 41 43 52 42 44 56 41 43 54 42 44 55 42 46 55 95 106 117 66 69 75 27 27 32 45 47 50 41 43 46 42 43 47 42 44 47 42 43 47 44 46 49 38 40 42 29 30 35 64 63 72 41 43 51 40 43 53 62 65 70 74 80 85 69 77 85 76 83 91 74 82 89 73 81 88 73 80 88 74 81 89 73 80 88 74 81 89 75 83 90 72 80 87 66 71 77 71 75 78 40 43 52 45 48 58 40 42 52 56 64 73 72 82 93 46 51 58 51 57 63 50 56 63 51 57 64 47 52 58 59 67 77 77 86 96 90 99 108 63 69 80 34 36 46 45 47 59 37 38 47 34 34 44 37 36 46 43 47 54 62 68 74 95 104 113 66 74 84 77 87 98 
88 98 106 91 100 110 66 71 77 72 78 84 66 74 84 42 46 55 42 43 52 40 42 51 42 45 55 42 45 54 42 44 55 42 46 55 94 106 117 65 68 73 28 29 34 53 56 60 49 52 56 50 53 57 50 54 58 50 53 57 52 55 59 45 47 50 28 28 34 65 64 73 41 43 51 40 44 53 60 62 67 75 83 92 39 43 50 29 30 35 32 33 38 32 33 37 31 32 37 31 32 37 31 32 38 31 32 38 30 31 36 31 33 38 61 67 76 65 69 73 41 43 53 45 48 59 40 42 51 55 62 71 76 87 97 48 53 60 51 57 64 51 56 63 52 58 64 47 52 58 61 68 77 81 89 99 93 102 111 61 68 78 39 41 52 43 46 57 42 43 50 49 57 57 47 55 54 41 43 51 66 72 78 90 100 110 72 77 81 80 89 97 
85 97 110 87 100 114 68 78 91 72 79 85 66 74 83 45 50 59 48 50 60 40 43 51 43 46 56 43 46 56 42 45 55 42 46 55 93 105 117 65 69 74 25 27 32 48 52 57 44 48 52 46 49 54 46 50 54 46 49 54 47 51 56 42 44 48 29 30 36 65 64 73 41 44 51 40 44 53 60 62 67 72 79 87 37 39 44 33 34 37 34 34 38 34 34 38 35 35 39 35 35 39 35 35 39 34 34 38 34 34 38 33 34 37 55 60 66 66 69 74 40 43 52 45 48 58 40 43 52 53 61 69 83 95 107 67 76 86 63 72 81 61 71 80 62 71 80 62 70 79 73 81 93 80 88 97 91 101 110 61 68 79 40 42 52 43 45 56 45 51 54 113 42 132 106 36 124 36 49 46 63 68 76 89 98 107 83 92 100 87 99 112 
85 97 110 86 98 110 70 80 92 74 81 88 65 74 83 45 49 59 47 49 58 41 43 51 43 46 56 43 45 56 42 45 56 42 46 55 94 106 117 65 70 75 24 26 32 35 38 43 33 35 41 32 34 39 33 36 41 33 36 41 35 37 43 33 35 40 31 32 38 64 64 72 41 44 51 40 43 53 60 62 67 70 77 84 37 41 46 38 40 44 37 39 44 37 39 44 38 40 45 38 40 45 38 40 45 38 40 45 39 41 46 36 38 41 51 57 63 66 69 74 40 43 53 45 48 58 40 43 51 56 64 72 77 87 98 44 45 52 49 49 57 57 56 66 57 57 66 51 51 59 46 47 54 70 78 86 93 104 113 60 67 78 36 38 47 39 41 51 46 57 56 150 29 176 148 27 175 45 67 57 116 118 126 94 103 112 85 94 102 89 100 112 
86 98 111 82 93 106 64 73 85 75 82 89 65 74 83 45 50 59 47 49 59 41 43 51 44 47 57 43 46 57 43 45 55 42 46 55 94 105 115 69 74 79 37 38 50 42 45 56 43 46 56 35 37 45 42 45 55 44 47 58 44 45 58 45 48 59 43 45 53 63 63 71 42 45 53 41 44 55 61 63 68 70 77 84 34 38 43 36 38 43 36 38 43 36 38 43 35 38 44 36 38 44 36 38 44 36 39 44 37 39 45 32 34 39 51 56 63 66 69 74 42 45 54 46 50 60 41 44 53 58 65 74 73 81 92 51 49 57 62 61 71 69 68 78 64 63 74 62 60 70 55 55 63 66 73 81 96 106 115 59 66 76 32 34 42 35 37 46 45 54 53 144 33 168 139 27 164 94 112 102 177 177 183 127 134 141 83 92 101 88 100 112 
87 99 111 73 84 96 62 71 83 74 81 88 66 74 83 45 49 59 48 49 60 34 36 43 31 33 41 34 36 45 34 36 44 37 40 48 93 105 116 69 74 80 38 40 52 46 48 60 46 49 60 37 39 49 46 48 60 48 50 63 47 50 62 49 51 64 44 46 55 63 63 72 38 39 47 34 37 46 57 59 64 71 79 87 34 37 42 35 37 41 35 37 42 35 37 42 35 37 42 35 36 42 35 37 42 35 37 42 35 37 43 31 33 38 53 58 65 65 68 73 35 38 45 39 42 51 34 36 44 57 64 73 73 82 93 58 56 66 73 72 82 71 70 79 62 60 71 70 69 79 57 56 66 66 72 80 95 106 115 60 68 79 40 42 53 43 46 57 47 57 57 144 33 168 142 31 167 46 66 57 117 119 127 93 103 111 84 92 101 87 98 111 
72 82 94 64 73 84 45 52 59 73 79 85 66 74 84 45 49 59 47 49 59 40 42 50 33 35 43 41 43 53 44 46 57 42 47 55 92 104 115 70 75 79 38 40 48 43 45 53 43 45 53 37 38 45 42 44 53 44 45 54 43 45 54 45 46 55 42 43 50 64 63 72 38 40 48 35 38 47 57 59 64 72 79 86 36 39 44 36 38 42 37 38 43 37 38 43 36 38 43 36 38 43 37 38 43 37 38 43 37 39 44 33 35 39 53 59 65 65 68 73 36 38 47 40 43 53 35 38 46 57 65 74 73 82 93 59 57 67 71 71 80 61 61 71 69 68 78 66 64 75 58 57 67 66 72 80 95 106 116 60 68 78 39 41 51 42 45 54 46 57 57 144 34 170 143 33 169 39 60 52 64 67 76 92 102 112 71 78 85 70 80 90 
43 46 53 43 47 54 43 46 51 72 76 82 66 74 84 45 49 59 48 50 60 40 43 50 34 36 44 41 44 53 44 47 57 42 46 55 92 103 114 68 73 77 33 35 39 49 50 54 46 47 51 46 48 51 45 47 51 45 46 50 46 47 50 42 44 47 35 36 41 64 64 73 42 44 52 41 44 55 60 62 68 71 78 85 38 41 45 40 41 45 40 41 46 40 41 46 40 41 46 40 41 46 40 42 46 39 41 45 40 42 46 36 38 41 52 58 64 65 69 73 41 44 53 46 49 60 41 44 52 57 65 74 72 81 92 59 58 67 65 64 75 68 67 77 67 66 76 69 68 78 63 62 71 64 71 79 95 106 116 60 68 78 40 42 51 42 45 54 47 57 57 147 35 172 144 34 171 41 62 54 68 71 80 90 100 111 44 48 56 45 48 55 
